Game/Assets/LUTs/Shutterstock Free  LUTs/ColdChrome.cube
TITLE "ColdChrome"
# Created by Photon 3D ColorGrading
DOMAIN_MIN 0 0 0
DOMAIN_MAX 1 1 1
LUT_3D_SIZE 5
0.000001 0.000001 0.000001
0.439601 -0.077647 -0.117691
0.887313 -0.162810 -0.276279
1.329560 -0.241989 -0.402966
1.513956 -0.121221 -0.278334
-0.041763 0.329828 -0.080140
0.264491 0.253974 -0.068128
0.532653 0.211258 -0.106991
0.864549 0.192520 -0.152567
1.219508 0.201776 -0.170110
-0.056336 0.666215 -0.148313
0.254165 0.586635 -0.160427
0.517634 0.506709 -0.125953
0.815986 0.502131 -0.115801
1.114337 0.503510 -0.107079
-0.076002 1.091754 -0.166308
0.235190 1.005869 -0.227491
0.531649 0.867981 -0.191274
0.817805 0.811497 -0.121105
1.100600 0.796848 -0.103435
0.103024 1.237019 0.046010
0.283634 1.283660 -0.108388
0.537389 1.235796 -0.206004
0.810416 1.120816 -0.141228
1.076900 1.074385 -0.095515
-0.029602 -0.039321 0.246987
0.259205 -0.032705 0.177577
1.051988 -0.403006 0.037944
1.778290 -0.615118 -0.158157
1.933160 -0.430304 -0.107830
-0.050466 0.241712 0.227417
0.070106 0.102745 0.107676
0.570765 0.124557 0.030904
1.015811 0.197640 0.090112
1.559660 0.053262 -0.039989
-0.088269 0.568753 0.201062
0.202619 0.448817 0.142266
0.475246 0.467774 0.207602
0.813362 0.548639 0.279072
1.142497 0.489879 0.164973
-0.095384 1.051124 0.238772
0.354323 0.854321 0.306396
0.574360 0.868123 0.246275
0.853861 0.853081 0.302505
1.080111 0.783800 0.192016
0.082911 1.228341 0.337358
0.266152 1.302603 0.235095
0.521588 1.225201 0.159320
0.792003 1.105765 0.163898
1.070876 1.070547 0.182597
-0.056528 -0.074066 0.497826
0.158335 0.009807 0.373387
0.435886 0.112259 0.338253
1.139514 -0.173865 0.362857
1.649043 -0.346619 0.355194
-0.081620 0.207492 0.497833
0.146724 0.148226 0.340036
0.455369 0.317622 0.343278
1.064449 0.232562 0.430369
1.692638 -0.129626 0.318434
-0.082734 0.512864 0.501442
0.242569 0.480483 0.470692
0.619397 0.630187 0.617499
0.973801 0.571409 0.547901
1.268578 0.403693 0.390723
-0.082117 0.931316 0.574609
0.372120 0.905810 0.629520
0.647271 0.964848 0.644213
0.895763 0.897249 0.624218
1.052964 0.761916 0.472831
0.052428 1.193047 0.607590
0.262980 1.246519 0.581859
0.526473 1.179954 0.525198
0.771079 1.069706 0.473469
1.044609 1.044608 0.465107
-0.075945 -0.091819 0.773224
0.214097 0.021112 0.647556
0.414448 0.281604 0.504395
0.624395 0.446972 0.513284
0.937643 0.299284 0.601879
-0.096666 0.194795 0.791948
0.256139 0.252770 0.712252
0.537438 0.458135 0.654764
0.750157 0.646019 0.646793
1.064255 0.338752 0.694660
-0.095466 0.502373 0.797092
0.294316 0.549143 0.796112
0.618145 0.628310 0.865024
0.880507 0.781182 0.810169
1.142029 0.437376 0.728129
-0.100633 0.845143 0.836254
0.335390 0.869280 0.867337
0.638926 0.908466 0.907608
0.897940 0.902294 0.886807
1.069736 0.702690 0.709069
0.000806 1.140110 0.850073
0.251392 1.146378 0.846106
0.520354 1.115632 0.817303
0.768583 1.057677 0.768647
1.020644 1.020643 0.734438
-0.074881 -0.088865 1.070231
0.249502 0.028031 0.937305
0.486201 0.290333 0.733544
0.642175 0.538771 0.647592
0.746126 0.612803 0.652891
-0.087849 0.202634 1.096163
0.216493 0.214222 1.078269
0.526172 0.354679 0.907342
0.739971 0.622554 0.788845
0.830049 0.715288 0.765586
-0.090843 0.503539 1.097936
0.200217 0.496770 1.092603
0.494366 0.499344 1.052289
0.792430 0.682759 0.922524
0.902207 0.822596 0.873377
-0.096458 0.799056 1.095460
0.193610 0.783982 1.078787
0.475420 0.762852 1.049881
0.753763 0.764842 1.014675
0.958530 0.919028 0.952001
-0.067120 1.103889 1.101598
0.205234 1.084157 1.083872
0.476812 1.055255 1.055258
0.739745 1.025942 1.025942
1.000000 1.000000 1.000000
