Game/Assets/LUTs/Shutterstock Free  LUTs/ColdChrome.cube
TITLE "ColdChrome"
# Created by Photon 3D ColorGrading
DOMAIN_MIN 0 0 0
DOMAIN_MAX 1 1 1
LUT_3D_SIZE 9
0.000001 0.000001 0.000001
0.209696 -0.042793 -0.048664
0.439601 -0.077647 -0.117691
0.673091 -0.114928 -0.201494
0.887313 -0.162810 -0.276279
1.106179 -0.208370 -0.345660
1.329560 -0.241989 -0.402966
1.461516 -0.198226 -0.364818
1.513956 -0.121221 -0.278334
-0.035028 0.164300 -0.039258
0.131725 0.133460 -0.033174
0.281102 0.106911 -0.056194
0.446531 0.084700 -0.098485
0.625195 0.058361 -0.148233
0.821791 0.031466 -0.202354
1.035043 0.008811 -0.254376
1.243278 -0.000079 -0.287209
1.355078 0.043872 -0.230883
-0.041763 0.329828 -0.080140
0.129722 0.298766 -0.070443
0.264491 0.253974 -0.068128
0.394112 0.228886 -0.084724
0.532653 0.211258 -0.106991
0.687252 0.198878 -0.128987
0.864549 0.192520 -0.152567
1.056972 0.189127 -0.178243
1.219508 0.201776 -0.170110
-0.037603 0.494044 -0.118725
0.127845 0.466069 -0.121105
0.265149 0.412911 -0.110176
0.386330 0.372721 -0.103976
0.519505 0.354974 -0.111904
0.664527 0.348434 -0.118755
0.817915 0.348440 -0.119680
0.978692 0.350365 -0.122130
1.137138 0.353899 -0.121232
-0.056336 0.666215 -0.148313
0.106362 0.638559 -0.162599
0.254165 0.586635 -0.160427
0.385047 0.534373 -0.142853
0.517634 0.506709 -0.125953
0.663117 0.500653 -0.118562
0.815986 0.502131 -0.115801
0.969133 0.503525 -0.114086
1.114337 0.503510 -0.107079
-0.074328 0.863307 -0.166580
0.087118 0.833257 -0.189673
0.241219 0.781219 -0.199742
0.384239 0.720415 -0.187405
0.524698 0.677876 -0.154515
0.667765 0.659758 -0.125643
0.816697 0.656075 -0.115187
0.966287 0.654789 -0.112497
1.108867 0.651545 -0.105978
-0.076002 1.091754 -0.166308
0.079513 1.064162 -0.204840
0.235190 1.005869 -0.227491
0.384926 0.931411 -0.224369
0.531649 0.867981 -0.191274
0.676249 0.830097 -0.148678
0.817805 0.811497 -0.121105
0.959740 0.803018 -0.109341
1.100600 0.796848 -0.103435
0.021025 1.194783 -0.052056
0.117891 1.222310 -0.145371
0.240141 1.214494 -0.223887
0.386669 1.151283 -0.247104
0.535638 1.067120 -0.219774
0.678719 1.003683 -0.172236
0.816689 0.967862 -0.132052
0.952163 0.948455 -0.108747
1.088521 0.937234 -0.098150
0.103024 1.237019 0.046010
0.185137 1.267904 -0.029593
0.283634 1.283660 -0.108388
0.402889 1.274025 -0.175066
0.537389 1.235796 -0.206004
0.675154 1.173085 -0.184403
0.810416 1.120816 -0.141228
0.944204 1.091915 -0.112242
1.076900 1.074385 -0.095515
-0.019713 -0.020960 0.126710
0.156780 -0.029856 0.099520
0.484434 -0.143283 0.049045
0.861835 -0.309729 -0.113942
1.194863 -0.443744 -0.263192
1.495623 -0.525888 -0.374861
1.642060 -0.455500 -0.354229
1.700643 -0.347009 -0.283853
1.742909 -0.264547 -0.221676
-0.028978 0.126212 0.118986
0.054282 0.056192 0.045963
0.245258 0.016542 -0.012822
0.499122 -0.015480 -0.085815
0.735197 -0.045160 -0.139898
0.978207 -0.066280 -0.184227
1.188336 -0.052151 -0.190378
1.335510 -0.012496 -0.150511
1.558875 -0.053744 -0.181294
-0.055337 0.272836 0.082265
0.037126 0.175881 0.016759
0.143127 0.138911 0.005034
0.296464 0.141236 -0.012065
0.477336 0.159117 -0.018190
0.683384 0.179593 -0.022076
0.901583 0.195932 -0.030830
1.119560 0.195312 -0.049295
1.360044 0.154638 -0.103036
-0.087141 0.438083 0.032034
0.056972 0.340233 -0.015253
0.178432 0.294486 -0.014645
0.291369 0.277725 -0.003380
0.443431 0.298391 0.014446
0.619045 0.332348 0.039498
0.802760 0.359761 0.054548
0.995655 0.362734 0.035939
1.197654 0.340367 -0.013576
-0.114010 0.629637 0.002706
0.069040 0.542269 -0.012331
0.214836 0.488906 -0.016459
0.333449 0.459718 -0.006273
0.475417 0.464864 0.029048
0.641278 0.493611 0.060308
0.806683 0.516200 0.076765
0.961772 0.516815 0.070595
1.118614 0.499715 0.036510
-0.128440 0.855285 -0.005045
0.083566 0.780722 0.005524
0.243428 0.713709 0.000396
0.372968 0.675181 -0.003173
0.515349 0.657418 0.028288
0.674156 0.667580 0.063139
0.829910 0.678510 0.079251
0.965510 0.668539 0.077025
1.100899 0.647386 0.044284
-0.108119 1.098774 0.022504
0.129108 0.988065 0.057167
0.274861 0.939030 0.028765
0.404007 0.905205 0.001599
0.543615 0.862978 0.013916
0.694807 0.843990 0.050116
0.842405 0.838504 0.079053
0.968501 0.818601 0.081546
1.092922 0.792170 0.044078
0.015267 1.180341 0.127755
0.199430 1.090280 0.143799
0.307172 1.090871 0.088679
0.417342 1.091158 0.024678
0.547383 1.054020 0.001261
0.687925 1.008461 0.023366
0.830634 0.981774 0.058056
0.962366 0.960698 0.070362
1.086102 0.935863 0.042503
0.094220 1.234410 0.193399
0.175764 1.275306 0.129652
0.274752 1.298170 0.059380
0.394390 1.285584 0.000188
0.528099 1.236240 -0.028010
0.666653 1.173354 -0.022415
0.806257 1.124776 0.002399
0.944869 1.096965 0.024837
1.082083 1.080923 0.036967
-0.029602 -0.039321 0.246987
0.084163 -0.012562 0.185359
0.259205 -0.032705 0.177577
0.613047 -0.176952 0.152684
1.051988 -0.403006 0.037944
1.498999 -0.601245 -0.105347
1.778290 -0.615118 -0.158157
1.880784 -0.517644 -0.138283
1.933160 -0.430304 -0.107830
-0.039490 0.101971 0.244171
0.028845 0.036238 0.132777
0.153415 0.018696 0.073652
0.487201 -0.050934 -0.004581
0.861573 -0.155823 -0.084222
1.210814 -0.229012 -0.141713
1.378558 -0.154396 -0.079349
1.519271 -0.116224 -0.044499
1.798015 -0.212138 -0.109047
-0.050466 0.241712 0.227417
0.008107 0.133201 0.126742
0.070106 0.102745 0.107676
0.270436 0.096190 0.047497
0.570765 0.124557 0.030904
0.818768 0.154885 0.050717
1.015811 0.197640 0.090112
1.267352 0.152844 0.049817
1.559660 0.053262 -0.039989
-0.071198 0.389600 0.207562
0.014855 0.274628 0.112533
0.094744 0.226325 0.101837
0.210737 0.220210 0.109643
0.428613 0.290647 0.151703
0.639700 0.363484 0.207569
0.845317 0.392906 0.218196
1.073385 0.359270 0.157691
1.305197 0.301059 0.074949
-0.088269 0.568753 0.201062
0.050056 0.489582 0.145124
0.202619 0.448817 0.142266
0.323423 0.435571 0.160131
0.475246 0.467774 0.207602
0.653943 0.526081 0.262397
0.813362 0.548639 0.279072
0.972011 0.526929 0.234076
1.142497 0.489879 0.164973
-0.093510 0.791139 0.214277
0.086230 0.749113 0.197985
0.278335 0.689631 0.216825
0.415116 0.666861 0.222933
0.546082 0.673172 0.238421
0.706865 0.703187 0.280606
0.842675 0.707049 0.299214
0.962793 0.677430 0.255401
1.090958 0.640962 0.192242
-0.095384 1.051124 0.238772
0.164528 0.937590 0.279719
0.354323 0.854321 0.306396
0.458022 0.867697 0.270256
0.574360 0.868123 0.246275
0.718694 0.860999 0.274449
0.853861 0.853081 0.302505
0.967286 0.823371 0.262347
1.080111 0.783800 0.192016
0.002059 1.164934 0.296817
0.216429 1.065074 0.323985
0.334389 1.065956 0.296282
0.435438 1.082404 0.242761
0.556303 1.052969 0.209939
0.691257 1.006896 0.216999
0.830828 0.980381 0.244025
0.958820 0.958717 0.238130
1.073987 0.926197 0.188728
0.082911 1.228341 0.337358
0.165589 1.276388 0.289685
0.266152 1.302603 0.235095
0.387778 1.284932 0.187095
0.521588 1.225201 0.159320
0.656343 1.155060 0.154005
0.792003 1.105765 0.163898
0.931194 1.082076 0.176729
1.070876 1.070547 0.182597
-0.040041 -0.056932 0.368495
0.073785 -0.028525 0.311490
0.154704 0.008834 0.261114
0.336734 0.004213 0.268935
0.667803 -0.116681 0.266827
1.123181 -0.349272 0.204575
1.583208 -0.546339 0.129239
1.813399 -0.547384 0.109037
1.925007 -0.497830 0.102987
-0.057113 0.078476 0.367361
0.029883 0.027789 0.249135
0.093737 0.038918 0.189967
0.258716 0.060590 0.159526
0.645651 -0.012371 0.142223
1.108704 -0.161545 0.114614
1.394782 -0.184052 0.136867
1.606517 -0.209104 0.128586
1.911492 -0.347572 0.065204
-0.063931 0.223713 0.360823
0.014558 0.130057 0.235995
0.091999 0.113241 0.198326
0.227095 0.143445 0.169235
0.610828 0.139348 0.133741
0.956672 0.131425 0.172904
1.161449 0.149670 0.222151
1.453859 0.040992 0.160443
1.736120 -0.087085 0.085185
-0.074494 0.367439 0.352898
0.020813 0.270795 0.255579
0.110309 0.236358 0.240900
0.234601 0.268337 0.276997
0.518657 0.341375 0.294350
0.767337 0.401977 0.345700
0.986121 0.383784 0.328862
1.230444 0.300353 0.246359
1.442098 0.219820 0.174593
-0.074070 0.530456 0.359529
0.065557 0.469244 0.311738
0.213570 0.454840 0.313859
0.356176 0.483858 0.371861
0.532204 0.536043 0.418230
0.716148 0.586600 0.457607
0.871942 0.574528 0.430862
1.034790 0.521054 0.351842
1.197064 0.462593 0.276517
-0.063452 0.736870 0.391055
0.111887 0.717064 0.386210
0.321765 0.694655 0.420905
0.480749 0.704889 0.453473
0.605296 0.734618 0.460149
0.749981 0.750460 0.494951
0.870540 0.735885 0.478520
0.976598 0.685818 0.403011
1.087712 0.631009 0.330128
-0.083420 0.990193 0.423098
0.168902 0.926954 0.451741
0.377480 0.873982 0.479902
0.493053 0.915777 0.471740
0.608359 0.913744 0.450005
0.742094 0.888448 0.463932
0.872891 0.873833 0.473945
0.974237 0.831423 0.413267
1.065275 0.773556 0.336090
-0.022019 1.149247 0.455620
0.209345 1.068397 0.473681
0.333597 1.088793 0.461311
0.443318 1.109214 0.428331
0.568080 1.073050 0.396528
0.698678 1.015845 0.388207
0.834832 0.984566 0.400942
0.958745 0.959281 0.386831
1.059832 0.914370 0.331841
0.069414 1.215094 0.475979
0.156453 1.262162 0.449152
0.261737 1.286026 0.414675
0.387778 1.265544 0.377825
0.521602 1.204874 0.347335
0.650587 1.134511 0.328193
0.779244 1.085327 0.321504
0.916644 1.065068 0.324376
1.057624 1.057587 0.325922
-0.056528 -0.074066 0.497826
0.072991 -0.045122 0.446343
0.158335 0.009807 0.373387
0.253221 0.076114 0.332243
0.435886 0.112259 0.338253
0.732170 0.034204 0.358893
1.139514 -0.173865 0.362857
1.456344 -0.302949 0.365113
1.649043 -0.346619 0.355194
-0.076379 0.059154 0.501218
0.038632 0.032080 0.397400
0.132240 0.056990 0.335142
0.212783 0.128794 0.291878
0.417809 0.203231 0.294926
0.767494 0.157144 0.345611
1.098911 0.046995 0.382874
1.387105 -0.084646 0.375223
1.726901 -0.289406 0.332841
-0.081620 0.207492 0.497833
0.027612 0.148105 0.388284
0.146724 0.148226 0.340036
0.247020 0.215837 0.333716
0.455369 0.317622 0.343278
0.776957 0.327588 0.407200
1.064449 0.232562 0.430369
1.393777 0.047953 0.381220
1.692638 -0.129626 0.318434
-0.088541 0.354315 0.493734
0.035711 0.294571 0.413035
0.178932 0.288472 0.388552
0.346843 0.367320 0.447427
0.546587 0.468619 0.483177
0.801751 0.477708 0.507334
1.060990 0.375532 0.474763
1.312435 0.238424 0.400670
1.511237 0.131359 0.335307
-0.082734 0.512864 0.501442
0.071395 0.473988 0.462615
0.242569 0.480483 0.470692
0.428663 0.549915 0.549670
0.619397 0.630187 0.617499
0.810643 0.641242 0.613803
0.973801 0.571409 0.547901
1.127945 0.483452 0.463680
1.268578 0.403693 0.390723
-0.065078 0.699267 0.532000
0.110394 0.699843 0.538465
0.323672 0.718469 0.579721
0.517403 0.768716 0.636565
0.671116 0.814940 0.670848
0.808689 0.809161 0.675557
0.914314 0.762030 0.625804
1.007171 0.686731 0.536093
1.105378 0.609275 0.449911
-0.082117 0.931316 0.574609
0.149390 0.921892 0.603196
0.372120 0.905810 0.629520
0.517856 0.957439 0.653383
0.647271 0.964848 0.644213
0.773302 0.927547 0.631562
0.895763 0.897249 0.624218
0.982650 0.839208 0.559252
1.052964 0.761916 0.472831
-0.054314 1.128543 0.606305
0.192853 1.060614 0.614255
0.331505 1.085541 0.620186
0.455588 1.108045 0.610224
0.586919 1.083929 0.584883
0.714034 1.030301 0.560010
0.842092 0.991478 0.553339
0.959795 0.960407 0.532786
1.045726 0.902113 0.470285
0.052428 1.193047 0.607590
0.149125 1.229955 0.599117
0.262980 1.246519 0.581859
0.393285 1.228658 0.555666
0.526473 1.179954 0.525198
0.650861 1.118866 0.495462
0.771079 1.069706 0.473469
0.903222 1.049057 0.466266
1.044609 1.044608 0.465107
-0.069544 -0.086394 0.632676
0.073290 -0.054797 0.583689
0.185515 0.011811 0.506923
0.272651 0.110530 0.435952
0.384351 0.224973 0.402099
0.548140 0.288750 0.416245
0.782619 0.221041 0.464479
1.027246 0.099536 0.512812
1.248904 -0.018513 0.532025
-0.090398 0.046142 0.642211
0.053124 0.045526 0.558680
0.185385 0.088719 0.503639
0.287774 0.182088 0.456369
0.410482 0.320940 0.431056
0.584663 0.414620 0.459898
0.780702 0.378224 0.511084
1.024391 0.227638 0.541252
1.337680 -0.008064 0.552835
-0.093661 0.196987 0.641288
0.050924 0.177073 0.561867
0.213569 0.210842 0.526646
0.353108 0.295104 0.521844
0.483861 0.437529 0.519713
0.645884 0.545612 0.545883
0.832397 0.482020 0.576294
1.093140 0.282541 0.579311
1.389842 0.047281 0.561783
-0.096059 0.348018 0.640750
0.063349 0.329780 0.588775
0.249568 0.361578 0.576549
0.430177 0.436677 0.612463
0.583708 0.552198 0.643822
0.736670 0.645810 0.653631
0.916155 0.550352 0.643418
1.147380 0.349441 0.605655
1.374484 0.168421 0.554908
-0.093551 0.503457 0.645366
0.081438 0.495641 0.624859
0.279287 0.528039 0.639823
0.473119 0.588621 0.694237
0.646973 0.662816 0.753366
0.808390 0.727459 0.750382
0.963465 0.630483 0.695473
1.131156 0.475635 0.619866
1.280305 0.350876 0.545423
-0.084127 0.676080 0.666567
0.093055 0.695064 0.684923
0.315552 0.726160 0.720029
0.519242 0.764063 0.760808
0.680549 0.809650 0.805277
0.827436 0.830831 0.812911
0.944774 0.767432 0.749906
1.048881 0.660865 0.653899
1.143267 0.560337 0.561629
-0.092155 0.883499 0.708321
0.119854 0.906406 0.744198
0.360237 0.897643 0.759440
0.526604 0.932698 0.789692
0.667231 0.955369 0.804233
0.794260 0.943453 0.792953
0.907511 0.906654 0.765933
0.991207 0.837545 0.695442
1.053107 0.742820 0.595847
-0.086643 1.096742 0.748530
0.171184 1.037421 0.742831
0.328331 1.052347 0.755304
0.464827 1.071035 0.761689
0.601071 1.065628 0.752190
0.728363 1.035034 0.727873
0.848208 0.996670 0.704322
0.959300 0.959730 0.675525
1.032883 0.889928 0.604363
0.030476 1.165640 0.730907
0.139446 1.187889 0.731876
0.262447 1.195184 0.724432
0.395436 1.182115 0.707716
0.528767 1.150527 0.683233
0.653383 1.106907 0.653371
0.768599 1.061668 0.622528
0.891991 1.035830 0.604297
1.032216 1.032215 0.600892
-0.075945 -0.091819 0.773224
0.077317 -0.055824 0.725334
0.214097 0.021112 0.647556
0.320316 0.139474 0.563243
0.414448 0.281604 0.504395
0.511941 0.403268 0.487517
0.624395 0.446972 0.513284
0.769273 0.400565 0.559822
0.937643 0.299284 0.601879
-0.096039 0.041418 0.790110
0.070782 0.063339 0.723525
0.229219 0.121255 0.672601
0.359895 0.225808 0.617316
0.467182 0.370566 0.567297
0.572748 0.503451 0.553325
0.675923 0.553984 0.566970
0.805951 0.484578 0.601151
1.003471 0.313918 0.650121
-0.096666 0.194795 0.791948
0.076196 0.205845 0.737469
0.256139 0.252770 0.712252
0.411262 0.332472 0.690119
0.537438 0.458135 0.654764
0.657969 0.601223 0.648066
0.750157 0.646019 0.646793
0.873139 0.540445 0.664171
1.064255 0.338752 0.694660
-0.096079 0.348485 0.793770
0.088322 0.359747 0.761777
0.281208 0.399595 0.752961
0.443682 0.447056 0.767019
0.595095 0.532596 0.770063
0.737211 0.680403 0.756230
0.822930 0.721269 0.732274
0.938609 0.588809 0.726317
1.113327 0.377785 0.724339
-0.095466 0.502373 0.797092
0.094240 0.516309 0.789613
0.294316 0.549143 0.796112
0.459187 0.582221 0.830387
0.618145 0.628310 0.865024
0.782226 0.738387 0.851380
0.880507 0.781182 0.810169
0.992342 0.639023 0.774285
1.142029 0.437376 0.728129
-0.095007 0.662205 0.806894
0.092700 0.686005 0.825274
0.309057 0.710501 0.839618
0.483152 0.737616 0.869020
0.635025 0.766433 0.902015
0.787641 0.804326 0.906898
0.909947 0.828416 0.865205
1.017314 0.705053 0.796017
1.129898 0.539471 0.709700
-0.100633 0.845143 0.836254
0.105692 0.872699 0.867246
0.335390 0.869280 0.867337
0.495998 0.889467 0.888534
0.638926 0.908466 0.907608
0.775464 0.913715 0.910717
0.897940 0.902294 0.886807
0.995817 0.824933 0.814732
1.069736 0.702690 0.709069
-0.104900 1.050603 0.877985
0.142158 1.011782 0.863920
0.312870 1.013086 0.868479
0.454298 1.023715 0.877298
0.594101 1.026400 0.879043
0.726891 1.016434 0.869151
0.848054 0.993262 0.847421
0.955317 0.953534 0.810596
1.025538 0.874157 0.731496
0.000806 1.140110 0.850073
0.122090 1.147437 0.851129
0.251392 1.146378 0.846106
0.386107 1.135103 0.834400
0.520354 1.115632 0.817303
0.649071 1.089747 0.795635
0.768583 1.057677 0.768647
0.885000 1.027702 0.742219
1.020644 1.020643 0.734438
-0.072824 -0.087609 0.916901
0.085654 -0.050073 0.869370
0.236671 0.029910 0.788926
0.360531 0.153925 0.693981
0.454026 0.298183 0.616539
0.535013 0.427534 0.578092
0.615053 0.520976 0.572074
0.696396 0.542440 0.591584
0.791704 0.499190 0.626738
-0.092602 0.045079 0.940262
0.073622 0.066328 0.900141
0.240418 0.120858 0.850868
0.387985 0.222162 0.773689
0.500375 0.361988 0.686415
0.594823 0.498726 0.643809
0.676608 0.600541 0.633701
0.742020 0.612846 0.639692
0.841705 0.535823 0.683223
-0.093636 0.197746 0.944489
0.075816 0.211547 0.920796
0.246503 0.243116 0.901108
0.405454 0.305384 0.852206
0.541443 0.414257 0.776032
0.658815 0.555810 0.734889
0.745103 0.671956 0.715502
0.798680 0.675586 0.706494
0.890669 0.576764 0.742246
-0.093968 0.351053 0.948014
0.084754 0.365902 0.931953
0.253393 0.384706 0.925510
0.401760 0.404594 0.922637
0.557471 0.467020 0.883499
0.705966 0.601858 0.832887
0.803686 0.732821 0.798079
0.851099 0.735413 0.775227
0.936422 0.619133 0.798114
-0.095392 0.503520 0.950827
0.086928 0.516998 0.944464
0.255714 0.529298 0.943559
0.400100 0.538078 0.957478
0.554002 0.560784 0.958189
0.722639 0.648517 0.921448
0.846053 0.781669 0.874837
0.897882 0.791999 0.840499
0.978570 0.658288 0.842600
-0.097345 0.655538 0.952506
0.086494 0.669188 0.956697
0.260097 0.677738 0.958323
0.408016 0.686769 0.970311
0.556277 0.697058 0.980767
0.712271 0.723579 0.974433
0.860779 0.814981 0.936537
0.935534 0.838344 0.892907
1.015583 0.693266 0.864836
-0.100192 0.816431 0.963594
0.092949 0.826665 0.970250
0.269798 0.827211 0.968589
0.416560 0.833805 0.976072
0.561467 0.840694 0.982991
0.704493 0.844433 0.984228
0.845610 0.863497 0.969489
0.954174 0.875722 0.924498
1.036365 0.743264 0.858975
-0.104894 0.999553 0.993891
0.107767 0.978815 0.976884
0.266787 0.974171 0.973436
0.407192 0.974657 0.974374
0.547865 0.973517 0.973256
0.686160 0.969316 0.968957
0.818232 0.960657 0.958678
0.936920 0.942155 0.928965
1.023278 0.858294 0.855584
-0.034460 1.120250 0.972612
0.096187 1.116592 0.969166
0.229616 1.109147 0.961907
0.365443 1.096292 0.949884
0.500004 1.080648 0.935347
0.631684 1.063800 0.919684
0.759543 1.045676 0.902625
0.881618 1.023962 0.881647
1.009947 1.009947 0.867089
-0.074881 -0.088865 1.070231
0.090025 -0.049287 1.020674
0.249502 0.028031 0.937305
0.384145 0.143295 0.836921
0.486201 0.290333 0.733544
0.563855 0.429944 0.660541
0.642175 0.538771 0.647592
0.695123 0.603919 0.639966
0.746126 0.612803 0.652891
-0.090112 0.048420 1.095528
0.067283 0.060034 1.080741
0.230668 0.099245 1.029917
0.388741 0.190623 0.929230
0.514005 0.323855 0.809429
0.606318 0.457013 0.734872
0.693516 0.581490 0.717483
0.746489 0.656845 0.704319
0.788780 0.662425 0.708107
-0.087849 0.202634 1.096163
0.062488 0.204015 1.095522
0.216493 0.214222 1.078269
0.378196 0.259536 1.012977
0.526172 0.354679 0.907342
0.642866 0.483401 0.822133
0.739971 0.622554 0.788845
0.796544 0.711701 0.771084
0.830049 0.715288 0.765586
-0.087838 0.354070 1.096826
0.059029 0.352665 1.097743
0.205228 0.351117 1.095295
0.357309 0.359954 1.071041
0.515978 0.407015 1.000679
0.661057 0.512350 0.912283
0.775318 0.657312 0.857564
0.840512 0.763607 0.834519
0.868016 0.769455 0.821893
-0.090843 0.503539 1.097936
0.054842 0.500737 1.097162
0.200217 0.496770 1.092603
0.345578 0.492669 1.081265
0.494366 0.499344 1.052289
0.651433 0.554340 0.989600
0.792430 0.682759 0.922524
0.874630 0.806503 0.889186
0.902207 0.822596 0.873377
-0.094490 0.651713 1.097489
0.050898 0.647416 1.094200
0.196802 0.641187 1.085673
0.340842 0.633536 1.072645
0.481505 0.626029 1.057073
0.625902 0.632697 1.031439
0.782690 0.706913 0.980187
0.896457 0.836464 0.934954
0.932390 0.872745 0.916960
-0.096458 0.799056 1.095460
0.048369 0.792742 1.089430
0.193610 0.783982 1.078787
0.336625 0.773639 1.064743
0.475420 0.762852 1.049881
0.610869 0.753361 1.035722
0.753763 0.764842 1.014675
0.897970 0.855466 0.975295
0.958530 0.919028 0.952001
-0.089187 0.951204 1.097887
0.052988 0.941258 1.088348
0.194105 0.929900 1.076704
0.334322 0.916594 1.061933
0.471405 0.903225 1.046816
0.605343 0.890668 1.032846
0.738156 0.880635 1.020318
0.877814 0.898570 1.002662
0.980853 0.961283 0.979143
-0.067120 1.103889 1.101598
0.069296 1.094540 1.093514
0.205234 1.084157 1.083872
0.342013 1.070238 1.070214
0.476812 1.055255 1.055258
0.609179 1.040289 1.040289
0.739745 1.025942 1.025942
0.869652 1.012514 1.012514
1.000000 1.000000 1.000000
