Game/Assets/LUTs/Shutterstock Free  LUTs/ColdChrome.cube
TITLE "ColdChrome"
# Created by Photon 3D ColorGrading
DOMAIN_MIN 0 0 0
DOMAIN_MAX 1 1 1
LUT_3D_SIZE 33
0.000001 0.000001 0.000001
0.052182 -0.010847 -0.011382
0.104316 -0.021689 -0.023077
0.156630 -0.032415 -0.035388
0.209696 -0.042793 -0.048664
0.264262 -0.052544 -0.063297
0.320871 -0.061502 -0.079632
0.379524 -0.069752 -0.097820
0.439601 -0.077647 -0.117691
0.500017 -0.085704 -0.138722
0.559550 -0.094438 -0.160143
0.617308 -0.104173 -0.181209
0.673091 -0.114928 -0.201494
0.727333 -0.126468 -0.220954
0.780731 -0.138472 -0.239774
0.833912 -0.150654 -0.258168
0.887313 -0.162810 -0.276279
0.941183 -0.174798 -0.294160
0.995645 -0.186502 -0.311785
1.050699 -0.197774 -0.329038
1.106179 -0.208370 -0.345660
1.161808 -0.218020 -0.361329
1.217589 -0.226783 -0.376074
1.273892 -0.235068 -0.390333
1.329560 -0.241989 -0.402966
1.379695 -0.243706 -0.409223
1.418535 -0.236247 -0.404154
1.444515 -0.219643 -0.387647
1.461516 -0.198226 -0.364818
1.474825 -0.176577 -0.341100
1.487679 -0.156735 -0.318931
1.500808 -0.138582 -0.298290
1.513956 -0.121221 -0.278334
-0.009447 0.041194 -0.009645
0.036003 0.030086 -0.014289
0.083612 0.021423 -0.020815
0.131227 0.013362 -0.029030
0.178380 0.005021 -0.038677
0.226454 -0.003111 -0.049940
0.276564 -0.010681 -0.063028
0.328978 -0.017758 -0.077994
0.383275 -0.024644 -0.094671
0.438582 -0.031744 -0.112645
0.493865 -0.039450 -0.131305
0.548309 -0.048014 -0.150041
0.601622 -0.057462 -0.168461
0.654024 -0.067625 -0.186464
0.705986 -0.078255 -0.204131
0.757967 -0.089121 -0.221584
0.810301 -0.100044 -0.238903
0.863193 -0.110894 -0.256105
0.916751 -0.121561 -0.273153
0.971005 -0.131919 -0.289951
1.025861 -0.141778 -0.306301
1.081093 -0.150896 -0.321913
1.136535 -0.159159 -0.336609
1.192263 -0.166690 -0.350487
1.247797 -0.173137 -0.363075
1.300639 -0.176599 -0.372002
1.346797 -0.174461 -0.373902
1.383229 -0.165461 -0.366893
1.409932 -0.150799 -0.352053
1.429555 -0.133071 -0.332345
1.445425 -0.114670 -0.310780
1.459760 -0.096809 -0.289150
1.473518 -0.079464 -0.267805
-0.018728 0.082288 -0.019379
0.024792 0.073087 -0.019591
0.069110 0.065478 -0.021759
0.112224 0.058039 -0.025989
0.154135 0.050383 -0.032112
0.196518 0.043101 -0.040166
0.240699 0.036457 -0.050167
0.287149 0.030289 -0.062041
0.335673 0.024277 -0.075604
0.385651 0.018075 -0.090519
0.436283 0.011374 -0.106323
0.486897 0.003978 -0.122545
0.537183 -0.004148 -0.138859
0.587212 -0.012896 -0.155134
0.637265 -0.022089 -0.171376
0.687638 -0.031552 -0.187629
0.738559 -0.041137 -0.203913
0.790173 -0.050728 -0.220209
0.842566 -0.060226 -0.236465
0.895774 -0.069525 -0.252596
0.949764 -0.078485 -0.268459
1.004379 -0.086917 -0.283820
1.059398 -0.094635 -0.298417
1.114689 -0.101553 -0.312092
1.170071 -0.107543 -0.324652
1.224569 -0.111960 -0.335258
1.275831 -0.113458 -0.342090
1.320563 -0.110423 -0.342755
1.356228 -0.101915 -0.335548
1.382764 -0.088509 -0.320782
1.402576 -0.072208 -0.300961
1.418700 -0.055063 -0.279030
1.433337 -0.037935 -0.256612
-0.027473 0.123286 -0.029248
0.016925 0.116110 -0.027070
0.060050 0.108777 -0.026244
0.100614 0.100820 -0.027292
0.139223 0.092764 -0.030409
0.177587 0.085399 -0.035647
0.217110 0.078953 -0.042914
0.258456 0.073188 -0.052025
0.301664 0.067722 -0.062742
0.346374 0.062196 -0.074755
0.392061 0.056334 -0.087705
0.438273 0.049967 -0.101255
0.484803 0.043054 -0.115173
0.531685 0.035658 -0.129351
0.579085 0.027890 -0.143763
0.627178 0.019873 -0.158404
0.676092 0.011712 -0.173253
0.725906 0.003502 -0.188261
0.776666 -0.004673 -0.203355
0.828398 -0.012726 -0.218455
0.881095 -0.020562 -0.233452
0.934669 -0.028053 -0.248183
0.988941 -0.035036 -0.262409
1.043715 -0.041343 -0.275869
1.098806 -0.046844 -0.288349
1.153778 -0.051376 -0.299585
1.207394 -0.054478 -0.308858
1.257215 -0.055016 -0.314424
1.300090 -0.051329 -0.313653
1.333809 -0.042404 -0.304663
1.358767 -0.029059 -0.288212
1.377664 -0.013322 -0.267179
1.393727 0.003204 -0.244339
-0.035028 0.164300 -0.039258
0.010647 0.158243 -0.035960
0.054136 0.150997 -0.033451
0.094301 0.142401 -0.032367
0.131725 0.133460 -0.033174
0.167965 0.125274 -0.036086
0.204480 0.118280 -0.041056
0.242115 0.112302 -0.047862
0.281102 0.106911 -0.056194
0.321280 0.101690 -0.065706
0.362356 0.096337 -0.076073
0.404117 0.090690 -0.087047
0.446531 0.084700 -0.098485
0.489707 0.078403 -0.110336
0.533802 0.071866 -0.122590
0.578940 0.065162 -0.135235
0.625195 0.058361 -0.148233
0.672602 0.051528 -0.161525
0.721169 0.044725 -0.175031
0.770902 0.038017 -0.188670
0.821791 0.031466 -0.202354
0.873788 0.025146 -0.215968
0.926781 0.019164 -0.229339
0.980611 0.013670 -0.242227
1.035043 0.008811 -0.254376
1.089661 0.004654 -0.265598
1.143691 0.001289 -0.275627
1.195710 -0.000745 -0.283552
1.243278 -0.000079 -0.287209
1.283328 0.004940 -0.283786
1.314089 0.014853 -0.271929
1.336788 0.028485 -0.253160
1.355078 0.043872 -0.230883
-0.040574 0.205473 -0.049389
0.005933 0.200015 -0.045802
0.050231 0.192913 -0.042576
0.091077 0.183876 -0.040231
0.128661 0.173970 -0.039361
0.164211 0.164566 -0.040385
0.199147 0.156452 -0.043420
0.234462 0.149681 -0.048308
0.270557 0.143871 -0.054711
0.307407 0.138549 -0.062231
0.344859 0.133348 -0.070507
0.382856 0.128065 -0.079301
0.421510 0.122636 -0.088511
0.461030 0.117075 -0.098123
0.501628 0.111428 -0.108156
0.543459 0.105742 -0.118620
0.586609 0.100061 -0.129495
0.631116 0.094425 -0.140735
0.676989 0.088877 -0.152278
0.724225 0.083458 -0.164053
0.772807 0.078203 -0.175990
0.822701 0.073148 -0.188009
0.873847 0.068350 -0.199990
0.926143 0.063899 -0.211765
0.979352 0.059889 -0.223131
1.032996 0.056356 -0.233897
1.086400 0.053327 -0.243843
1.138728 0.051058 -0.252463
1.188511 0.050360 -0.258434
1.233024 0.052665 -0.259259
1.269232 0.059338 -0.252227
1.296420 0.070399 -0.236863
1.317837 0.084046 -0.216385
-0.043473 0.246858 -0.059611
0.003206 0.241809 -0.056287
0.048016 0.234940 -0.052991
0.089677 0.225720 -0.050052
0.127945 0.215045 -0.048055
0.163586 0.204381 -0.047569
0.197840 0.194848 -0.048911
0.231785 0.186842 -0.052079
0.266005 0.180166 -0.056810
0.300633 0.174366 -0.062704
0.335617 0.169008 -0.069361
0.370956 0.163810 -0.076497
0.406794 0.158651 -0.083967
0.443367 0.153511 -0.091737
0.480919 0.148417 -0.099817
0.519650 0.143410 -0.108229
0.559702 0.138525 -0.116980
0.601165 0.133797 -0.126057
0.644091 0.129255 -0.135431
0.688507 0.124926 -0.145067
0.734412 0.120825 -0.154924
0.781791 0.116965 -0.164953
0.830620 0.113365 -0.175085
0.880834 0.110055 -0.185229
0.932217 0.107030 -0.195292
0.984300 0.104262 -0.205144
1.036458 0.101804 -0.214510
1.088070 0.099875 -0.222922
1.138252 0.098904 -0.229611
1.185096 0.099780 -0.232913
1.225489 0.103952 -0.229928
1.257222 0.112352 -0.218572
1.282491 0.123735 -0.201141
-0.043653 0.288370 -0.069882
0.002594 0.283616 -0.067167
0.047396 0.277019 -0.064239
0.089558 0.267852 -0.061219
0.128510 0.256738 -0.058595
0.164537 0.245047 -0.056975
0.198558 0.234088 -0.056831
0.231630 0.224605 -0.058355
0.264522 0.216704 -0.061454
0.297596 0.210074 -0.065830
0.330950 0.204279 -0.071113
0.364620 0.198954 -0.076972
0.398698 0.193880 -0.083183
0.433345 0.188967 -0.089619
0.468756 0.184206 -0.096227
0.505122 0.179623 -0.102994
0.542613 0.175259 -0.109920
0.581372 0.171152 -0.117013
0.621514 0.167337 -0.124279
0.663123 0.163836 -0.131725
0.706248 0.160657 -0.139353
0.750917 0.157802 -0.147161
0.797145 0.155268 -0.155132
0.844891 0.153023 -0.163266
0.893957 0.150969 -0.171591
0.943951 0.149014 -0.180064
0.994370 0.147226 -0.188393
1.044657 0.145847 -0.196052
1.094116 0.145139 -0.202467
1.141520 0.145540 -0.206676
1.184433 0.148122 -0.206421
1.220119 0.154119 -0.199025
1.249543 0.162965 -0.185552
-0.041763 0.329828 -0.080140
0.003676 0.325270 -0.078236
0.048049 0.318941 -0.075959
0.090312 0.309991 -0.073251
0.129722 0.298766 -0.070443
0.166157 0.286414 -0.068087
0.200160 0.274264 -0.066718
0.232642 0.263305 -0.066694
0.264491 0.253974 -0.068128
0.296326 0.246216 -0.070919
0.328470 0.239698 -0.074817
0.361048 0.234026 -0.079517
0.394112 0.228886 -0.084724
0.427710 0.224088 -0.090207
0.461922 0.219549 -0.095804
0.496858 0.215262 -0.101415
0.532653 0.211258 -0.106991
0.569456 0.207581 -0.112516
0.607409 0.204276 -0.118001
0.646639 0.201370 -0.123477
0.687252 0.198878 -0.128987
0.729336 0.196803 -0.134573
0.772952 0.195123 -0.140290
0.818077 0.193750 -0.146241
0.864549 0.192520 -0.152567
0.912099 0.191316 -0.159296
0.960389 0.190208 -0.166169
1.008911 0.189412 -0.172669
1.056972 0.189127 -0.178243
1.103710 0.189557 -0.182287
1.147544 0.191306 -0.183411
1.186123 0.195402 -0.179325
1.219508 0.201776 -0.170110
-0.039000 0.371075 -0.090288
0.005519 0.366636 -0.089297
0.049252 0.360543 -0.087837
0.091322 0.351896 -0.085711
0.130934 0.340808 -0.083085
0.167700 0.328171 -0.080387
0.201818 0.315194 -0.078132
0.233977 0.302975 -0.076769
0.265066 0.292216 -0.076594
0.295896 0.283151 -0.077727
0.327029 0.275648 -0.080109
0.358751 0.269377 -0.083541
0.391144 0.263983 -0.087736
0.424186 0.259180 -0.092388
0.457843 0.254792 -0.097227
0.492116 0.250746 -0.102047
0.527060 0.247039 -0.106710
0.562766 0.243706 -0.111139
0.599352 0.240792 -0.115311
0.636942 0.238334 -0.119242
0.675663 0.236357 -0.122983
0.715640 0.234868 -0.126609
0.756959 0.233822 -0.130247
0.799613 0.233087 -0.134102
0.843504 0.232475 -0.138395
0.888513 0.231889 -0.143200
0.934456 0.231384 -0.148336
0.980891 0.231106 -0.153378
1.027115 0.231212 -0.157779
1.072415 0.231826 -0.161047
1.115924 0.233206 -0.162497
1.156182 0.235957 -0.160723
1.192881 0.240215 -0.155373
-0.036744 0.412081 -0.100195
0.006940 0.407700 -0.100144
0.050020 0.401799 -0.099574
0.091763 0.393476 -0.098194
0.131407 0.382677 -0.096021
0.168435 0.370052 -0.093339
0.202798 0.356631 -0.090580
0.234947 0.343493 -0.088209
0.265668 0.331492 -0.086638
0.295835 0.321110 -0.086166
0.326178 0.312450 -0.086937
0.357161 0.305337 -0.088920
0.388975 0.299452 -0.091915
0.421618 0.294467 -0.095621
0.455002 0.290125 -0.099704
0.489043 0.286268 -0.103861
0.523701 0.282832 -0.107859
0.558990 0.279818 -0.111540
0.594963 0.277255 -0.114815
0.631701 0.275180 -0.117660
0.669306 0.273623 -0.120098
0.707883 0.272585 -0.122215
0.747495 0.271992 -0.124192
0.788135 0.271682 -0.126297
0.829786 0.271497 -0.128773
0.872463 0.271375 -0.131723
0.916093 0.271338 -0.135068
0.960318 0.271453 -0.138526
1.004492 0.271833 -0.141607
1.047985 0.272580 -0.143849
1.090407 0.273772 -0.144982
1.131204 0.275646 -0.144461
1.170095 0.278339 -0.141946
-0.036116 0.452980 -0.109716
0.006908 0.448605 -0.110576
0.049439 0.442843 -0.110903
0.090859 0.434820 -0.110344
0.130485 0.424373 -0.108806
0.167772 0.411955 -0.106435
0.202528 0.398404 -0.103552
0.235001 0.384703 -0.100578
0.265813 0.371750 -0.097958
0.295776 0.360191 -0.096099
0.325674 0.350341 -0.095305
0.356099 0.342211 -0.095717
0.387385 0.335599 -0.097289
0.419629 0.330209 -0.099803
0.452779 0.325744 -0.102935
0.486719 0.321976 -0.106337
0.521347 0.318766 -0.109695
0.556600 0.316053 -0.112765
0.592458 0.313832 -0.115388
0.628944 0.312122 -0.117479
0.666104 0.310943 -0.119027
0.703978 0.310271 -0.120121
0.742564 0.309993 -0.120966
0.781843 0.309956 -0.121826
0.821857 0.310055 -0.122907
0.862691 0.310256 -0.124320
0.904324 0.310537 -0.126088
0.946493 0.310904 -0.128062
0.988668 0.311427 -0.129847
1.030306 0.312200 -0.131008
1.071265 0.313235 -0.131465
1.111665 0.314554 -0.131297
1.151472 0.316212 -0.130414
-0.037603 0.494044 -0.118725
0.004924 0.489623 -0.120433
0.047035 0.483940 -0.121618
0.088205 0.476164 -0.121899
0.127845 0.466069 -0.121105
0.165441 0.453953 -0.119269
0.200734 0.440483 -0.116598
0.233822 0.426514 -0.113429
0.265149 0.412911 -0.110176
0.295387 0.400398 -0.107272
0.325269 0.389442 -0.105111
0.355434 0.380233 -0.103975
0.386330 0.372721 -0.103976
0.418188 0.366700 -0.105042
0.451058 0.361900 -0.106941
0.484870 0.358060 -0.109344
0.519505 0.354974 -0.111904
0.554850 0.352513 -0.114312
0.590826 0.350616 -0.116335
0.627392 0.349262 -0.117828
0.664527 0.348434 -0.118755
0.702188 0.348058 -0.119211
0.740308 0.348002 -0.119392
0.778863 0.348146 -0.119502
0.817915 0.348440 -0.119680
0.857536 0.348846 -0.120036
0.897704 0.349310 -0.120650
0.938226 0.349802 -0.121452
0.978692 0.350365 -0.122130
1.018638 0.351078 -0.122285
1.058041 0.351944 -0.121908
1.097446 0.352890 -0.121482
1.137138 0.353899 -0.121232
-0.040993 0.535604 -0.127134
0.001144 0.531089 -0.129618
0.042927 0.525422 -0.131605
0.083920 0.517827 -0.132710
0.123621 0.508040 -0.132715
0.161574 0.496248 -0.131569
0.197500 0.482972 -0.129374
0.231390 0.468935 -0.126369
0.263527 0.454930 -0.122892
0.294425 0.441694 -0.119340
0.324705 0.429789 -0.116123
0.354975 0.419540 -0.113603
0.385732 0.411046 -0.112028
0.417318 0.404224 -0.111482
0.449907 0.398875 -0.111876
0.483528 0.394759 -0.112976
0.518106 0.391639 -0.114468
0.553523 0.389327 -0.116019
0.589661 0.387697 -0.117343
0.626420 0.386663 -0.118250
0.663700 0.386135 -0.118691
0.701387 0.385986 -0.118750
0.739386 0.386091 -0.118577
0.777680 0.386375 -0.118292
0.816307 0.386804 -0.117987
0.855283 0.387323 -0.117766
0.894558 0.387861 -0.117711
0.933973 0.388381 -0.117771
0.973190 0.388908 -0.117676
1.011799 0.389504 -0.117048
1.049811 0.390178 -0.115894
1.088004 0.390843 -0.114917
1.126937 0.391450 -0.114602
-0.045660 0.577978 -0.134891
-0.003863 0.573325 -0.138082
0.037642 0.567619 -0.140813
0.078495 0.560135 -0.142712
0.118278 0.550590 -0.143535
0.156593 0.539096 -0.143171
0.193167 0.526052 -0.141638
0.227919 0.512060 -0.139076
0.261008 0.497826 -0.135727
0.292798 0.484063 -0.131913
0.323786 0.471375 -0.128001
0.354503 0.460189 -0.124372
0.385434 0.450720 -0.121357
0.416970 0.443004 -0.119175
0.449381 0.436938 -0.117892
0.482805 0.432340 -0.117416
0.517256 0.428987 -0.117530
0.552662 0.426665 -0.117943
0.588900 0.425186 -0.118372
0.625818 0.424375 -0.118613
0.663242 0.424056 -0.118603
0.701016 0.424065 -0.118379
0.739052 0.424294 -0.118002
0.777329 0.424691 -0.117527
0.815840 0.425207 -0.117023
0.854545 0.425769 -0.116580
0.893370 0.426308 -0.116250
0.932161 0.426789 -0.115963
0.970615 0.427227 -0.115460
1.008341 0.427667 -0.114371
1.045334 0.428126 -0.112678
1.082430 0.428548 -0.111135
1.120344 0.428894 -0.110379
-0.050942 0.621437 -0.141959
-0.009458 0.616612 -0.145800
0.031792 0.610819 -0.149223
0.072515 0.603381 -0.151877
0.112366 0.594010 -0.153510
0.151004 0.582759 -0.153972
0.188169 0.569937 -0.153213
0.223744 0.556039 -0.151286
0.257794 0.541683 -0.148338
0.290563 0.527534 -0.144596
0.322435 0.514210 -0.140353
0.353853 0.502200 -0.135948
0.385252 0.491816 -0.131739
0.417014 0.483187 -0.128038
0.449446 0.476303 -0.125047
0.482764 0.471055 -0.122826
0.517079 0.467268 -0.121297
0.552396 0.464733 -0.120283
0.588618 0.463214 -0.119576
0.625568 0.462455 -0.119014
0.663040 0.462212 -0.118506
0.700874 0.462302 -0.118001
0.738987 0.462622 -0.117461
0.777327 0.463100 -0.116894
0.815836 0.463656 -0.116350
0.854445 0.464208 -0.115888
0.893063 0.464699 -0.115518
0.931539 0.465102 -0.115142
0.969583 0.465420 -0.114502
1.006822 0.465682 -0.113238
1.043210 0.465912 -0.111292
1.079513 0.466102 -0.109353
1.116487 0.466244 -0.108088
-0.056336 0.666215 -0.148313
-0.015138 0.661192 -0.152752
0.025877 0.655274 -0.156816
0.066472 0.647825 -0.160182
0.106362 0.638559 -0.162599
0.145260 0.627491 -0.163891
0.182927 0.614855 -0.163958
0.219228 0.601058 -0.162783
0.254165 0.586635 -0.160427
0.287895 0.572192 -0.157023
0.320707 0.558339 -0.152772
0.352966 0.545605 -0.147940
0.385047 0.534373 -0.142853
0.417289 0.524853 -0.137860
0.449986 0.517111 -0.133266
0.483377 0.511104 -0.129271
0.517634 0.506709 -0.125953
0.552826 0.503735 -0.123300
0.588905 0.501924 -0.121246
0.625725 0.500985 -0.119705
0.663117 0.500653 -0.118562
0.700942 0.500732 -0.117677
0.739096 0.501085 -0.116942
0.777476 0.501588 -0.116315
0.815986 0.502131 -0.115801
0.854538 0.502633 -0.115406
0.893035 0.503045 -0.115090
0.931322 0.503344 -0.114733
0.969133 0.503525 -0.114086
1.006122 0.503603 -0.112817
1.042217 0.503606 -0.110839
1.078052 0.503566 -0.108720
1.114337 0.503510 -0.107079
-0.061514 0.712535 -0.153937
-0.020562 0.707294 -0.158923
0.020246 0.701218 -0.163576
0.060719 0.693711 -0.167604
0.100625 0.684490 -0.170761
0.139721 0.673540 -0.172859
0.177795 0.661041 -0.173761
0.214707 0.647326 -0.173394
0.250424 0.632854 -0.171748
0.285037 0.618170 -0.168875
0.318762 0.603857 -0.164883
0.351899 0.590465 -0.159948
0.384770 0.578436 -0.154324
0.417673 0.568055 -0.148342
0.450856 0.559447 -0.142362
0.484531 0.552616 -0.136705
0.518865 0.547468 -0.131614
0.553953 0.543831 -0.127257
0.589807 0.541462 -0.123724
0.626374 0.540097 -0.121012
0.663567 0.539490 -0.119017
0.701278 0.539424 -0.117581
0.739374 0.539699 -0.116556
0.777713 0.540140 -0.115839
0.816170 0.540610 -0.115353
0.854637 0.541025 -0.115027
0.893003 0.541332 -0.114770
0.931117 0.541507 -0.114441
0.968741 0.541541 -0.113814
1.005581 0.541439 -0.112602
1.041551 0.541226 -0.110710
1.077148 0.540959 -0.108577
1.112985 0.540692 -0.106730
-0.066290 0.760635 -0.158832
-0.025531 0.755160 -0.164312
0.015114 0.748900 -0.169501
0.055489 0.741291 -0.174133
0.095404 0.732058 -0.177976
0.134655 0.721164 -0.180833
0.173059 0.708745 -0.182545
0.210481 0.695074 -0.182996
0.246865 0.680542 -0.182121
0.282259 0.665634 -0.179902
0.316820 0.650896 -0.176369
0.350795 0.636880 -0.171606
0.384472 0.624077 -0.165774
0.418116 0.612840 -0.159141
0.451931 0.603352 -0.152075
0.486058 0.595638 -0.144999
0.520604 0.589608 -0.138312
0.555660 0.585111 -0.132337
0.591302 0.581961 -0.127285
0.627578 0.579955 -0.123240
0.664485 0.578870 -0.120173
0.701954 0.578467 -0.117978
0.739854 0.578502 -0.116506
0.778033 0.578761 -0.115586
0.816347 0.579084 -0.115046
0.854663 0.579363 -0.114725
0.892849 0.579535 -0.114475
0.930755 0.579568 -0.114134
0.968182 0.579446 -0.113502
1.004892 0.579167 -0.112349
1.040803 0.578753 -0.110585
1.076271 0.578267 -0.108519
1.111802 0.577776 -0.106573
-0.070575 0.810788 -0.163027
-0.029937 0.805062 -0.168947
0.010605 0.798593 -0.174615
0.050926 0.790843 -0.179791
0.090868 0.781544 -0.184256
0.130259 0.770642 -0.187814
0.168942 0.758237 -0.190289
0.206791 0.744553 -0.191536
0.243740 0.729923 -0.191448
0.279806 0.714773 -0.189952
0.315102 0.699609 -0.187012
0.349834 0.684973 -0.182629
0.384263 0.671385 -0.176873
0.418633 0.659257 -0.169928
0.453109 0.648825 -0.162140
0.487760 0.640133 -0.153993
0.522620 0.633100 -0.145997
0.557761 0.627608 -0.138585
0.593293 0.623527 -0.132059
0.629323 0.620702 -0.126609
0.665904 0.618929 -0.122320
0.703017 0.617966 -0.119172
0.740579 0.617563 -0.117040
0.778462 0.617490 -0.115717
0.816516 0.617560 -0.114955
0.854586 0.617636 -0.114511
0.892521 0.617632 -0.114171
0.930171 0.617496 -0.113751
0.967371 0.617206 -0.113073
1.003940 0.616753 -0.111956
1.039796 0.616150 -0.110315
1.075169 0.615453 -0.108339
1.110452 0.614734 -0.106342
-0.074328 0.863307 -0.166580
-0.033729 0.857313 -0.172894
0.006788 0.850609 -0.178987
0.047114 0.842679 -0.184648
0.087118 0.833257 -0.189673
0.126656 0.822273 -0.193868
0.165588 0.809801 -0.197049
0.203799 0.796023 -0.199054
0.241219 0.781219 -0.199742
0.277848 0.765769 -0.198996
0.313769 0.750136 -0.196724
0.349157 0.734843 -0.192862
0.384239 0.720415 -0.187405
0.419239 0.707305 -0.180467
0.454299 0.695805 -0.172340
0.489456 0.686010 -0.163504
0.524698 0.677876 -0.154515
0.560059 0.671311 -0.145882
0.595624 0.666204 -0.138010
0.631498 0.662414 -0.131201
0.667765 0.659758 -0.125643
0.704466 0.658022 -0.121399
0.741583 0.656976 -0.118388
0.779037 0.656395 -0.116411
0.816697 0.656075 -0.115187
0.854408 0.655852 -0.114426
0.892008 0.655608 -0.113860
0.929347 0.655266 -0.113274
0.966287 0.654789 -0.112497
1.002688 0.654157 -0.111382
1.038473 0.653375 -0.109843
1.073768 0.652482 -0.107969
1.108867 0.651545 -0.105978
-0.077509 0.918499 -0.169541
-0.036877 0.912232 -0.176225
0.003679 0.905277 -0.182719
0.044065 0.897128 -0.188831
0.084167 0.887515 -0.194371
0.123858 0.876357 -0.199154
0.163013 0.863704 -0.202994
0.201527 0.849703 -0.205716
0.239330 0.834598 -0.207156
0.276416 0.818729 -0.207161
0.312851 0.802524 -0.205591
0.348779 0.786479 -0.202335
0.384394 0.771111 -0.197336
0.419895 0.756896 -0.190649
0.455427 0.744191 -0.182497
0.491037 0.733175 -0.173297
0.526698 0.723862 -0.163604
0.562379 0.716164 -0.153993
0.598095 0.709950 -0.144974
0.633913 0.705074 -0.136942
0.669928 0.701380 -0.130162
0.706226 0.698694 -0.124752
0.742849 0.696820 -0.120686
0.779775 0.695551 -0.117806
0.816919 0.694685 -0.115859
0.854159 0.694042 -0.114559
0.891328 0.693467 -0.113586
0.928298 0.692863 -0.112723
0.964938 0.692166 -0.111779
1.001138 0.691343 -0.110619
1.036836 0.690389 -0.109161
1.072103 0.689329 -0.107436
1.107150 0.688216 -0.105578
-0.079898 0.976364 -0.171703
-0.039258 0.969904 -0.178851
0.001313 0.962752 -0.185830
0.041737 0.954388 -0.192459
0.081917 0.944527 -0.198550
0.121733 0.933075 -0.203929
0.161066 0.920076 -0.208417
0.199814 0.905664 -0.211838
0.237911 0.890061 -0.214009
0.275352 0.873587 -0.214747
0.312195 0.856646 -0.213876
0.348560 0.839714 -0.211246
0.384613 0.823296 -0.206765
0.420534 0.807884 -0.200440
0.456470 0.793886 -0.192431
0.492484 0.781557 -0.183091
0.528545 0.770971 -0.172951
0.564570 0.762046 -0.162625
0.600499 0.754634 -0.152695
0.636348 0.748579 -0.143622
0.672199 0.743741 -0.135716
0.708154 0.739978 -0.129141
0.744293 0.737129 -0.123921
0.780650 0.735015 -0.119961
0.817198 0.733445 -0.117065
0.853863 0.732238 -0.114981
0.890530 0.731230 -0.113432
0.927067 0.730288 -0.112159
0.963357 0.729324 -0.110957
0.999313 0.728285 -0.109687
1.034905 0.727157 -0.108280
1.070193 0.725958 -0.106747
1.105323 0.724724 -0.105150
-0.080409 1.035589 -0.171811
-0.040151 1.029342 -0.179889
0.000072 1.022341 -0.187804
0.040232 1.014000 -0.195341
0.080265 1.003977 -0.202276
0.120048 0.992179 -0.208436
0.159438 0.978680 -0.213674
0.198321 0.963650 -0.217826
0.236629 0.947333 -0.220712
0.274355 0.930057 -0.222133
0.311550 0.912225 -0.221890
0.348317 0.894300 -0.219811
0.384794 0.876775 -0.215782
0.421131 0.860133 -0.209789
0.457451 0.844796 -0.201965
0.493815 0.831062 -0.192625
0.530201 0.819068 -0.182260
0.566518 0.808783 -0.171470
0.602666 0.800067 -0.160859
0.638603 0.792759 -0.150923
0.674370 0.786710 -0.142010
0.710059 0.781791 -0.134323
0.745769 0.777868 -0.127935
0.781576 0.774789 -0.122812
0.817515 0.772387 -0.118834
0.853568 0.770491 -0.115812
0.889668 0.768933 -0.113510
0.925713 0.767564 -0.111682
0.961597 0.766265 -0.110104
0.997262 0.764970 -0.108641
1.032696 0.763646 -0.107214
1.067970 0.762305 -0.105826
1.103177 0.760962 -0.104475
-0.076002 1.091754 -0.166308
-0.037337 1.086886 -0.176566
0.001410 1.081125 -0.186636
0.040348 1.073709 -0.196184
0.079513 1.064162 -0.204840
0.118767 1.052393 -0.212409
0.157904 1.038561 -0.218783
0.196750 1.022941 -0.223854
0.235190 1.005869 -0.227491
0.273185 0.987737 -0.229523
0.310758 0.968976 -0.229776
0.347975 0.950045 -0.228089
0.384926 0.931411 -0.224369
0.421705 0.913523 -0.218616
0.458391 0.896788 -0.210965
0.495037 0.881537 -0.201705
0.531649 0.867981 -0.191274
0.568169 0.856176 -0.180221
0.604491 0.846037 -0.169122
0.640520 0.837401 -0.158478
0.676249 0.830097 -0.148678
0.711743 0.823981 -0.139966
0.747101 0.818929 -0.132462
0.782429 0.814816 -0.126194
0.817805 0.811497 -0.121105
0.853261 0.808815 -0.117069
0.888779 0.806608 -0.113906
0.924297 0.804721 -0.111399
0.959740 0.803018 -0.109341
0.995059 0.801406 -0.107574
1.030266 0.799844 -0.106024
1.065429 0.798328 -0.104665
1.100600 0.796848 -0.103435
-0.062140 1.137215 -0.149892
-0.027127 1.135663 -0.164207
0.008198 1.133063 -0.178311
0.044190 1.128410 -0.191686
0.081076 1.120986 -0.203699
0.118746 1.110621 -0.214020
0.156921 1.097515 -0.222521
0.195316 1.082062 -0.229146
0.233696 1.064752 -0.233865
0.271912 1.046096 -0.236616
0.309888 1.026604 -0.237328
0.347598 1.006762 -0.235937
0.385048 0.987034 -0.232425
0.422263 0.967860 -0.226843
0.459282 0.949650 -0.219342
0.496148 0.932773 -0.210189
0.532895 0.917519 -0.199773
0.569509 0.904045 -0.188583
0.605909 0.892348 -0.177136
0.641982 0.882292 -0.165913
0.677682 0.873685 -0.155342
0.713035 0.866352 -0.145718
0.748126 0.860158 -0.137204
