Game/Assets/LUTs/purple11-free-luts-pack/Going for a walk.CUBE
#Created by: Adobe Photoshop Export Color Lookup Plugin
#Copyright: (C) Copyright 2019 Purple11
TITLE "Going for a walk"
#LUT size
LUT_3D_SIZE 8
#data domain
#LUT data points
DOMAIN_MIN 0.000000 0.000000 0.000000
DOMAIN_MAX 0.903226 0.903226 0.903226
0.000000 0.000000 0.007141
0.033203 0.000000 0.007141
0.155243 0.000000 0.007141
0.308289 0.000000 0.007141
0.500519 0.000000 0.007141
0.704834 0.000000 0.007141
0.888977 0.000000 0.007141
1.000000 0.000000 0.007141
0.000000 0.033203 0.007141
0.033203 0.033203 0.007141
0.155243 0.033203 0.007141
0.308289 0.033203 0.007141
0.500519 0.033203 0.007141
0.704834 0.033203 0.007141
0.888977 0.033203 0.007141
1.000000 0.033203 0.007141
0.000000 0.155243 0.007141
0.033203 0.155243 0.007141
0.155243 0.155243 0.007141
0.308289 0.155243 0.007141
0.500519 0.155243 0.007141
0.704834 0.155243 0.007141
0.888977 0.155243 0.007141
1.000000 0.155243 0.007141
0.000000 0.308289 0.007141
0.033203 0.308289 0.007141
0.155243 0.308289 0.007141
0.308289 0.308289 0.007141
0.500519 0.308289 0.007141
0.704834 0.308289 0.007141
0.888977 0.308289 0.007141
1.000000 0.308289 0.007141
0.000000 0.500519 0.007141
0.033203 0.500519 0.007141
0.155243 0.500519 0.007141
0.308289 0.500519 0.007141
0.500519 0.500519 0.007141
0.704834 0.500519 0.007141
0.888977 0.500519 0.007141
1.000000 0.500519 0.007141
0.000000 0.704834 0.007141
0.033203 0.704834 0.007141
0.155243 0.704834 0.007141
0.308289 0.704834 0.007141
0.500519 0.704834 0.007141
0.704834 0.704834 0.007141
0.888977 0.704834 0.007141
1.000000 0.704834 0.007141
0.000000 0.888977 0.007141
0.033203 0.888977 0.007141
0.155243 0.888977 0.007141
0.308289 0.888977 0.007141
0.500519 0.888977 0.007141
0.704834 0.888977 0.007141
0.888977 0.888977 0.007141
1.000000 0.888977 0.007141
0.000000 1.000000 0.007141
0.033203 1.000000 0.007141
0.155243 1.000000 0.007141
0.308289 1.000000 0.007141
0.500519 1.000000 0.007141
0.704834 1.000000 0.007141
0.888977 1.000000 0.007141
1.000000 1.000000 0.007141
0.000000 0.000000 0.084747
0.033203 0.000000 0.084747
0.155243 0.000000 0.084747
0.308289 0.000000 0.084747
0.500519 0.000000 0.084747
0.704834 0.000000 0.084747
0.888977 0.000000 0.084747
1.000000 0.000000 0.084747
0.000000 0.033203 0.084747
0.033203 0.033203 0.084747
0.155243 0.033203 0.084747
0.308289 0.033203 0.084747
0.500519 0.033203 0.084747
0.704834 0.033203 0.084747
0.888977 0.033203 0.084747
1.000000 0.033203 0.084747
0.000000 0.155243 0.084747
0.033203 0.155243 0.084747
0.155243 0.155243 0.084747
0.308289 0.155243 0.084747
0.500519 0.155243 0.084747
0.704834 0.155243 0.084747
0.888977 0.155243 0.084747
1.000000 0.155243 0.084747
0.000000 0.308289 0.084747
0.033203 0.308289 0.084747
0.155243 0.308289 0.084747
0.308289 0.308289 0.084747
0.500519 0.308289 0.084747
0.704834 0.308289 0.084747
0.888977 0.308289 0.084747
1.000000 0.308289 0.084747
0.000000 0.500519 0.084747
0.033203 0.500519 0.084747
0.155243 0.500519 0.084747
0.308289 0.500519 0.084747
0.500519 0.500519 0.084747
0.704834 0.500519 0.084747
0.888977 0.500519 0.084747
1.000000 0.500519 0.084747
0.000000 0.704834 0.084747
0.033203 0.704834 0.084747
0.155243 0.704834 0.084747
0.308289 0.704834 0.084747
0.500519 0.704834 0.084747
0.704834 0.704834 0.084747
0.888977 0.704834 0.084747
1.000000 0.704834 0.084747
0.000000 0.888977 0.084747
0.033203 0.888977 0.084747
0.155243 0.888977 0.084747
0.308289 0.888977 0.084747
0.500519 0.888977 0.084747
0.704834 0.888977 0.084747
0.888977 0.888977 0.084747
1.000000 0.888977 0.084747
0.000000 1.000000 0.084747
0.033203 1.000000 0.084747
0.155243 1.000000 0.084747
0.308289 1.000000 0.084747
0.500519 1.000000 0.084747
0.704834 1.000000 0.084747
0.888977 1.000000 0.084747
1.000000 1.000000 0.084747
0.000000 0.000000 0.184662
0.033203 0.000000 0.184662
0.155243 0.000000 0.184662
0.308289 0.000000 0.184662
0.500519 0.000000 0.184662
0.704834 0.000000 0.184662
0.888977 0.000000 0.184662
1.000000 0.000000 0.184662
0.000000 0.033203 0.184662
0.033203 0.033203 0.184662
0.155243 0.033203 0.184662
0.308289 0.033203 0.184662
0.500519 0.033203 0.184662
0.704834 0.033203 0.184662
0.888977 0.033203 0.184662
1.000000 0.033203 0.184662
0.000000 0.155243 0.184662
0.033203 0.155243 0.184662
0.155243 0.155243 0.184662
0.308289 0.155243 0.184662
0.500519 0.155243 0.184662
0.704834 0.155243 0.184662
0.888977 0.155243 0.184662
1.000000 0.155243 0.184662
0.000000 0.308289 0.184662
0.033203 0.308289 0.184662
0.155243 0.308289 0.184662
0.308289 0.308289 0.184662
0.500519 0.308289 0.184662
0.704834 0.308289 0.184662
0.888977 0.308289 0.184662
1.000000 0.308289 0.184662
0.000000 0.500519 0.184662
0.033203 0.500519 0.184662
0.155243 0.500519 0.184662
0.308289 0.500519 0.184662
0.500519 0.500519 0.184662
0.704834 0.500519 0.184662
0.888977 0.500519 0.184662
1.000000 0.500519 0.184662
0.000000 0.704834 0.184662
0.033203 0.704834 0.184662
0.155243 0.704834 0.184662
0.308289 0.704834 0.184662
0.500519 0.704834 0.184662
0.704834 0.704834 0.184662
0.888977 0.704834 0.184662
1.000000 0.704834 0.184662
0.000000 0.888977 0.184662
0.033203 0.888977 0.184662
0.155243 0.888977 0.184662
0.308289 0.888977 0.184662
0.500519 0.888977 0.184662
0.704834 0.888977 0.184662
0.888977 0.888977 0.184662
1.000000 0.888977 0.184662
0.000000 1.000000 0.184662
0.033203 1.000000 0.184662
0.155243 1.000000 0.184662
0.308289 1.000000 0.184662
0.500519 1.000000 0.184662
0.704834 1.000000 0.184662
0.888977 1.000000 0.184662
1.000000 1.000000 0.184662
0.000000 0.000000 0.309753
0.033203 0.000000 0.309753
0.155243 0.000000 0.309753
0.308289 0.000000 0.309753
0.500519 0.000000 0.309753
0.704834 0.000000 0.309753
0.888977 0.000000 0.309753
1.000000 0.000000 0.309753
0.000000 0.033203 0.309753
0.033203 0.033203 0.309753
0.155243 0.033203 0.309753
0.308289 0.033203 0.309753
0.500519 0.033203 0.309753
0.704834 0.033203 0.309753
0.888977 0.033203 0.309753
1.000000 0.033203 0.309753
0.000000 0.155243 0.309753
0.033203 0.155243 0.309753
0.155243 0.155243 0.309753
0.308289 0.155243 0.309753
0.500519 0.155243 0.309753
0.704834 0.155243 0.309753
0.888977 0.155243 0.309753
1.000000 0.155243 0.309753
0.000000 0.308289 0.309753
0.033203 0.308289 0.309753
0.155243 0.308289 0.309753
0.308289 0.308289 0.309753
0.500519 0.308289 0.309753
0.704834 0.308289 0.309753
0.888977 0.308289 0.309753
1.000000 0.308289 0.309753
0.000000 0.500519 0.309753
0.033203 0.500519 0.309753
0.155243 0.500519 0.309753
0.308289 0.500519 0.309753
0.500519 0.500519 0.309753
0.704834 0.500519 0.309753
0.888977 0.500519 0.309753
1.000000 0.500519 0.309753
0.000000 0.704834 0.309753
0.033203 0.704834 0.309753
0.155243 0.704834 0.309753
0.308289 0.704834 0.309753
0.500519 0.704834 0.309753
0.704834 0.704834 0.309753
0.888977 0.704834 0.309753
1.000000 0.704834 0.309753
0.000000 0.888977 0.309753
0.033203 0.888977 0.309753
0.155243 0.888977 0.309753
0.308289 0.888977 0.309753
0.500519 0.888977 0.309753
0.704834 0.888977 0.309753
0.888977 0.888977 0.309753
1.000000 0.888977 0.309753
0.000000 1.000000 0.309753
0.033203 1.000000 0.309753
0.155243 1.000000 0.309753
0.308289 1.000000 0.309753
0.500519 1.000000 0.309753
0.704834 1.000000 0.309753
0.888977 1.000000 0.309753
1.000000 1.000000 0.309753
0.000000 0.000000 0.464905
0.033203 0.000000 0.464905
0.155243 0.000000 0.464905
0.308289 0.000000 0.464905
0.500519 0.000000 0.464905
0.704834 0.000000 0.464905
0.888977 0.000000 0.464905
1.000000 0.000000 0.464905
0.000000 0.033203 0.464905
0.033203 0.033203 0.464905
0.155243 0.033203 0.464905
0.308289 0.033203 0.464905
0.500519 0.033203 0.464905
0.704834 0.033203 0.464905
0.888977 0.033203 0.464905
1.000000 0.033203 0.464905
0.000000 0.155243 0.464905
0.033203 0.155243 0.464905
0.155243 0.155243 0.464905
0.308289 0.155243 0.464905
0.500519 0.155243 0.464905
0.704834 0.155243 0.464905
0.888977 0.155243 0.464905
1.000000 0.155243 0.464905
0.000000 0.308289 0.464905
0.033203 0.308289 0.464905
0.155243 0.308289 0.464905
0.308289 0.308289 0.464905
0.500519 0.308289 0.464905
0.704834 0.308289 0.464905
0.888977 0.308289 0.464905
1.000000 0.308289 0.464905
0.000000 0.500519 0.464905
0.033203 0.500519 0.464905
0.155243 0.500519 0.464905
0.308289 0.500519 0.464905
0.500519 0.500519 0.464905
0.704834 0.500519 0.464905
0.888977 0.500519 0.464905
1.000000 0.500519 0.464905
0.000000 0.704834 0.464905
0.033203 0.704834 0.464905
0.155243 0.704834 0.464905
0.308289 0.704834 0.464905
0.500519 0.704834 0.464905
0.704834 0.704834 0.464905
0.888977 0.704834 0.464905
1.000000 0.704834 0.464905
0.000000 0.888977 0.464905
0.033203 0.888977 0.464905
0.155243 0.888977 0.464905
0.308289 0.888977 0.464905
0.500519 0.888977 0.464905
0.704834 0.888977 0.464905
0.888977 0.888977 0.464905
1.000000 0.888977 0.464905
0.000000 1.000000 0.464905
0.033203 1.000000 0.464905
0.155243 1.000000 0.464905
0.308289 1.000000 0.464905
0.500519 1.000000 0.464905
0.704834 1.000000 0.464905
0.888977 1.000000 0.464905
1.000000 1.000000 0.464905
0.000000 0.000000 0.626648
0.033203 0.000000 0.626648
0.155243 0.000000 0.626648
0.308289 0.000000 0.626648
0.500519 0.000000 0.626648
0.704834 0.000000 0.626648
0.888977 0.000000 0.626648
1.000000 0.000000 0.626648
0.000000 0.033203 0.626648
0.033203 0.033203 0.626648
0.155243 0.033203 0.626648
0.308289 0.033203 0.626648
0.500519 0.033203 0.626648
0.704834 0.033203 0.626648
0.888977 0.033203 0.626648
1.000000 0.033203 0.626648
0.000000 0.155243 0.626648
0.033203 0.155243 0.626648
0.155243 0.155243 0.626648
0.308289 0.155243 0.626648
0.500519 0.155243 0.626648
0.704834 0.155243 0.626648
0.888977 0.155243 0.626648
1.000000 0.155243 0.626648
0.000000 0.308289 0.626648
0.033203 0.308289 0.626648
0.155243 0.308289 0.626648
0.308289 0.308289 0.626648
0.500519 0.308289 0.626648
0.704834 0.308289 0.626648
0.888977 0.308289 0.626648
1.000000 0.308289 0.626648
0.000000 0.500519 0.626648
0.033203 0.500519 0.626648
0.155243 0.500519 0.626648
0.308289 0.500519 0.626648
0.500519 0.500519 0.626648
0.704834 0.500519 0.626648
0.888977 0.500519 0.626648
1.000000 0.500519 0.626648
0.000000 0.704834 0.626648
0.033203 0.704834 0.626648
0.155243 0.704834 0.626648
0.308289 0.704834 0.626648
0.500519 0.704834 0.626648
0.704834 0.704834 0.626648
0.888977 0.704834 0.626648
1.000000 0.704834 0.626648
0.000000 0.888977 0.626648
0.033203 0.888977 0.626648
0.155243 0.888977 0.626648
0.308289 0.888977 0.626648
0.500519 0.888977 0.626648
0.704834 0.888977 0.626648
0.888977 0.888977 0.626648
1.000000 0.888977 0.626648
0.000000 1.000000 0.626648
0.033203 1.000000 0.626648
0.155243 1.000000 0.626648
0.308289 1.000000 0.626648
0.500519 1.000000 0.626648
0.704834 1.000000 0.626648
0.888977 1.000000 0.626648
1.000000 1.000000 0.626648
0.000000 0.000000 0.772705
0.033203 0.000000 0.772705
0.155243 0.000000 0.772705
0.308289 0.000000 0.772705
0.500519 0.000000 0.772705
0.704834 0.000000 0.772705
0.888977 0.000000 0.772705
1.000000 0.000000 0.772705
0.000000 0.033203 0.772705
0.033203 0.033203 0.772705
0.155243 0.033203 0.772705
0.308289 0.033203 0.772705
0.500519 0.033203 0.772705
0.704834 0.033203 0.772705
0.888977 0.033203 0.772705
1.000000 0.033203 0.772705
0.000000 0.155243 0.772705
0.033203 0.155243 0.772705
0.155243 0.155243 0.772705
0.308289 0.155243 0.772705
0.500519 0.155243 0.772705
0.704834 0.155243 0.772705
0.888977 0.155243 0.772705
1.000000 0.155243 0.772705
0.000000 0.308289 0.772705
0.033203 0.308289 0.772705
0.155243 0.308289 0.772705
0.308289 0.308289 0.772705
0.500519 0.308289 0.772705
0.704834 0.308289 0.772705
0.888977 0.308289 0.772705
1.000000 0.308289 0.772705
0.000000 0.500519 0.772705
0.033203 0.500519 0.772705
0.155243 0.500519 0.772705
0.308289 0.500519 0.772705
0.500519 0.500519 0.772705
0.704834 0.500519 0.772705
0.888977 0.500519 0.772705
1.000000 0.500519 0.772705
0.000000 0.704834 0.772705
0.033203 0.704834 0.772705
0.155243 0.704834 0.772705
0.308289 0.704834 0.772705
0.500519 0.704834 0.772705
0.704834 0.704834 0.772705
0.888977 0.704834 0.772705
1.000000 0.704834 0.772705
0.000000 0.888977 0.772705
0.033203 0.888977 0.772705
0.155243 0.888977 0.772705
0.308289 0.888977 0.772705
0.500519 0.888977 0.772705
0.704834 0.888977 0.772705
0.888977 0.888977 0.772705
1.000000 0.888977 0.772705
0.000000 1.000000 0.772705
0.033203 1.000000 0.772705
0.155243 1.000000 0.772705
0.308289 1.000000 0.772705
0.500519 1.000000 0.772705
0.704834 1.000000 0.772705
0.888977 1.000000 0.772705
1.000000 1.000000 0.772705
0.000000 0.000000 0.895813
0.033203 0.000000 0.895813
0.155243 0.000000 0.895813
0.308289 0.000000 0.895813
0.500519 0.000000 0.895813
0.704834 0.000000 0.895813
0.888977 0.000000 0.895813
1.000000 0.000000 0.895813
0.000000 0.033203 0.895813
0.033203 0.033203 0.895813
0.155243 0.033203 0.895813
0.308289 0.033203 0.895813
0.500519 0.033203 0.895813
0.704834 0.033203 0.895813
0.888977 0.033203 0.895813
1.000000 0.033203 0.895813
0.000000 0.155243 0.895813
0.033203 0.155243 0.895813
0.155243 0.155243 0.895813
0.308289 0.155243 0.895813
0.500519 0.155243 0.895813
0.704834 0.155243 0.895813
0.888977 0.155243 0.895813
1.000000 0.155243 0.895813
0.000000 0.308289 0.895813
0.033203 0.308289 0.895813
0.155243 0.308289 0.895813
0.308289 0.308289 0.895813
0.500519 0.308289 0.895813
0.704834 0.308289 0.895813
0.888977 0.308289 0.895813
1.000000 0.308289 0.895813
0.000000 0.500519 0.895813
0.033203 0.500519 0.895813
0.155243 0.500519 0.895813
0.308289 0.500519 0.895813
0.500519 0.500519 0.895813
0.704834 0.500519 0.895813
0.888977 0.500519 0.895813
1.000000 0.500519 0.895813
0.000000 0.704834 0.895813
0.033203 0.704834 0.895813
0.155243 0.704834 0.895813
0.308289 0.704834 0.895813
0.500519 0.704834 0.895813
0.704834 0.704834 0.895813
0.888977 0.704834 0.895813
1.000000 0.704834 0.895813
0.000000 0.888977 0.895813
0.033203 0.888977 0.895813
0.155243 0.888977 0.895813
0.308289 0.888977 0.895813
0.500519 0.888977 0.895813
0.704834 0.888977 0.895813
0.888977 0.888977 0.895813
1.000000 0.888977 0.895813
0.000000 1.000000 0.895813
0.033203 1.000000 0.895813
0.155243 1.000000 0.895813
0.308289 1.000000 0.895813
0.500519 1.000000 0.895813
0.704834 1.000000 0.895813
0.888977 1.000000 0.895813
1.000000 1.000000 0.895813
