Game/Assets/LUTs/purple11-free-luts-pack/Going for a walk.CUBE
#Created by: Adobe Photoshop Export Color Lookup Plugin
#Copyright: (C) Copyright 2019 Purple11
TITLE "Going for a walk"
#LUT size
LUT_3D_SIZE 5
#data domain
#LUT data points
DOMAIN_MIN 0.000000 0.000000 0.000000
DOMAIN_MAX 0.903226 0.903226 0.903226
0.000000 0.000000 0.007141
0.122040 0.000000 0.007141
0.398834 0.000000 0.007141
0.753326 0.000000 0.007141
1.000000 0.000000 0.007141
0.000000 0.122040 0.007141
0.122040 0.122040 0.007141
0.398834 0.122040 0.007141
0.753326 0.122040 0.007141
1.000000 0.122040 0.007141
0.000000 0.398834 0.007141
0.122040 0.398834 0.007141
0.398834 0.398834 0.007141
0.753326 0.398834 0.007141
1.000000 0.398834 0.007141
0.000000 0.753326 0.007141
0.122040 0.753326 0.007141
0.398834 0.753326 0.007141
0.753326 0.753326 0.007141
1.000000 0.753326 0.007141
0.000000 1.000000 0.007141
0.122040 1.000000 0.007141
0.398834 1.000000 0.007141
0.753326 1.000000 0.007141
1.000000 1.000000 0.007141
0.000000 0.000000 0.157440
0.122040 0.000000 0.157440
0.398834 0.000000 0.157440
0.753326 0.000000 0.157440
1.000000 0.000000 0.157440
0.000000 0.122040 0.157440
0.122040 0.122040 0.157440
0.398834 0.122040 0.157440
0.753326 0.122040 0.157440
1.000000 0.122040 0.157440
0.000000 0.398834 0.157440
0.122040 0.398834 0.157440
0.398834 0.398834 0.157440
0.753326 0.398834 0.157440
1.000000 0.398834 0.157440
0.000000 0.753326 0.157440
0.122040 0.753326 0.157440
0.398834 0.753326 0.157440
0.753326 0.753326 0.157440
1.000000 0.753326 0.157440
0.000000 1.000000 0.157440
0.122040 1.000000 0.157440
0.398834 1.000000 0.157440
0.753326 1.000000 0.157440
1.000000 1.000000 0.157440
0.000000 0.000000 0.383179
0.122040 0.000000 0.383179
0.398834 0.000000 0.383179
0.753326 0.000000 0.383179
1.000000 0.000000 0.383179
0.000000 0.122040 0.383179
0.122040 0.122040 0.383179
0.398834 0.122040 0.383179
0.753326 0.122040 0.383179
1.000000 0.122040 0.383179
0.000000 0.398834 0.383179
0.122040 0.398834 0.383179
0.398834 0.398834 0.383179
0.753326 0.398834 0.383179
1.000000 0.398834 0.383179
0.000000 0.753326 0.383179
0.122040 0.753326 0.383179
0.398834 0.753326 0.383179
0.753326 0.753326 0.383179
1.000000 0.753326 0.383179
0.000000 1.000000 0.383179
0.122040 1.000000 0.383179
0.398834 1.000000 0.383179
0.753326 1.000000 0.383179
1.000000 1.000000 0.383179
0.000000 0.000000 0.664978
0.122040 0.000000 0.664978
0.398834 0.000000 0.664978
0.753326 0.000000 0.664978
1.000000 0.000000 0.664978
0.000000 0.122040 0.664978
0.122040 0.122040 0.664978
0.398834 0.122040 0.664978
0.753326 0.122040 0.664978
1.000000 0.122040 0.664978
0.000000 0.398834 0.664978
0.122040 0.398834 0.664978
0.398834 0.398834 0.664978
0.753326 0.398834 0.664978
1.000000 0.398834 0.664978
0.000000 0.753326 0.664978
0.122040 0.753326 0.664978
0.398834 0.753326 0.664978
0.753326 0.753326 0.664978
1.000000 0.753326 0.664978
0.000000 1.000000 0.664978
0.122040 1.000000 0.664978
0.398834 1.000000 0.664978
0.753326 1.000000 0.664978
1.000000 1.000000 0.664978
0.000000 0.000000 0.895813
0.122040 0.000000 0.895813
0.398834 0.000000 0.895813
0.753326 0.000000 0.895813
1.000000 0.000000 0.895813
0.000000 0.122040 0.895813
0.122040 0.122040 0.895813
0.398834 0.122040 0.895813
0.753326 0.122040 0.895813
1.000000 0.122040 0.895813
0.000000 0.398834 0.895813
0.122040 0.398834 0.895813
0.398834 0.398834 0.895813
0.753326 0.398834 0.895813
1.000000 0.398834 0.895813
0.000000 0.753326 0.895813
0.122040 0.753326 0.895813
0.398834 0.753326 0.895813
0.753326 0.753326 0.895813
1.000000 0.753326 0.895813
0.000000 1.000000 0.895813
0.122040 1.000000 0.895813
0.398834 1.000000 0.895813
0.753326 1.000000 0.895813
1.000000 1.000000 0.895813
