Game/Assets/LUTs/purple11-free-luts-pack/Going for a walk.CUBE
#Created by: Adobe Photoshop Export Color Lookup Plugin
#Copyright: (C) Copyright 2019 Purple11
TITLE "Going for a walk"
#LUT size
LUT_3D_SIZE 32
#data domain
DOMAIN_MIN 0.0 0.0 0.0
DOMAIN_MAX 1.0 1.0 1.0
#LUT data points
0.000000 0.000000 0.007141
0.000000 0.000000 0.007141
0.000000 0.000000 0.007141
0.006927 0.000000 0.007141
0.033203 0.000000 0.007141
0.061066 0.000000 0.007141
0.090698 0.000000 0.007141
0.122040 0.000000 0.007141
0.155243 0.000000 0.007141
0.190369 0.000000 0.007141
0.227448 0.000000 0.007141
0.266724 0.000000 0.007141
0.308289 0.000000 0.007141
0.352203 0.000000 0.007141
0.398834 0.000000 0.007141
0.448364 0.000000 0.007141
0.500519 0.000000 0.007141
0.552643 0.000000 0.007141
0.604218 0.000000 0.007141
0.655060 0.000000 0.007141
0.704834 0.000000 0.007141
0.753326 0.000000 0.007141
0.800232 0.000000 0.007141
0.845520 0.000000 0.007141
0.888977 0.000000 0.007141
0.930420 0.000000 0.007141
0.969879 0.000000 0.007141
1.000000 0.000000 0.007141
1.000000 0.000000 0.007141
1.000000 0.000000 0.007141
1.000000 0.000000 0.007141
1.000000 0.000000 0.007141
0.000000 0.000000 0.007141
0.000000 0.000000 0.007141
0.000000 0.000000 0.007141
0.006927 0.000000 0.007141
0.033203 0.000000 0.007141
0.061066 0.000000 0.007141
0.090698 0.000000 0.007141
0.122040 0.000000 0.007141
0.155243 0.000000 0.007141
0.190369 0.000000 0.007141
0.227448 0.000000 0.007141
0.266724 0.000000 0.007141
0.308289 0.000000 0.007141
0.352203 0.000000 0.007141
0.398834 0.000000 0.007141
0.448364 0.000000 0.007141
0.500519 0.000000 0.007141
0.552643 0.000000 0.007141
0.604218 0.000000 0.007141
0.655060 0.000000 0.007141
0.704834 0.000000 0.007141
0.753326 0.000000 0.007141
0.800232 0.000000 0.007141
0.845520 0.000000 0.007141
0.888977 0.000000 0.007141
0.930420 0.000000 0.007141
0.969879 0.000000 0.007141
1.000000 0.000000 0.007141
1.000000 0.000000 0.007141
1.000000 0.000000 0.007141
1.000000 0.000000 0.007141
1.000000 0.000000 0.007141
0.000000 0.000000 0.007141
0.000000 0.000000 0.007141
0.000000 0.000000 0.007141
0.006927 0.000000 0.007141
0.033203 0.000000 0.007141
0.061066 0.000000 0.007141
0.090698 0.000000 0.007141
0.122040 0.000000 0.007141
0.155243 0.000000 0.007141
0.190369 0.000000 0.007141
0.227448 0.000000 0.007141
0.266724 0.000000 0.007141
0.308289 0.000000 0.007141
0.352203 0.000000 0.007141
0.398834 0.000000 0.007141
0.448364 0.000000 0.007141
0.500519 0.000000 0.007141
0.552643 0.000000 0.007141
0.604218 0.000000 0.007141
0.655060 0.000000 0.007141
0.704834 0.000000 0.007141
0.753326 0.000000 0.007141
0.800232 0.000000 0.007141
0.845520 0.000000 0.007141
0.888977 0.000000 0.007141
0.930420 0.000000 0.007141
0.969879 0.000000 0.007141
1.000000 0.000000 0.007141
1.000000 0.000000 0.007141
1.000000 0.000000 0.007141
1.000000 0.000000 0.007141
1.000000 0.000000 0.007141
0.000000 0.006927 0.007141
0.000000 0.006927 0.007141
0.000000 0.006927 0.007141
0.006927 0.006927 0.007141
0.033203 0.006927 0.007141
0.061066 0.006927 0.007141
0.090698 0.006927 0.007141
0.122040 0.006927 0.007141
0.155243 0.006927 0.007141
0.190369 0.006927 0.007141
0.227448 0.006927 0.007141
0.266724 0.006927 0.007141
0.308289 0.006927 0.007141
0.352203 0.006927 0.007141
0.398834 0.006927 0.007141
0.448364 0.006927 0.007141
0.500519 0.006927 0.007141
0.552643 0.006927 0.007141
0.604218 0.006927 0.007141
0.655060 0.006927 0.007141
0.704834 0.006927 0.007141
0.753326 0.006927 0.007141
0.800232 0.006927 0.007141
0.845520 0.006927 0.007141
0.888977 0.006927 0.007141
0.930420 0.006927 0.007141
0.969879 0.006927 0.007141
1.000000 0.006927 0.007141
1.000000 0.006927 0.007141
1.000000 0.006927 0.007141
1.000000 0.006927 0.007141
1.000000 0.006927 0.007141
0.000000 0.033203 0.007141
0.000000 0.033203 0.007141
0.000000 0.033203 0.007141
0.006927 0.033203 0.007141
0.033203 0.033203 0.007141
0.061066 0.033203 0.007141
0.090698 0.033203 0.007141
0.122040 0.033203 0.007141
0.155243 0.033203 0.007141
0.190369 0.033203 0.007141
0.227448 0.033203 0.007141
0.266724 0.033203 0.007141
0.308289 0.033203 0.007141
0.352203 0.033203 0.007141
0.398834 0.033203 0.007141
0.448364 0.033203 0.007141
0.500519 0.033203 0.007141
0.552643 0.033203 0.007141
0.604218 0.033203 0.007141
0.655060 0.033203 0.007141
0.704834 0.033203 0.007141
0.753326 0.033203 0.007141
0.800232 0.033203 0.007141
0.845520 0.033203 0.007141
0.888977 0.033203 0.007141
0.930420 0.033203 0.007141
0.969879 0.033203 0.007141
1.000000 0.033203 0.007141
1.000000 0.033203 0.007141
1.000000 0.033203 0.007141
1.000000 0.033203 0.007141
1.000000 0.033203 0.007141
0.000000 0.061066 0.007141
0.000000 0.061066 0.007141
0.000000 0.061066 0.007141
0.006927 0.061066 0.007141
0.033203 0.061066 0.007141
0.061066 0.061066 0.007141
0.090698 0.061066 0.007141
0.122040 0.061066 0.007141
0.155243 0.061066 0.007141
0.190369 0.061066 0.007141
0.227448 0.061066 0.007141
0.266724 0.061066 0.007141
0.308289 0.061066 0.007141
0.352203 0.061066 0.007141
0.398834 0.061066 0.007141
0.448364 0.061066 0.007141
0.500519 0.061066 0.007141
0.552643 0.061066 0.007141
0.604218 0.061066 0.007141
0.655060 0.061066 0.007141
0.704834 0.061066 0.007141
0.753326 0.061066 0.007141
0.800232 0.061066 0.007141
0.845520 0.061066 0.007141
0.888977 0.061066 0.007141
0.930420 0.061066 0.007141
0.969879 0.061066 0.007141
1.000000 0.061066 0.007141
1.000000 0.061066 0.007141
1.000000 0.061066 0.007141
1.000000 0.061066 0.007141
1.000000 0.061066 0.007141
0.000000 0.090698 0.007141
0.000000 0.090698 0.007141
0.000000 0.090698 0.007141
0.006927 0.090698 0.007141
0.033203 0.090698 0.007141
0.061066 0.090698 0.007141
0.090698 0.090698 0.007141
0.122040 0.090698 0.007141
0.155243 0.090698 0.007141
0.190369 0.090698 0.007141
0.227448 0.090698 0.007141
0.266724 0.090698 0.007141
0.308289 0.090698 0.007141
0.352203 0.090698 0.007141
0.398834 0.090698 0.007141
0.448364 0.090698 0.007141
0.500519 0.090698 0.007141
0.552643 0.090698 0.007141
0.604218 0.090698 0.007141
0.655060 0.090698 0.007141
0.704834 0.090698 0.007141
0.753326 0.090698 0.007141
0.800232 0.090698 0.007141
0.845520 0.090698 0.007141
0.888977 0.090698 0.007141
0.930420 0.090698 0.007141
0.969879 0.090698 0.007141
1.000000 0.090698 0.007141
1.000000 0.090698 0.007141
1.000000 0.090698 0.007141
1.000000 0.090698 0.007141
1.000000 0.090698 0.007141
0.000000 0.122040 0.007141
0.000000 0.122040 0.007141
0.000000 0.122040 0.007141
0.006927 0.122040 0.007141
0.033203 0.122040 0.007141
0.061066 0.122040 0.007141
0.090698 0.122040 0.007141
0.122040 0.122040 0.007141
0.155243 0.122040 0.007141
0.190369 0.122040 0.007141
0.227448 0.122040 0.007141
0.266724 0.122040 0.007141
0.308289 0.122040 0.007141
0.352203 0.122040 0.007141
0.398834 0.122040 0.007141
0.448364 0.122040 0.007141
0.500519 0.122040 0.007141
0.552643 0.122040 0.007141
0.604218 0.122040 0.007141
0.655060 0.122040 0.007141
0.704834 0.122040 0.007141
0.753326 0.122040 0.007141
0.800232 0.122040 0.007141
0.845520 0.122040 0.007141
0.888977 0.122040 0.007141
0.930420 0.122040 0.007141
0.969879 0.122040 0.007141
1.000000 0.122040 0.007141
1.000000 0.122040 0.007141
1.000000 0.122040 0.007141
1.000000 0.122040 0.007141
1.000000 0.122040 0.007141
0.000000 0.155243 0.007141
0.000000 0.155243 0.007141
0.000000 0.155243 0.007141
0.006927 0.155243 0.007141
0.033203 0.155243 0.007141
0.061066 0.155243 0.007141
0.090698 0.155243 0.007141
0.122040 0.155243 0.007141
0.155243 0.155243 0.007141
0.190369 0.155243 0.007141
0.227448 0.155243 0.007141
0.266724 0.155243 0.007141
0.308289 0.155243 0.007141
0.352203 0.155243 0.007141
0.398834 0.155243 0.007141
0.448364 0.155243 0.007141
0.500519 0.155243 0.007141
0.552643 0.155243 0.007141
0.604218 0.155243 0.007141
0.655060 0.155243 0.007141
0.704834 0.155243 0.007141
0.753326 0.155243 0.007141
0.800232 0.155243 0.007141
0.845520 0.155243 0.007141
0.888977 0.155243 0.007141
0.930420 0.155243 0.007141
0.969879 0.155243 0.007141
1.000000 0.155243 0.007141
1.000000 0.155243 0.007141
1.000000 0.155243 0.007141
1.000000 0.155243 0.007141
1.000000 0.155243 0.007141
0.000000 0.190369 0.007141
0.000000 0.190369 0.007141
0.000000 0.190369 0.007141
0.006927 0.190369 0.007141
0.033203 0.190369 0.007141
0.061066 0.190369 0.007141
0.090698 0.190369 0.007141
0.122040 0.190369 0.007141
0.155243 0.190369 0.007141
0.190369 0.190369 0.007141
0.227448 0.190369 0.007141
0.266724 0.190369 0.007141
0.308289 0.190369 0.007141
0.352203 0.190369 0.007141
0.398834 0.190369 0.007141
0.448364 0.190369 0.007141
0.500519 0.190369 0.007141
0.552643 0.190369 0.007141
0.604218 0.190369 0.007141
0.655060 0.190369 0.007141
0.704834 0.190369 0.007141
0.753326 0.190369 0.007141
0.800232 0.190369 0.007141
0.845520 0.190369 0.007141
0.888977 0.190369 0.007141
0.930420 0.190369 0.007141
0.969879 0.190369 0.007141
1.000000 0.190369 0.007141
1.000000 0.190369 0.007141
1.000000 0.190369 0.007141
1.000000 0.190369 0.007141
1.000000 0.190369 0.007141
0.000000 0.227448 0.007141
0.000000 0.227448 0.007141
0.000000 0.227448 0.007141
0.006927 0.227448 0.007141
0.033203 0.227448 0.007141
0.061066 0.227448 0.007141
0.090698 0.227448 0.007141
0.122040 0.227448 0.007141
0.155243 0.227448 0.007141
0.190369 0.227448 0.007141
0.227448 0.227448 0.007141
0.266724 0.227448 0.007141
0.308289 0.227448 0.007141
0.352203 0.227448 0.007141
0.398834 0.227448 0.007141
0.448364 0.227448 0.007141
0.500519 0.227448 0.007141
0.552643 0.227448 0.007141
0.604218 0.227448 0.007141
0.655060 0.227448 0.007141
0.704834 0.227448 0.007141
0.753326 0.227448 0.007141
0.800232 0.227448 0.007141
0.845520 0.227448 0.007141
0.888977 0.227448 0.007141
0.930420 0.227448 0.007141
0.969879 0.227448 0.007141
1.000000 0.227448 0.007141
1.000000 0.227448 0.007141
1.000000 0.227448 0.007141
1.000000 0.227448 0.007141
1.000000 0.227448 0.007141
0.000000 0.266724 0.007141
0.000000 0.266724 0.007141
0.000000 0.266724 0.007141
0.006927 0.266724 0.007141
0.033203 0.266724 0.007141
0.061066 0.266724 0.007141
0.090698 0.266724 0.007141
0.122040 0.266724 0.007141
0.155243 0.266724 0.007141
0.190369 0.266724 0.007141
0.227448 0.266724 0.007141
0.266724 0.266724 0.007141
0.308289 0.266724 0.007141
0.352203 0.266724 0.007141
0.398834 0.266724 0.007141
0.448364 0.266724 0.007141
0.500519 0.266724 0.007141
0.552643 0.266724 0.007141
0.604218 0.266724 0.007141
0.655060 0.266724 0.007141
0.704834 0.266724 0.007141
0.753326 0.266724 0.007141
0.800232 0.266724 0.007141
0.845520 0.266724 0.007141
0.888977 0.266724 0.007141
0.930420 0.266724 0.007141
0.969879 0.266724 0.007141
1.000000 0.266724 0.007141
1.000000 0.266724 0.007141
1.000000 0.266724 0.007141
1.000000 0.266724 0.007141
1.000000 0.266724 0.007141
0.000000 0.308289 0.007141
0.000000 0.308289 0.007141
0.000000 0.308289 0.007141
0.006927 0.308289 0.007141
0.033203 0.308289 0.007141
0.061066 0.308289 0.007141
0.090698 0.308289 0.007141
0.122040 0.308289 0.007141
0.155243 0.308289 0.007141
0.190369 0.308289 0.007141
0.227448 0.308289 0.007141
0.266724 0.308289 0.007141
0.308289 0.308289 0.007141
0.352203 0.308289 0.007141
0.398834 0.308289 0.007141
0.448364 0.308289 0.007141
0.500519 0.308289 0.007141
0.552643 0.308289 0.007141
0.604218 0.308289 0.007141
0.655060 0.308289 0.007141
0.704834 0.308289 0.007141
0.753326 0.308289 0.007141
0.800232 0.308289 0.007141
0.845520 0.308289 0.007141
0.888977 0.308289 0.007141
0.930420 0.308289 0.007141
0.969879 0.308289 0.007141
1.000000 0.308289 0.007141
1.000000 0.308289 0.007141
1.000000 0.308289 0.007141
1.000000 0.308289 0.007141
1.000000 0.308289 0.007141
0.000000 0.352203 0.007141
0.000000 0.352203 0.007141
0.000000 0.352203 0.007141
0.006927 0.352203 0.007141
0.033203 0.352203 0.007141
0.061066 0.352203 0.007141
0.090698 0.352203 0.007141
0.122040 0.352203 0.007141
0.155243 0.352203 0.007141
0.190369 0.352203 0.007141
0.227448 0.352203 0.007141
0.266724 0.352203 0.007141
0.308289 0.352203 0.007141
0.352203 0.352203 0.007141
0.398834 0.352203 0.007141
0.448364 0.352203 0.007141
0.500519 0.352203 0.007141
0.552643 0.352203 0.007141
0.604218 0.352203 0.007141
0.655060 0.352203 0.007141
0.704834 0.352203 0.007141
0.753326 0.352203 0.007141
0.800232 0.352203 0.007141
0.845520 0.352203 0.007141
0.888977 0.352203 0.007141
0.930420 0.352203 0.007141
0.969879 0.352203 0.007141
1.000000 0.352203 0.007141
1.000000 0.352203 0.007141
1.000000 0.352203 0.007141
1.000000 0.352203 0.007141
1.000000 0.352203 0.007141
0.000000 0.398834 0.007141
0.000000 0.398834 0.007141
0.000000 0.398834 0.007141
0.006927 0.398834 0.007141
0.033203 0.398834 0.007141
0.061066 0.398834 0.007141
0.090698 0.398834 0.007141
0.122040 0.398834 0.007141
0.155243 0.398834 0.007141
0.190369 0.398834 0.007141
0.227448 0.398834 0.007141
0.266724 0.398834 0.007141
0.308289 0.398834 0.007141
0.352203 0.398834 0.007141
0.398834 0.398834 0.007141
0.448364 0.398834 0.007141
0.500519 0.398834 0.007141
0.552643 0.398834 0.007141
0.604218 0.398834 0.007141
0.655060 0.398834 0.007141
0.704834 0.398834 0.007141
0.753326 0.398834 0.007141
0.800232 0.398834 0.007141
0.845520 0.398834 0.007141
0.888977 0.398834 0.007141
0.930420 0.398834 0.007141
0.969879 0.398834 0.007141
1.000000 0.398834 0.007141
1.000000 0.398834 0.007141
1.000000 0.398834 0.007141
1.000000 0.398834 0.007141
1.000000 0.398834 0.007141
0.000000 0.448364 0.007141
0.000000 0.448364 0.007141
0.000000 0.448364 0.007141
0.006927 0.448364 0.007141
0.033203 0.448364 0.007141
0.061066 0.448364 0.007141
0.090698 0.448364 0.007141
0.122040 0.448364 0.007141
0.155243 0.448364 0.007141
0.190369 0.448364 0.007141
0.227448 0.448364 0.007141
0.266724 0.448364 0.007141
0.308289 0.448364 0.007141
0.352203 0.448364 0.007141
0.398834 0.448364 0.007141
0.448364 0.448364 0.007141
0.500519 0.448364 0.007141
0.552643 0.448364 0.007141
0.604218 0.448364 0.007141
0.655060 0.448364 0.007141
0.704834 0.448364 0.007141
0.753326 0.448364 0.007141
0.800232 0.448364 0.007141
0.845520 0.448364 0.007141
0.888977 0.448364 0.007141
0.930420 0.448364 0.007141
0.969879 0.448364 0.007141
1.000000 0.448364 0.007141
1.000000 0.448364 0.007141
1.000000 0.448364 0.007141
1.000000 0.448364 0.007141
1.000000 0.448364 0.007141
0.000000 0.500519 0.007141
0.000000 0.500519 0.007141
0.000000 0.500519 0.007141
0.006927 0.500519 0.007141
0.033203 0.500519 0.007141
0.061066 0.500519 0.007141
0.090698 0.500519 0.007141
0.122040 0.500519 0.007141
0.155243 0.500519 0.007141
0.190369 0.500519 0.007141
0.227448 0.500519 0.007141
0.266724 0.500519 0.007141
0.308289 0.500519 0.007141
0.352203 0.500519 0.007141
0.398834 0.500519 0.007141
0.448364 0.500519 0.007141
0.500519 0.500519 0.007141
0.552643 0.500519 0.007141
0.604218 0.500519 0.007141
0.655060 0.500519 0.007141
0.704834 0.500519 0.007141
0.753326 0.500519 0.007141
0.800232 0.500519 0.007141
0.845520 0.500519 0.007141
0.888977 0.500519 0.007141
0.930420 0.500519 0.007141
0.969879 0.500519 0.007141
1.000000 0.500519 0.007141
1.000000 0.500519 0.007141
1.000000 0.500519 0.007141
1.000000 0.500519 0.007141
1.000000 0.500519 0.007141
0.000000 0.552643 0.007141
0.000000 0.552643 0.007141
0.000000 0.552643 0.007141
0.006927 0.552643 0.007141
0.033203 0.552643 0.007141
0.061066 0.552643 0.007141
0.090698 0.552643 0.007141
0.122040 0.552643 0.007141
0.155243 0.552643 0.007141
0.190369 0.552643 0.007141
0.227448 0.552643 0.007141
0.266724 0.552643 0.007141
0.308289 0.552643 0.007141
0.352203 0.552643 0.007141
0.398834 0.552643 0.007141
0.448364 0.552643 0.007141
0.500519 0.552643 0.007141
0.552643 0.552643 0.007141
0.604218 0.552643 0.007141
0.655060 0.552643 0.007141
0.704834 0.552643 0.007141
0.753326 0.552643 0.007141
0.800232 0.552643 0.007141
0.845520 0.552643 0.007141
0.888977 0.552643 0.007141
0.930420 0.552643 0.007141
0.969879 0.552643 0.007141
1.000000 0.552643 0.007141
1.000000 0.552643 0.007141
1.000000 0.552643 0.007141
1.000000 0.552643 0.007141
1.000000 0.552643 0.007141
0.000000 0.604218 0.007141
0.000000 0.604218 0.007141
0.000000 0.604218 0.007141
0.006927 0.604218 0.007141
0.033203 0.604218 0.007141
0.061066 0.604218 0.007141
0.090698 0.604218 0.007141
0.122040 0.604218 0.007141
0.155243 0.604218 0.007141
0.190369 0.604218 0.007141
0.227448 0.604218 0.007141
0.266724 0.604218 0.007141
0.308289 0.604218 0.007141
0.352203 0.604218 0.007141
0.398834 0.604218 0.007141
0.448364 0.604218 0.007141
0.500519 0.604218 0.007141
0.552643 0.604218 0.007141
0.604218 0.604218 0.007141
0.655060 0.604218 0.007141
0.704834 0.604218 0.007141
0.753326 0.604218 0.007141
0.800232 0.604218 0.007141
0.845520 0.604218 0.007141
0.888977 0.604218 0.007141
0.930420 0.604218 0.007141
0.969879 0.604218 0.007141
1.000000 0.604218 0.007141
1.000000 0.604218 0.007141
1.000000 0.604218 0.007141
1.000000 0.604218 0.007141
1.000000 0.604218 0.007141
0.000000 0.655060 0.007141
0.000000 0.655060 0.007141
0.000000 0.655060 0.007141
0.006927 0.655060 0.007141
0.033203 0.655060 0.007141
0.061066 0.655060 0.007141
0.090698 0.655060 0.007141
0.122040 0.655060 0.007141
0.155243 0.655060 0.007141
0.190369 0.655060 0.007141
0.227448 0.655060 0.007141
0.266724 0.655060 0.007141
0.308289 0.655060 0.007141
0.352203 0.655060 0.007141
0.398834 0.655060 0.007141
0.448364 0.655060 0.007141
0.500519 0.655060 0.007141
0.552643 0.655060 0.007141
0.604218 0.655060 0.007141
0.655060 0.655060 0.007141
0.704834 0.655060 0.007141
0.753326 0.655060 0.007141
0.800232 0.655060 0.007141
0.845520 0.655060 0.007141
0.888977 0.655060 0.007141
0.930420 0.655060 0.007141
0.969879 0.655060 0.007141
1.000000 0.655060 0.007141
1.000000 0.655060 0.007141
1.000000 0.655060 0.007141
1.000000 0.655060 0.007141
1.000000 0.655060 0.007141
0.000000 0.704834 0.007141
0.000000 0.704834 0.007141
0.000000 0.704834 0.007141
0.006927 0.704834 0.007141
0.033203 0.704834 0.007141
0.061066 0.704834 0.007141
0.090698 0.704834 0.007141
0.122040 0.704834 0.007141
0.155243 0.704834 0.007141
0.190369 0.704834 0.007141
0.227448 0.704834 0.007141
0.266724 0.704834 0.007141
0.308289 0.704834 0.007141
0.352203 0.704834 0.007141
0.398834 0.704834 0.007141
0.448364 0.704834 0.007141
0.500519 0.704834 0.007141
0.552643 0.704834 0.007141
0.604218 0.704834 0.007141
0.655060 0.704834 0.007141
0.704834 0.704834 0.007141
0.753326 0.704834 0.007141
0.800232 0.704834 0.007141
0.845520 0.704834 0.007141
0.888977 0.704834 0.007141
0.930420 0.704834 0.007141
0.969879 0.704834 0.007141
1.000000 0.704834 0.007141
1.000000 0.704834 0.007141
1.000000 0.704834 0.007141
1.000000 0.704834 0.007141
1.000000 0.704834 0.007141
0.000000 0.753326 0.007141
0.000000 0.753326 0.007141
0.000000 0.753326 0.007141
0.006927 0.753326 0.007141
0.033203 0.753326 0.007141
0.061066 0.753326 0.007141
0.090698 0.753326 0.007141
0.122040 0.753326 0.007141
0.155243 0.753326 0.007141
0.190369 0.753326 0.007141
0.227448 0.753326 0.007141
0.266724 0.753326 0.007141
0.308289 0.753326 0.007141
0.352203 0.753326 0.007141
0.398834 0.753326 0.007141
0.448364 0.753326 0.007141
0.500519 0.753326 0.007141
0.552643 0.753326 0.007141
0.604218 0.753326 0.007141
0.655060 0.753326 0.007141
0.704834 0.753326 0.007141
0.753326 0.753326 0.007141
0.800232 0.753326 0.007141
0.845520 0.753326 0.007141
0.888977 0.753326 0.007141
0.930420 0.753326 0.007141
0.969879 0.753326 0.007141
1.000000 0.753326 0.007141
1.000000 0.753326 0.007141
1.000000 0.753326 0.007141
1.000000 0.753326 0.007141
1.000000 0.753326 0.007141
0.000000 0.800232 0.007141
0.000000 0.800232 0.007141
0.000000 0.800232 0.007141
0.006927 0.800232 0.007141
0.033203 0.800232 0.007141
0.061066 0.800232 0.007141
0.090698 0.800232 0.007141
0.122040 0.800232 0.007141
0.155243 0.800232 0.007141
0.190369 0.800232 0.007141
0.227448 0.800232 0.007141
0.266724 0.800232 0.007141
0.308289 0.800232 0.007141
0.352203 0.800232 0.007141
0.398834 0.800232 0.007141
0.448364 0.800232 0.007141
0.500519 0.800232 0.007141
0.552643 0.800232 0.007141
0.604218 0.800232 0.007141
0.655060 0.800232 0.007141
0.704834 0.800232 0.007141
0.753326 0.800232 0.007141
0.800232 0.800232 0.007141
0.845520 0.800232 0.007141
0.888977 0.800232 0.007141
0.930420 0.800232 0.007141
0.969879 0.800232 0.007141
1.000000 0.800232 0.007141
1.000000 0.800232 0.007141
1.000000 0.800232 0.007141
1.000000 0.800232 0.007141
1.000000 0.800232 0.007141
0.000000 0.845520 0.007141
0.000000 0.845520 0.007141
0.000000 0.845520 0.007141
0.006927 0.845520 0.007141
0.033203 0.845520 0.007141
0.061066 0.845520 0.007141
0.090698 0.845520 0.007141
0.122040 0.845520 0.007141
0.155243 0.845520 0.007141
0.190369 0.845520 0.007141
0.227448 0.845520 0.007141
0.266724 0.845520 0.007141
0.308289 0.845520 0.007141
0.352203 0.845520 0.007141
0.398834 0.845520 0.007141
0.448364 0.845520 0.007141
0.500519 0.845520 0.007141
0.552643 0.845520 0.007141
0.604218 0.845520 0.007141
0.655060 0.845520 0.007141
0.704834 0.845520 0.007141
0.753326 0.845520 0.007141
0.800232 0.845520 0.007141
0.845520 0.845520 0.007141
0.888977 0.845520 0.007141
0.930420 0.845520 0.007141
0.969879 0.845520 0.007141
1.000000 0.845520 0.007141
1.000000 0.845520 0.007141
1.000000 0.845520 0.007141
1.000000 0.845520 0.007141
1.000000 0.845520 0.007141
0.000000 0.888977 0.007141
0.000000 0.888977 0.007141
0.000000 0.888977 0.007141
0.006927 0.888977 0.007141
0.033203 0.888977 0.007141
0.061066 0.888977 0.007141
0.090698 0.888977 0.007141
0.122040 0.888977 0.007141
0.155243 0.888977 0.007141
0.190369 0.888977 0.007141
0.227448 0.888977 0.007141
0.266724 0.888977 0.007141
0.308289 0.888977 0.007141
0.352203 0.888977 0.007141
0.398834 0.888977 0.007141
0.448364 0.888977 0.007141
0.500519 0.888977 0.007141
0.552643 0.888977 0.007141
0.604218 0.888977 0.007141
0.655060 0.888977 0.007141
0.704834 0.888977 0.007141
0.753326 0.888977 0.007141
0.800232 0.888977 0.007141
0.845520 0.888977 0.007141
0.888977 0.888977 0.007141
0.930420 0.888977 0.007141
0.969879 0.888977 0.007141
1.000000 0.888977 0.007141
1.000000 0.888977 0.007141
1.000000 0.888977 0.007141
1.000000 0.888977 0.007141
1.000000 0.888977 0.007141
0.000000 0.930420 0.007141
0.000000 0.930420 0.007141
0.000000 0.930420 0.007141
0.006927 0.930420 0.007141
0.033203 0.930420 0.007141
0.061066 0.930420 0.007141
0.090698 0.930420 0.007141
0.122040 0.930420 0.007141
0.155243 0.930420 0.007141
0.190369 0.930420 0.007141
0.227448 0.930420 0.007141
0.266724 0.930420 0.007141
0.308289 0.930420 0.007141
0.352203 0.930420 0.007141
0.398834 0.930420 0.007141
0.448364 0.930420 0.007141
0.500519 0.930420 0.007141
0.552643 0.930420 0.007141
0.604218 0.930420 0.007141
0.655060 0.930420 0.007141
0.704834 0.930420 0.007141
0.753326 0.930420 0.007141
0.800232 0.930420 0.007141
0.845520 0.930420 0.007141
0.888977 0.930420 0.007141
0.930420 0.930420 0.007141
0.969879 0.930420 0.007141
1.000000 0.930420 0.007141
1.000000 0.930420 0.007141
1.000000 0.930420 0.007141
1.000000 0.930420 0.007141
1.000000 0.930420 0.007141
0.000000 0.969879 0.007141
0.000000 0.969879 0.007141
0.000000 0.969879 0.007141
0.006927 0.969879 0.007141
0.033203 0.969879 0.007141
0.061066 0.969879 0.007141
0.090698 0.969879 0.007141
0.122040 0.969879 0.007141
0.155243 0.969879 0.007141
0.190369 0.969879 0.007141
0.227448 0.969879 0.007141
0.266724 0.969879 0.007141
0.308289 0.969879 0.007141
0.352203 0.969879 0.007141
0.398834 0.969879 0.007141
0.448364 0.969879 0.007141
0.500519 0.969879 0.007141
0.552643 0.969879 0.007141
0.604218 0.969879 0.007141
0.655060 0.969879 0.007141
0.704834 0.969879 0.007141
0.753326 0.969879 0.007141
0.800232 0.969879 0.007141
0.845520 0.969879 0.007141
0.888977 0.969879 0.007141
0.930420 0.969879 0.007141
0.969879 0.969879 0.007141
1.000000 0.969879 0.007141
1.000000 0.969879 0.007141
1.000000 0.969879 0.007141
1.000000 0.969879 0.007141
1.000000 0.969879 0.007141
0.000000 1.000000 0.007141
0.000000 1.000000 0.007141
0.000000 1.000000 0.007141
0.006927 1.000000 0.007141
0.033203 1.000000 0.007141
0.061066 1.000000 0.007141
0.090698 1.000000 0.007141
0.122040 1.000000 0.007141
0.155243 1.000000 0.007141
0.190369 1.000000 0.007141
0.227448 1.000000 0.007141
0.266724 1.000000 0.007141
0.308289 1.000000 0.007141
0.352203 1.000000 0.007141
0.398834 1.000000 0.007141
0.448364 1.000000 0.007141
