Game/Assets/LUTs/purple11-free-luts-pack/Good morning.CUBE
#Created by: Adobe Photoshop Export Color Lookup Plugin
#Copyright: (C) Copyright 2019 Purple11
TITLE "Good morning"
#LUT size
LUT_3D_SIZE 8
#data domain
#LUT data points
DOMAIN_MIN 0.000000 0.000000 0.000000
DOMAIN_MAX 0.903226 0.903226 0.903226
0.013214 0.010803 0.008881
0.116791 0.031860 0.031860
0.244446 0.022919 0.022888
0.373688 0.015656 0.015656
0.504425 0.009705 0.009705
0.639221 0.005341 0.005341
0.769989 0.003357 0.003326
0.845795 0.003754 0.004150
0.056213 0.079041 0.039307
0.114624 0.076355 0.035065
0.246368 0.068298 0.026428
0.383789 0.060242 0.018707
0.528625 0.051361 0.016296
0.701813 0.029938 0.023590
0.835938 0.024048 0.024048
0.850983 0.024780 0.024933
0.077057 0.122681 0.042145
0.111603 0.124268 0.040314
0.242126 0.118744 0.033112
0.376434 0.114227 0.027313
0.514191 0.111115 0.023132
0.656525 0.108276 0.019440
0.797058 0.106812 0.017517
0.850739 0.106140 0.017670
0.124359 0.217743 0.053314
0.132111 0.232819 0.055573
0.237000 0.236725 0.053497
0.372040 0.239288 0.050964
0.510468 0.243286 0.050171
0.654358 0.248688 0.051178
0.797333 0.257385 0.054016
0.860474 0.268860 0.057343
0.183929 0.330750 0.072357
0.195312 0.351654 0.076477
0.219604 0.363647 0.078766
0.361206 0.377716 0.081512
0.510498 0.399078 0.087372
0.667664 0.426971 0.095276
0.806976 0.445404 0.100128
0.883148 0.466553 0.111359
0.306580 0.548157 0.122986
0.322083 0.575134 0.129791
0.330597 0.589966 0.133514
0.434265 0.606537 0.137817
0.564056 0.614594 0.140320
0.699982 0.625305 0.157837
0.828003 0.632568 0.192749
0.913483 0.637207 0.228516
0.382111 0.680328 0.155487
0.403381 0.717255 0.164856
0.411682 0.731659 0.168549
0.441833 0.743408 0.171722
0.573334 0.757050 0.196991
0.710052 0.769775 0.230316
0.835602 0.775391 0.261810
0.937531 0.776337 0.298950
0.461853 0.818573 0.190765
0.477997 0.846832 0.197693
0.487091 0.862823 0.201782
0.494171 0.875275 0.253082
0.575714 0.886658 0.264130
0.708679 0.894653 0.295013
0.834595 0.900818 0.325500
0.937012 0.901215 0.353973
0.044403 0.045593 0.067413
0.117188 0.031097 0.068298
0.244904 0.022308 0.061157
0.374268 0.015137 0.055145
0.505493 0.009399 0.050476
0.640930 0.005371 0.047119
0.771942 0.003723 0.046143
0.845673 0.004211 0.047546
0.055511 0.078400 0.066711
0.115601 0.075470 0.065704
0.248871 0.059906 0.052582
0.386261 0.048584 0.049713
0.531036 0.040405 0.055481
0.703979 0.027863 0.075623
0.838379 0.024689 0.078339
0.850586 0.025574 0.080780
0.076752 0.122498 0.061218
0.113068 0.124908 0.063019
0.244263 0.116608 0.051819
0.378754 0.110962 0.048279
0.516510 0.106750 0.047211
0.659088 0.103790 0.047119
0.799683 0.101654 0.049500
0.850616 0.099304 0.054291
0.125519 0.220062 0.053619
0.133820 0.236084 0.056732
0.239288 0.240448 0.056000
0.374512 0.243134 0.054901
0.513336 0.247223 0.056030
0.657898 0.252838 0.059235
0.798828 0.257538 0.071747
0.859680 0.260071 0.087158
0.185333 0.333313 0.072876
0.198364 0.357300 0.077576
0.223450 0.372314 0.080597
0.367462 0.389832 0.084473
0.516327 0.411377 0.090454
0.668427 0.433380 0.113098
0.809540 0.449127 0.163727
0.882660 0.461639 0.217926
0.309509 0.553284 0.124268
0.325348 0.580872 0.131195
0.333008 0.594147 0.162170
0.427917 0.608459 0.180939
0.566742 0.621887 0.214630
0.704376 0.627045 0.250153
0.829468 0.628876 0.290955
0.912262 0.630707 0.325623
0.384674 0.684814 0.156586
0.403168 0.716827 0.195557
0.412872 0.733429 0.243530
0.435181 0.748840 0.265991
0.568115 0.764343 0.283234
0.711975 0.776306 0.318207
0.837830 0.776428 0.347992
0.937225 0.774628 0.393280
0.460571 0.816284 0.208862
0.479126 0.848663 0.274506
0.488556 0.865417 0.322235
0.495605 0.877991 0.364807
0.563416 0.890961 0.346313
0.703491 0.898407 0.377625
0.833923 0.903778 0.407593
0.937073 0.901581 0.433899
0.046051 0.057373 0.094574
0.118561 0.030029 0.106018
0.245758 0.021362 0.100952
0.375000 0.014435 0.097473
0.506195 0.008911 0.095703
0.641724 0.005066 0.095734
0.771393 0.003845 0.097961
0.844574 0.004303 0.102448
0.050751 0.089478 0.102905
0.117859 0.073669 0.108063
0.250977 0.056213 0.102814
0.387909 0.047821 0.104156
0.533142 0.040009 0.110748
0.711029 0.026276 0.135010
0.839600 0.024628 0.146820
0.850250 0.025635 0.161743
0.075317 0.120605 0.103943
0.115448 0.124329 0.109772
0.247894 0.106110 0.094910
0.381958 0.094666 0.090149
0.519501 0.088196 0.091522
0.661682 0.085205 0.096619
0.801422 0.083710 0.105469
0.850250 0.083191 0.137573
0.124054 0.217896 0.098297
0.133881 0.236786 0.108551
0.244904 0.245056 0.095795
0.377838 0.241089 0.095825
0.516144 0.242706 0.097931
0.660126 0.246124 0.104828
0.800171 0.241669 0.139191
0.857788 0.232819 0.176208
0.184906 0.332672 0.098419
0.200562 0.361420 0.111206
0.225311 0.382141 0.104706
0.376892 0.404602 0.131104
0.527252 0.421143 0.187988
0.675934 0.433136 0.239441
0.813019 0.442871 0.290253
0.881897 0.453857 0.342346
0.309845 0.553589 0.223938
0.326752 0.583008 0.258423
0.334869 0.597229 0.298065
0.415375 0.617432 0.286926
0.569946 0.630859 0.323975
0.709564 0.628723 0.366730
0.832031 0.626648 0.403625
0.911591 0.626678 0.432953
0.385315 0.685577 0.267090
0.404694 0.719086 0.324738
0.415070 0.736847 0.366547
0.438934 0.752747 0.391876
0.559937 0.771210 0.384186
0.713013 0.781891 0.418579
0.840088 0.777191 0.446045
0.937500 0.775024 0.494995
0.461334 0.817474 0.331055
0.480103 0.850433 0.390167
0.489899 0.867859 0.432220
0.496887 0.880493 0.468781
0.561951 0.893402 0.458618
0.698212 0.901703 0.469055
0.833008 0.906006 0.497467
0.937073 0.901764 0.520660
0.048340 0.066498 0.118713
0.117706 0.039917 0.142670
0.247437 0.020447 0.141724
0.376495 0.013702 0.140717
0.507599 0.008392 0.141357
0.643127 0.004608 0.153168
0.771637 0.003998 0.169037
0.843689 0.004456 0.187408
0.046112 0.106567 0.139252
0.118195 0.084015 0.149933
0.254303 0.054749 0.153900
0.390961 0.046478 0.173370
0.536560 0.038788 0.202484
0.712463 0.025360 0.262848
0.841370 0.024506 0.282318
0.849792 0.025726 0.304291
0.070251 0.131317 0.145569
0.108856 0.141144 0.165894
0.251343 0.100647 0.177643
0.384674 0.091705 0.192932
0.521790 0.088074 0.213318
0.664368 0.085480 0.237427
0.804718 0.084778 0.266144
0.850342 0.084686 0.305847
0.121796 0.214264 0.154236
0.133057 0.236145 0.190216
0.250061 0.245239 0.197998
0.383057 0.229706 0.212555
0.520599 0.217255 0.222565
0.663208 0.213196 0.250641
0.802063 0.213745 0.290802
0.857056 0.217316 0.334106
0.184265 0.331909 0.176300
0.203094 0.366333 0.228302
0.231445 0.393250 0.265717
0.385956 0.423584 0.288544
0.539368 0.430756 0.355103
0.684418 0.435547 0.392761
0.817627 0.441284 0.431061
0.882507 0.454041 0.475281
0.309570 0.552795 0.345062
0.327393 0.583984 0.389465
0.336304 0.599670 0.424561
0.417053 0.621643 0.437164
0.569214 0.635925 0.453217
0.713654 0.633514 0.504669
0.835022 0.627533 0.521667
0.911499 0.626770 0.544983
0.385437 0.685486 0.391602
0.405945 0.720886 0.445007
0.416901 0.739777 0.482330
0.443329 0.756561 0.507965
0.555969 0.775665 0.506195
0.712769 0.785431 0.530273
0.842010 0.779083 0.562134
0.938080 0.776794 0.596436
0.461700 0.817932 0.444611
0.480743 0.851654 0.498688
0.490875 0.869843 0.536163
0.497864 0.882629 0.568024
0.564789 0.895477 0.568329
0.693756 0.904053 0.568481
0.832367 0.907379 0.593353
0.936920 0.901764 0.611053
0.050262 0.076294 0.143707
0.111877 0.067139 0.202667
0.249359 0.018341 0.220825
0.377716 0.011871 0.234924
0.508850 0.006866 0.251801
0.644592 0.003510 0.271362
0.771790 0.004120 0.292816
0.842529 0.004608 0.317566
0.041809 0.136627 0.203644
0.107452 0.118988 0.240143
0.255920 0.056427 0.268219
0.395264 0.044037 0.294495
0.542664 0.036621 0.331604
0.714966 0.024750 0.393921
0.844208 0.024750 0.420898
0.849579 0.026062 0.449615
0.056946 0.172852 0.235046
0.086151 0.181824 0.278442
0.240540 0.119629 0.307434
0.388550 0.089142 0.330170
0.525604 0.086914 0.356323
0.668793 0.085541 0.386993
0.809540 0.085724 0.422974
0.850555 0.085754 0.461243
0.109314 0.235565 0.270081
0.118439 0.268433 0.315613
0.195099 0.266968 0.354370
0.387695 0.215149 0.376373
0.525757 0.213806 0.396393
0.668671 0.213348 0.422424
0.806854 0.215271 0.452545
0.857635 0.218964 0.486176
0.183685 0.331451 0.313049
0.205414 0.373505 0.376068
0.236450 0.411865 0.430450
0.364166 0.437836 0.482391
0.549408 0.431854 0.514526
0.692841 0.440582 0.542236
0.823517 0.448181 0.571014
0.883911 0.460175 0.604126
0.308197 0.550232 0.467407
0.327301 0.583771 0.514252
0.337402 0.601410 0.546112
0.423401 0.624939 0.577545
0.568726 0.636475 0.601593
0.716736 0.635773 0.624939
0.838257 0.630890 0.637451
0.911774 0.629486 0.653503
0.385101 0.684509 0.510071
0.406555 0.721588 0.560028
0.418427 0.742096 0.594025
0.448059 0.759827 0.619720
0.560699 0.778473 0.633545
0.711853 0.786133 0.647980
0.843384 0.783966 0.680725
0.937988 0.780243 0.692505
0.461670 0.817780 0.552917
0.480988 0.852203 0.603210
0.491547 0.871338 0.636810
0.498535 0.884338 0.663605
0.568054 0.897369 0.669708
0.694733 0.905426 0.672394
0.832428 0.907990 0.688599
0.936798 0.902039 0.699677
0.051514 0.090607 0.178253
0.101471 0.109741 0.293365
0.232971 0.052643 0.319885
0.379700 0.009766 0.343750
0.510925 0.005432 0.367310
0.644623 0.003601 0.392426
0.773071 0.004211 0.419708
0.842102 0.004730 0.451691
0.033661 0.179718 0.298401
0.099670 0.162842 0.344604
0.234436 0.109009 0.381012
0.398621 0.050262 0.419434
0.553101 0.033478 0.467407
0.718597 0.024384 0.529419
0.847778 0.025055 0.564301
0.849487 0.026489 0.600769
0.043304 0.222565 0.339783
0.080475 0.228607 0.392334
0.214050 0.176788 0.430145
0.378998 0.122803 0.466187
0.531067 0.085358 0.501282
0.675201 0.085266 0.539917
0.815735 0.086395 0.579926
0.850861 0.086456 0.612427
0.088196 0.284546 0.388519
0.099182 0.320282 0.444397
0.161041 0.315796 0.491669
0.356628 0.265839 0.530548
0.528473 0.219727 0.562927
0.675140 0.211853 0.580444
0.812042 0.215790 0.602875
0.858154 0.219940 0.629639
0.160431 0.377563 0.453186
0.178162 0.430206 0.525970
0.213959 0.464630 0.583954
0.324951 0.476929 0.628601
0.528107 0.453705 0.663666
0.700714 0.438232 0.681793
0.829041 0.451447 0.697388
0.884003 0.458557 0.716431
0.297607 0.558441 0.591949
0.316620 0.595245 0.636047
0.326599 0.616547 0.664703
0.409058 0.633270 0.696503
0.542358 0.638947 0.720032
0.718109 0.625305 0.736053
0.840240 0.625061 0.737793
0.910950 0.626160 0.748138
0.384338 0.682892 0.625214
0.406799 0.721680 0.671417
0.419586 0.743866 0.701019
0.453278 0.762756 0.725739
0.565857 0.780853 0.747742
0.714203 0.786865 0.760986
0.844452 0.786224 0.772400
0.937958 0.784363 0.778320
0.461273 0.817078 0.657745
0.480865 0.852234 0.702667
0.491699 0.872162 0.731110
0.499084 0.885773 0.752411
0.571503 0.898956 0.761292
0.697571 0.906403 0.766083
0.833862 0.907928 0.776520
0.936676 0.903259 0.784241
0.048920 0.119476 0.240417
0.091949 0.154510 0.386688
0.211029 0.103302 0.421478
0.366943 0.046295 0.453278
0.514038 0.003937 0.486511
0.645691 0.003632 0.516602
0.776031 0.004272 0.551788
0.842407 0.004822 0.592102
0.033112 0.222504 0.398499
0.092712 0.210388 0.454010
0.218140 0.163940 0.499756
0.386200 0.110168 0.548798
0.567596 0.051605 0.618500
0.723236 0.024078 0.671478
0.849579 0.025482 0.713257
0.849670 0.027039 0.754700
0.032776 0.275635 0.450378
0.075317 0.277863 0.511658
0.194244 0.235443 0.558838
0.359528 0.187897 0.604004
0.522858 0.140991 0.651611
0.682434 0.092560 0.699341
0.823212 0.086395 0.731598
0.851227 0.086639 0.756226
0.067627 0.336578 0.511932
0.081024 0.375000 0.580017
0.142273 0.370819 0.635223
0.332520 0.329681 0.683411
0.510651 0.282593 0.713806
0.678345 0.230560 0.730316
0.817841 0.215454 0.743622
0.858337 0.219879 0.761871
0.134613 0.433563 0.598358
0.150146 0.487305 0.678711
0.197449 0.514404 0.727631
0.304535 0.519409 0.759552
0.506683 0.492371 0.783295
0.695587 0.464203 0.804260
0.833344 0.448730 0.806519
0.883850 0.455048 0.816010
0.271088 0.586639 0.711914
0.293518 0.621216 0.751038
0.308502 0.641541 0.775055
0.389282 0.648071 0.798157
0.517303 0.648346 0.816071
0.696442 0.632965 0.830048
0.841919 0.616516 0.830872
0.909790 0.621460 0.832977
0.374176 0.690735 0.734528
0.397736 0.729706 0.774567
0.411591 0.752899 0.798798
0.447845 0.769440 0.818604
0.555328 0.780243 0.836395
0.701263 0.784790 0.845917
0.846069 0.782074 0.849884
0.936981 0.782288 0.848022
0.460632 0.816040 0.755463
0.480438 0.851807 0.793427
0.491791 0.872772 0.816193
0.499756 0.887238 0.832275
0.575256 0.900421 0.842316
0.700562 0.907257 0.847046
0.835541 0.907867 0.850952
0.936646 0.905182 0.856750
0.046051 0.150116 0.305267
0.083832 0.196686 0.473999
0.191925 0.155579 0.527832
0.348755 0.105103 0.567596
0.502533 0.052429 0.608734
0.648071 0.003540 0.646301
0.780243 0.004272 0.689697
0.842712 0.004791 0.735840
0.033783 0.267517 0.505341
0.085480 0.260162 0.570770
0.206543 0.221527 0.627014
0.380798 0.173126 0.689240
0.569672 0.119232 0.765991
0.723053 0.068787 0.810638
0.849640 0.028259 0.854034
0.848511 0.051819 0.893768
0.024994 0.331116 0.567230
0.067810 0.330688 0.638367
0.180237 0.297424 0.695343
0.347412 0.255920 0.748260
0.515228 0.211914 0.800629
0.681458 0.164703 0.851044
0.830414 0.103302 0.865143
0.850647 0.101624 0.881165
0.048889 0.394440 0.644012
0.062164 0.433533 0.721039
0.133026 0.427094 0.780365
0.320068 0.391113 0.832245
0.499817 0.338959 0.845795
0.672699 0.284088 0.857666
0.822174 0.233093 0.865814
0.857910 0.227020 0.875732
0.109650 0.490204 0.744232
0.124725 0.540039 0.821991
0.187378 0.556274 0.850189
0.294312 0.556213 0.868652
0.498260 0.525757 0.882690
0.684723 0.494232 0.894379
0.834625 0.462067 0.899109
0.882996 0.456390 0.901093
0.246521 0.612488 0.821014
0.272766 0.644257 0.853027
0.296204 0.661987 0.871674
0.375580 0.663208 0.886230
0.501587 0.660370 0.897491
0.681122 0.643219 0.906006
0.839325 0.621704 0.912567
0.908661 0.616119 0.906769
0.355438 0.706970 0.832886
0.381805 0.743408 0.865295
0.398132 0.765778 0.883698
0.438293 0.777954 0.896790
0.542572 0.781525 0.906891
0.687683 0.784363 0.912079
0.837402 0.782684 0.914917
0.935791 0.778839 0.909088
0.455627 0.817780 0.842651
0.476654 0.852997 0.872864
0.489594 0.874573 0.890076
0.498352 0.889099 0.900909
0.577271 0.900970 0.910309
0.702454 0.907196 0.914185
0.836609 0.907990 0.912476
0.937073 0.904327 0.909149
