Game/Assets/LUTs/purple11-free-luts-pack/Good morning.CUBE
#Created by: Adobe Photoshop Export Color Lookup Plugin
#Copyright: (C) Copyright 2019 Purple11
TITLE "Good morning"
#LUT size
LUT_3D_SIZE 5
#data domain
#LUT data points
DOMAIN_MIN 0.000000 0.000000 0.000000
DOMAIN_MAX 0.903226 0.903226 0.903226
0.013214 0.010803 0.008881
0.212372 0.025024 0.025024
0.438812 0.012482 0.012482
0.673065 0.004456 0.004456
0.845795 0.003754 0.004150
0.071686 0.111420 0.041473
0.209808 0.107361 0.033356
0.445801 0.098663 0.022858
0.694855 0.092285 0.015778
0.850464 0.087891 0.017609
0.155334 0.276947 0.062897
0.202576 0.300995 0.066345
0.441956 0.311188 0.065857
0.697083 0.329285 0.071289
0.867615 0.342682 0.075500
0.325165 0.580475 0.131104
0.349152 0.622467 0.141449
0.499542 0.644409 0.147308
0.736267 0.664001 0.184784
0.920258 0.672913 0.247192
0.461853 0.818573 0.190765
0.485168 0.859375 0.200775
0.510101 0.881714 0.248566
0.741425 0.896454 0.302643
0.937012 0.901215 0.353973
0.045349 0.055359 0.088928
0.213379 0.023743 0.092224
0.440186 0.011658 0.085449
0.675476 0.004395 0.083862
0.844849 0.004242 0.089081
0.070282 0.109863 0.093658
0.214111 0.098846 0.086365
0.450378 0.078705 0.077728
0.699127 0.070557 0.087402
0.850159 0.067108 0.107697
0.156189 0.278748 0.084808
0.205261 0.308380 0.086945
0.447449 0.316833 0.092773
0.699127 0.325928 0.118561
0.865845 0.322968 0.181274
0.328552 0.586334 0.198120
0.352051 0.627502 0.272614
0.491455 0.657501 0.291962
0.743958 0.666901 0.358643
0.918579 0.665558 0.422577
0.461273 0.817352 0.301636
0.487579 0.863647 0.395325
0.513977 0.886353 0.447968
0.734467 0.902283 0.452667
0.937134 0.901703 0.498322
0.049164 0.071472 0.131104
0.216797 0.021576 0.168304
0.442322 0.010101 0.188324
0.677277 0.003601 0.216339
0.843048 0.004547 0.252045
0.058563 0.140411 0.177460
0.217651 0.094269 0.231232
0.454895 0.076508 0.264465
0.704681 0.069794 0.313599
0.850006 0.067719 0.380005
0.152374 0.272827 0.227417
0.204590 0.314026 0.296509
0.457886 0.304413 0.327728
0.704926 0.290558 0.369629
0.863495 0.292755 0.428741
0.327759 0.584564 0.416138
0.354523 0.631531 0.490540
0.486786 0.666809 0.528442
0.750244 0.673920 0.584808
0.918304 0.667786 0.612946
0.461700 0.817871 0.499084
0.489105 0.866760 0.579010
0.518585 0.889862 0.622467
0.729736 0.905853 0.625305
0.936859 0.901855 0.655914
0.050873 0.097870 0.193939
0.190308 0.079926 0.338196
0.445435 0.006897 0.383636
0.677246 0.003754 0.429932
0.842163 0.004761 0.485931
0.036804 0.224854 0.354797
0.172089 0.186981 0.437714
0.457092 0.093079 0.504181
0.715790 0.069031 0.577515
0.850311 0.067871 0.651245
0.115265 0.338135 0.447174
0.147644 0.392242 0.548309
0.428802 0.335815 0.612885
0.714447 0.285980 0.640106
0.863312 0.288025 0.671936
0.315155 0.591278 0.629944
0.344788 0.646423 0.695465
0.474213 0.673187 0.743256
0.753143 0.666321 0.771362
0.917145 0.666412 0.776581
0.461182 0.816895 0.682983
0.489532 0.868195 0.747589
0.524445 0.893005 0.779419
0.733246 0.907349 0.789124
0.936584 0.903809 0.804077
0.046051 0.150116 0.305267
0.154053 0.168427 0.517914
0.426056 0.078918 0.587952
0.681519 0.003754 0.656525
0.842712 0.004791 0.735840
0.022888 0.318665 0.549622
0.144470 0.288025 0.661987
0.435181 0.213287 0.755585
0.725952 0.128479 0.848755
0.849731 0.087433 0.889160
0.073151 0.433350 0.685822
0.093170 0.489990 0.809174
0.396301 0.424622 0.846344
0.708527 0.334045 0.865173
0.862762 0.287659 0.875702
0.273712 0.633759 0.823792
0.313416 0.683044 0.870697
0.445251 0.690338 0.895142
0.723572 0.676758 0.909576
0.915253 0.658142 0.907379
0.455627 0.817780 0.842651
0.486786 0.869995 0.886505
0.529327 0.895721 0.906189
0.736908 0.907837 0.914185
0.937073 0.904327 0.909149
