Game/Assets/LUTs/purple11-free-luts-pack/Good morning.CUBE
#Created by: Adobe Photoshop Export Color Lookup Plugin
#Copyright: (C) Copyright 2019 Purple11
TITLE "Good morning"
#LUT size
LUT_3D_SIZE 32
#data domain
DOMAIN_MIN 0.0 0.0 0.0
DOMAIN_MAX 1.0 1.0 1.0
#LUT data points
0.013214 0.010803 0.008881
0.040009 0.015350 0.017090
0.068207 0.027527 0.027527
0.090179 0.033844 0.033844
0.116791 0.031860 0.031860
0.148682 0.029510 0.029510
0.180481 0.027252 0.027252
0.212372 0.025024 0.025024
0.244446 0.022919 0.022888
0.276581 0.020935 0.020935
0.308868 0.019043 0.019043
0.341217 0.017242 0.017242
0.373688 0.015656 0.015656
0.406189 0.014038 0.014008
0.438812 0.012482 0.012482
0.471558 0.011047 0.011017
0.504425 0.009705 0.009705
0.537537 0.008392 0.008392
0.571167 0.007233 0.007233
0.604950 0.006134 0.006134
0.639221 0.005341 0.005341
0.673065 0.004456 0.004456
0.706787 0.003754 0.003754
0.739716 0.003204 0.003204
0.769989 0.003357 0.003326
0.799866 0.003479 0.003479
0.828522 0.003601 0.003601
0.845520 0.003723 0.003845
0.845795 0.003754 0.004150
0.845734 0.003815 0.004486
0.845673 0.003845 0.004761
0.846039 0.003906 0.005035
0.029388 0.034637 0.024231
0.058533 0.046387 0.037872
0.074615 0.045349 0.035095
0.089691 0.044159 0.033844
0.125153 0.039337 0.034363
0.163055 0.034180 0.034180
0.195099 0.031525 0.031525
0.227264 0.029083 0.029083
0.259552 0.026794 0.026794
0.291809 0.024902 0.024902
0.324219 0.023041 0.023041
0.356598 0.021362 0.021362
0.389130 0.019684 0.019684
0.421783 0.018127 0.018127
0.454529 0.016693 0.016693
0.487518 0.015381 0.015381
0.520508 0.014099 0.014099
0.554047 0.012909 0.012909
0.587830 0.011780 0.011780
0.622040 0.010864 0.010864
0.656128 0.010040 0.010040
0.690063 0.009338 0.009308
0.723480 0.008606 0.008606
0.756287 0.007874 0.007843
0.788300 0.007233 0.007233
0.819305 0.006653 0.006622
0.848785 0.006439 0.006439
0.851410 0.006531 0.006653
0.851410 0.006622 0.006897
0.851715 0.006714 0.007141
0.851685 0.006805 0.007355
0.851746 0.007019 0.007690
0.047028 0.058105 0.038300
0.057404 0.057007 0.037384
0.073029 0.056091 0.036163
0.088074 0.055145 0.035034
0.117981 0.052704 0.032654
0.151459 0.050079 0.030151
0.185333 0.047394 0.027740
0.220673 0.044067 0.026459
0.256775 0.040680 0.025391
0.297913 0.034851 0.026031
0.339600 0.027466 0.027466
0.372223 0.025787 0.025787
0.404877 0.024200 0.024200
0.437592 0.022736 0.022736
0.470490 0.021362 0.021362
0.503601 0.020111 0.020111
0.536835 0.018860 0.018860
0.570679 0.017761 0.017731
0.604797 0.016785 0.016785
0.639099 0.016083 0.016083
0.673279 0.015289 0.015289
0.706940 0.014496 0.014496
0.740143 0.013824 0.013824
0.772644 0.013214 0.013214
0.804291 0.012634 0.012634
0.834808 0.012146 0.012146
0.851562 0.012054 0.012085
0.851471 0.012177 0.012299
0.851471 0.012421 0.012665
0.851501 0.012665 0.012970
0.851532 0.012939 0.013336
0.851440 0.013092 0.013580
0.051819 0.069000 0.038696
0.055817 0.068726 0.038452
0.071320 0.067719 0.037231
0.086151 0.066772 0.036041
0.115112 0.064972 0.033966
0.148834 0.062347 0.031464
0.181396 0.060272 0.029205
0.215515 0.057770 0.026886
0.249420 0.055450 0.024628
0.283783 0.053101 0.022461
0.318787 0.050476 0.021088
0.354675 0.047729 0.020203
0.391205 0.044769 0.019623
0.430145 0.040619 0.019867
0.471344 0.035431 0.020996
0.519867 0.024933 0.024933
0.553589 0.023865 0.023865
0.587677 0.022888 0.022888
0.622070 0.022095 0.022095
0.656342 0.021301 0.021301
0.690399 0.020538 0.020538
0.723969 0.019806 0.019775
0.756897 0.019104 0.019073
0.789062 0.018524 0.018524
0.820221 0.018005 0.018005
0.850220 0.017548 0.017548
0.851288 0.017761 0.017822
0.851288 0.018005 0.018158
0.851318 0.018311 0.018524
0.851196 0.018463 0.018707
0.851227 0.018707 0.019012
0.851196 0.020294 0.020660
0.056213 0.079041 0.039307
0.056610 0.079834 0.039307
0.069641 0.079315 0.038422
0.084534 0.078430 0.037262
0.114624 0.076355 0.035065
0.146942 0.074371 0.032837
0.180023 0.072205 0.030579
0.212830 0.070312 0.028503
0.246368 0.068298 0.026428
0.280426 0.066193 0.024384
0.314545 0.064178 0.022430
0.348663 0.062408 0.020630
0.383789 0.060242 0.018707
0.418945 0.058350 0.017456
0.454285 0.056274 0.016602
0.491760 0.053650 0.016418
0.528625 0.051361 0.016296
0.567169 0.048584 0.016510
0.607666 0.045319 0.017426
0.649078 0.041229 0.018738
0.701813 0.029938 0.023590
0.741058 0.025421 0.025421
0.773560 0.024872 0.024872
0.805298 0.024445 0.024445
0.835938 0.024048 0.024048
0.851074 0.024078 0.024109
0.851074 0.024353 0.024414
0.850983 0.024506 0.024628
0.850983 0.024780 0.024933
0.850983 0.025055 0.025269
0.851013 0.025360 0.025604
0.850830 0.029785 0.029999
0.061371 0.089752 0.039917
0.061890 0.090729 0.039978
0.068085 0.090820 0.039551
0.083282 0.089996 0.038513
0.113678 0.088104 0.036377
0.145752 0.086273 0.034210
0.178589 0.084412 0.032104
0.211914 0.082489 0.030090
0.244965 0.080658 0.028046
0.278320 0.078949 0.026184
0.312012 0.077271 0.024414
0.345947 0.075623 0.022675
0.380554 0.073822 0.020935
0.415192 0.072296 0.019409
0.449677 0.070862 0.017944
0.485321 0.069305 0.016510
0.521118 0.067810 0.015259
0.557312 0.066437 0.014893
0.594727 0.064667 0.014740
0.632172 0.062866 0.014648
0.669769 0.061005 0.014679
0.707916 0.058624 0.015015
0.745605 0.056366 0.015717
0.784058 0.053284 0.016815
0.822266 0.049622 0.018585
0.850616 0.044617 0.022156
0.850830 0.030701 0.030792
0.850830 0.031036 0.031158
0.850830 0.031342 0.031494
0.850830 0.031647 0.031830
0.850739 0.033722 0.033936
0.850555 0.039185 0.039368
0.066620 0.100891 0.040710
0.066986 0.101746 0.040710
0.067230 0.102264 0.040741
0.081970 0.101685 0.039764
0.112579 0.100098 0.037750
0.144989 0.098297 0.035645
0.177887 0.096497 0.033600
0.210693 0.094879 0.031708
0.243591 0.093262 0.029785
0.277191 0.091614 0.027985
0.310394 0.090240 0.026337
0.344269 0.088745 0.024689
0.378571 0.087372 0.023224
0.412842 0.085999 0.021729
0.447235 0.084747 0.020355
0.482117 0.083710 0.019257
0.517242 0.082581 0.018097
0.553009 0.081451 0.016937
0.589447 0.080322 0.015869
0.625824 0.079224 0.014801
0.662354 0.077881 0.013916
0.699005 0.076569 0.013794
0.735382 0.075165 0.013855
0.771362 0.073883 0.014282
0.806519 0.072540 0.014771
0.840759 0.071228 0.015594
0.850464 0.070068 0.016785
0.850342 0.068420 0.018280
0.850403 0.066650 0.020416
0.850403 0.064209 0.022888
0.850372 0.060577 0.025726
0.850372 0.060852 0.036621
0.071686 0.111420 0.041473
0.072388 0.112946 0.041626
0.072662 0.113617 0.041626
0.080627 0.113708 0.041199
0.111816 0.112152 0.039185
0.144409 0.110413 0.037170
0.177155 0.108917 0.035278
0.209808 0.107361 0.033356
0.242859 0.105927 0.031616
0.276001 0.104523 0.029938
0.309662 0.103149 0.028290
0.343231 0.101929 0.026764
0.377228 0.100677 0.025299
0.411255 0.099640 0.024048
0.445801 0.098663 0.022858
0.480316 0.097748 0.021729
0.515320 0.096863 0.020752
0.550598 0.096008 0.019714
0.586670 0.095062 0.018707
0.622620 0.094055 0.017609
0.658691 0.093170 0.016693
0.694855 0.092285 0.015778
0.730499 0.091675 0.015167
0.765717 0.090973 0.014557
0.800354 0.090363 0.014587
0.833679 0.089813 0.014984
0.850555 0.089233 0.015686
0.850555 0.088684 0.016571
0.850464 0.087891 0.017609
0.850494 0.087158 0.018799
0.850464 0.086212 0.020111
0.850494 0.086914 0.023987
0.077057 0.122681 0.042145
0.077911 0.124451 0.042267
0.078278 0.125214 0.042328
0.079529 0.125732 0.042267
0.111603 0.124268 0.040314
0.143890 0.122864 0.038422
0.176392 0.121338 0.036530
0.209351 0.119995 0.034760
0.242126 0.118744 0.033112
0.275452 0.117493 0.031525
0.308868 0.116302 0.029999
0.342590 0.115143 0.028534
0.376434 0.114227 0.027313
0.410645 0.113342 0.026123
0.444763 0.112579 0.025055
0.479340 0.111877 0.024078
0.514191 0.111115 0.023132
0.549316 0.110413 0.022125
0.584808 0.109619 0.021118
0.620636 0.108826 0.020172
0.656525 0.108276 0.019440
0.692322 0.107697 0.018707
0.727997 0.107300 0.018219
0.762787 0.106964 0.017761
0.797058 0.106812 0.017517
0.830261 0.106598 0.017303
0.850800 0.106506 0.017181
0.850830 0.106415 0.017181
0.850739 0.106140 0.017670
0.850769 0.105927 0.018463
0.850830 0.105560 0.019470
0.850800 0.106049 0.021698
0.083618 0.136261 0.043274
0.085815 0.140778 0.043823
0.086853 0.142914 0.044067
0.087708 0.144623 0.044373
0.110260 0.144623 0.043213
0.142212 0.144287 0.041595
0.174835 0.143768 0.040009
0.207672 0.143311 0.038483
0.240631 0.142883 0.037079
0.273956 0.142517 0.035736
0.307373 0.142181 0.034515
0.341125 0.141998 0.033447
0.375000 0.142029 0.032532
0.409180 0.141785 0.031555
0.443329 0.141785 0.030731
0.477722 0.141693 0.029907
0.512299 0.141541 0.029083
0.547424 0.141449 0.028320
0.582916 0.141449 0.027618
0.618713 0.141571 0.027069
0.654663 0.141541 0.026550
0.690491 0.141754 0.026245
0.726105 0.142151 0.026154
0.760864 0.142487 0.026031
0.795166 0.142975 0.026123
0.828156 0.143280 0.026093
0.851929 0.143646 0.026215
0.851959 0.143951 0.026306
0.852020 0.144287 0.026459
0.852051 0.145477 0.026733
0.852112 0.147034 0.027130
0.852173 0.149109 0.027649
0.096497 0.162476 0.046204
0.099152 0.167847 0.046875
0.100494 0.170593 0.047241
0.101410 0.172455 0.047394
0.107910 0.173981 0.047302
0.140289 0.173706 0.045837
0.172974 0.173492 0.044464
0.205750 0.173401 0.043152
0.239044 0.173370 0.042023
0.272369 0.173401 0.040985
0.306000 0.173553 0.040100
0.339813 0.173706 0.039276
0.373688 0.174072 0.038544
0.407928 0.174072 0.037750
0.442139 0.174194 0.036987
0.476349 0.174377 0.036224
0.510864 0.174683 0.035645
0.546143 0.175049 0.035187
0.581757 0.175476 0.034790
0.617859 0.175964 0.034485
0.653748 0.176666 0.034393
0.689819 0.177368 0.034424
0.725311 0.178253 0.034546
0.760223 0.179047 0.034698
0.794403 0.179901 0.035004
0.827423 0.180786 0.035248
0.853821 0.181610 0.035553
0.853912 0.183289 0.035950
0.854095 0.185425 0.036530
0.854187 0.187500 0.037018
0.854309 0.189453 0.037506
0.854462 0.191803 0.038116
0.110107 0.189728 0.049591
0.113159 0.195801 0.050293
0.114685 0.198883 0.050659
0.115906 0.201233 0.051025
0.116760 0.202972 0.051208
0.138916 0.203705 0.050568
0.171356 0.203979 0.049438
0.204346 0.204132 0.048370
0.237793 0.204651 0.047546
0.271240 0.205170 0.046814
0.304932 0.205505 0.046021
0.338837 0.205963 0.045380
0.372772 0.206238 0.044556
0.406830 0.206787 0.043915
0.441010 0.207214 0.043335
0.475372 0.207794 0.042847
0.510345 0.208435 0.042542
0.545746 0.209412 0.042480
0.581512 0.210297 0.042389
0.617584 0.211365 0.042480
0.653717 0.212372 0.042603
0.689911 0.213623 0.042938
0.725372 0.214813 0.043243
0.760345 0.215912 0.043579
0.794495 0.217316 0.044098
0.828400 0.219482 0.044800
0.856598 0.222260 0.045654
0.856750 0.224701 0.046265
0.856934 0.227051 0.046875
0.857117 0.229370 0.047424
0.857330 0.231750 0.048065
0.857361 0.233002 0.048279
0.124359 0.217743 0.053314
0.127808 0.224518 0.054291
0.129669 0.228149 0.054810
0.130981 0.230652 0.055176
0.132111 0.232819 0.055573
0.137543 0.234528 0.055634
0.170441 0.235229 0.054901
0.203705 0.235992 0.054199
0.237000 0.236725 0.053497
0.270599 0.237335 0.052826
0.304352 0.237946 0.052185
0.338074 0.238647 0.051544
0.372040 0.239288 0.050964
0.406372 0.240112 0.050568
0.440674 0.240875 0.050201
0.475372 0.242126 0.050201
0.510468 0.243286 0.050171
0.546051 0.244537 0.050323
0.581848 0.245789 0.050476
0.618286 0.247345 0.050873
0.654358 0.248688 0.051178
0.690521 0.250275 0.051727
0.726196 0.251801 0.052246
0.762024 0.254272 0.053009
0.797333 0.257385 0.054016
0.831543 0.260559 0.055054
0.859924 0.263458 0.055939
0.860229 0.266174 0.056641
0.860474 0.268860 0.057343
0.860443 0.268921 0.057312
0.860321 0.268250 0.057098
0.860382 0.268616 0.057220
0.139557 0.247101 0.057800
0.143311 0.254181 0.059021
0.145447 0.258301 0.059662
0.147125 0.261444 0.060242
0.148346 0.263794 0.060638
0.149536 0.265961 0.061035
0.169800 0.267303 0.060791
0.202850 0.268280 0.060150
0.236450 0.269226 0.059631
0.269928 0.270020 0.058990
0.303558 0.270905 0.058441
0.337524 0.271912 0.058044
0.371887 0.273071 0.057831
0.406250 0.274353 0.057739
0.440887 0.275665 0.057770
0.475891 0.277222 0.058014
0.511078 0.278900 0.058350
0.546844 0.280518 0.058716
0.582886 0.282166 0.059113
0.619415 0.283966 0.059692
0.655670 0.285675 0.060242
0.692596 0.288452 0.061096
0.729645 0.291840 0.062195
0.765808 0.295105 0.063202
0.801147 0.298553 0.064331
0.835083 0.301697 0.065247
0.863770 0.304871 0.066223
0.863800 0.304749 0.066223
0.863800 0.304718 0.066223
0.863861 0.305511 0.066376
0.863922 0.306396 0.066589
0.864044 0.307495 0.066925
0.155334 0.276947 0.062897
0.159454 0.284698 0.064240
0.162018 0.289520 0.065125
0.163574 0.292511 0.065582
0.165100 0.295349 0.066101
0.166321 0.297668 0.066498
0.169617 0.299683 0.066803
0.202576 0.300995 0.066345
0.235870 0.302094 0.065796
0.269592 0.303375 0.065521
0.303467 0.304688 0.065277
0.337830 0.306183 0.065247
0.372284 0.307831 0.065369
0.407013 0.309540 0.065613
0.441956 0.311188 0.065857
0.476807 0.313171 0.066345
0.512177 0.315094 0.066833
0.548157 0.317108 0.067474
0.584198 0.319061 0.068024
0.621674 0.322113 0.069031
0.659546 0.325592 0.070129
0.697083 0.329285 0.071289
0.733826 0.332733 0.072327
0.769958 0.336304 0.073425
0.805115 0.339752 0.074524
0.836060 0.339844 0.074677
0.866180 0.340424 0.075012
0.867554 0.341400 0.075256
0.867615 0.342682 0.075500
0.867859 0.344086 0.075897
0.867920 0.345367 0.076172
0.868073 0.346558 0.078186
0.171417 0.307251 0.068176
0.175842 0.315582 0.069641
0.178772 0.320984 0.070648
0.180634 0.324524 0.071289
0.182190 0.327454 0.071777
0.183594 0.330078 0.072296
0.184875 0.332397 0.072723
0.202393 0.334351 0.072815
0.236115 0.335907 0.072632
0.269897 0.337738 0.072693
0.304108 0.339508 0.072815
0.338684 0.341370 0.073059
0.373199 0.343414 0.073425
0.408203 0.345642 0.074036
0.443268 0.347748 0.074554
0.477875 0.349274 0.075012
0.512573 0.350525 0.075439
0.548462 0.352631 0.076111
0.585693 0.355499 0.077087
0.622986 0.358215 0.077911
0.660431 0.361053 0.078918
0.697693 0.364044 0.079926
0.734283 0.366699 0.080719
0.767487 0.366669 0.080963
0.800110 0.366638 0.081116
0.832550 0.367645 0.081482
0.863770 0.369019 0.081909
0.870667 0.370483 0.082275
0.870911 0.372284 0.082764
0.871094 0.374176 0.083191
0.871338 0.376282 0.084473
0.871521 0.378174 0.088165
0.183929 0.330750 0.072357
0.188660 0.339417 0.074066
0.191437 0.344574 0.075043
0.193512 0.348389 0.075806
0.195312 0.351654 0.076477
0.196930 0.354645 0.077057
0.198578 0.357635 0.077667
0.200195 0.360657 0.078247
0.219604 0.363647 0.078766
0.254211 0.366547 0.079102
0.289398 0.370056 0.079773
0.325195 0.373810 0.080627
0.361206 0.377716 0.081512
0.397614 0.382080 0.082642
0.434204 0.386688 0.083893
0.471802 0.392334 0.085449
0.510498 0.399078 0.087372
0.549530 0.405762 0.089264
0.588928 0.412689 0.091187
0.628448 0.419830 0.093262
0.667664 0.426971 0.095276
0.703156 0.430847 0.096313
0.738342 0.435242 0.097534
0.772949 0.440033 0.098663
0.806976 0.445404 0.100128
0.839447 0.450775 0.101501
0.870697 0.456482 0.103180
0.882355 0.461914 0.104553
0.883148 0.466553 0.111359
0.883667 0.470123 0.123566
0.884186 0.473572 0.136108
0.884796 0.476776 0.149048
0.222443 0.400665 0.086975
0.229919 0.413971 0.090027
0.235321 0.423615 0.092255
0.239868 0.431610 0.094177
0.243988 0.438873 0.095886
0.247894 0.445679 0.097565
0.251465 0.451965 0.099091
0.254700 0.457764 0.100403
0.267548 0.463806 0.101959
0.303833 0.469666 0.103577
0.339783 0.475372 0.105164
0.375885 0.480957 0.106812
0.411652 0.486359 0.108398
0.447784 0.492035 0.109985
0.484406 0.498413 0.111877
0.520782 0.504272 0.113464
0.557373 0.509918 0.114929
0.593597 0.515045 0.116272
0.628876 0.518524 0.117218
0.661560 0.519623 0.117523
0.693787 0.520325 0.117889
0.726379 0.522003 0.118439
0.758881 0.524048 0.119202
0.790649 0.525269 0.127319
0.821533 0.526520 0.135834
0.851379 0.527710 0.144257
0.879822 0.528717 0.153107
0.893555 0.529572 0.161957
0.893616 0.530121 0.170654
0.893707 0.530609 0.179718
0.893921 0.531189 0.189056
0.893982 0.531647 0.198456
0.270416 0.485229 0.107178
0.275665 0.494354 0.109497
0.279327 0.500763 0.111023
0.281891 0.505219 0.112152
0.284027 0.508881 0.113159
0.285889 0.512146 0.113922
0.287537 0.514954 0.114685
0.289032 0.517639 0.115295
0.292664 0.520203 0.115997
0.325043 0.522919 0.116821
0.357513 0.525787 0.117767
0.390961 0.528931 0.118805
0.425018 0.533020 0.120026
0.459198 0.536774 0.121063
0.493469 0.540649 0.122131
0.527893 0.544281 0.123077
0.562775 0.547974 0.124054
0.596375 0.550079 0.124695
0.628235 0.550354 0.124908
0.661621 0.552216 0.125549
0.695038 0.554352 0.126282
0.728241 0.556488 0.129456
0.760834 0.558197 0.137543
0.792694 0.559753 0.146118
0.823639 0.561310 0.154694
0.853241 0.562408 0.163269
0.881592 0.563477 0.172058
0.899811 0.564484 0.181061
0.899933 0.565369 0.189972
0.900085 0.566162 0.199219
0.900269 0.566925 0.208527
0.900421 0.567657 0.218109
0.288116 0.516052 0.114868
0.293793 0.525879 0.117401
0.297760 0.532806 0.119141
0.300568 0.537689 0.120331
0.302917 0.541748 0.121429
0.304779 0.544983 0.122223
0.306580 0.548157 0.122986
0.308258 0.551056 0.123718
0.309875 0.553894 0.124420
0.327850 0.557312 0.125397
0.361725 0.561523 0.126648
0.395691 0.565613 0.127838
0.429657 0.569672 0.128967
0.463776 0.573547 0.129944
0.497833 0.577301 0.130890
0.532410 0.581238 0.132019
0.562622 0.580353 0.131866
0.595978 0.582245 0.132538
0.629547 0.584595 0.133331
0.663422 0.586945 0.134216
0.697144 0.589386 0.139496
0.730560 0.591492 0.147919
0.763000 0.593292 0.156128
0.794922 0.595093 0.164948
0.825745 0.596680 0.173645
0.855316 0.597992 0.182312
0.883453 0.599060 0.191284
0.906311 0.599945 0.200012
0.906586 0.601074 0.209290
0.906799 0.602112 0.218719
0.907043 0.603241 0.227997
0.907257 0.604431 0.239136
0.306580 0.548157 0.122986
0.312439 0.558350 0.125549
0.316589 0.565552 0.127411
0.319550 0.570709 0.128662
0.322083 0.575134 0.129791
0.324066 0.578583 0.130646
0.325928 0.581879 0.131409
0.328094 0.585602 0.132385
0.330597 0.589966 0.133514
0.332977 0.594116 0.134521
0.366547 0.598389 0.135681
0.400299 0.602478 0.136749
0.434265 0.606537 0.137817
0.468170 0.610565 0.138855
0.498413 0.610382 0.138916
0.530823 0.612335 0.139618
0.564056 0.614594 0.140320
0.597961 0.617157 0.141296
0.631805 0.619904 0.142242
0.666077 0.622650 0.149719
0.699982 0.625305 0.157837
0.733215 0.627411 0.166473
0.765900 0.629364 0.175049
0.797455 0.631042 0.183960
0.828003 0.632568 0.192749
0.857361 0.633850 0.201447
0.885254 0.634949 0.210327
0.911560 0.635864 0.219177
0.913483 0.637207 0.228516
0.913696 0.638367 0.237946
0.913849 0.639496 0.247253
0.914276 0.641327 0.260254
0.325165 0.580475 0.131104
0.331177 0.590973 0.133728
0.335358 0.598328 0.135498
0.338593 0.604004 0.136902
0.341278 0.608643 0.138062
0.343781 0.612976 0.139191
0.346497 0.617828 0.140289
0.349152 0.622467 0.141449
0.351654 0.626862 0.142517
0.353973 0.631012 0.143463
0.371185 0.635345 0.144501
0.405029 0.639587 0.145660
0.435425 0.640259 0.145905
0.467133 0.641876 0.146454
0.499542 0.644409 0.147308
0.532806 0.647217 0.148346
0.566315 0.649872 0.149200
0.600342 0.652802 0.151672
0.634888 0.656311 0.159912
0.669312 0.659332 0.168030
0.702972 0.661713 0.176178
0.736267 0.664001 0.184784
0.768524 0.665680 0.193359
0.800049 0.667389 0.202545
0.830383 0.668762 0.211548
0.859406 0.669983 0.220581
0.886993 0.670898 0.229401
0.912964 0.671783 0.238007
0.920258 0.672913 0.247192
0.920502 0.674347 0.256836
0.920746 0.675659 0.266266
0.921112 0.677643 0.280762
0.343811 0.613129 0.139130
0.349854 0.623688 0.141724
0.354187 0.631348 0.143524
0.357880 0.637848 0.145111
0.361389 0.644043 0.146606
0.364441 0.649384 0.147888
0.367279 0.654388 0.149109
0.370026 0.659210 0.150238
0.372650 0.663788 0.151428
0.375214 0.668243 0.152496
0.376312 0.670135 0.152985
0.404510 0.671417 0.153442
0.436523 0.673889 0.154205
0.469147 0.676636 0.155182
0.501984 0.679535 0.156128
0.535278 0.682556 0.157227
0.569092 0.685699 0.161407
0.603241 0.689117 0.169678
0.637665 0.692688 0.178070
0.672241 0.695862 0.186279
0.706512 0.698944 0.194855
0.739349 0.700775 0.203064
0.771393 0.702301 0.211060
0.802460 0.703644 0.220276
0.832520 0.704803 0.229309
0.861176 0.705750 0.238739
0.888336 0.706512 0.248016
0.913849 0.707184 0.256561
0.926849 0.708099 0.265533
0.927155 0.709717 0.275116
0.927307 0.711121 0.284546
0.927551 0.713135 0.301086
0.362305 0.645660 0.146942
0.368713 0.656921 0.149719
0.374146 0.666382 0.152039
0.378479 0.674011 0.153900
0.382263 0.680573 0.155579
0.385406 0.686127 0.156891
0.388519 0.691437 0.158295
0.391266 0.696289 0.159485
0.394012 0.701050 0.160675
0.393799 0.700653 0.160614
0.395111 0.702942 0.161163
0.406525 0.705536 0.161896
0.439026 0.708618 0.162933
0.471680 0.711639 0.163971
0.504669 0.714783 0.165039
0.537781 0.718231 0.171326
0.571442 0.721649 0.179199
0.605560 0.725220 0.187622
0.639893 0.728516 0.195953
0.674408 0.731812 0.204285
0.708832 0.734955 0.212891
0.742554 0.737640 0.221100
0.774139 0.738770 0.229126
0.804810 0.739746 0.237091
0.834351 0.740387 0.246002
0.862366 0.740967 0.255249
0.888977 0.741455 0.264618
0.914032 0.741821 0.273712
0.933044 0.742401 0.282959
0.933258 0.743958 0.292542
0.933533 0.745605 0.302032
0.933899 0.747803 0.321777
0.382111 0.680328 0.155487
0.389282 0.692810 0.158600
0.394928 0.702576 0.161102
0.399506 0.710602 0.163116
0.403381 0.717255 0.164856
0.406708 0.723053 0.166321
0.409851 0.728485 0.167694
0.410431 0.729462 0.167999
0.411682 0.731659 0.168549
0.413361 0.734558 0.169281
0.415039 0.737396 0.170044
0.416718 0.740326 0.170776
0.441833 0.743408 0.171722
0.474701 0.746582 0.172852
0.506897 0.750214 0.180695
0.539764 0.753784 0.188995
0.573334 0.757050 0.196991
0.607452 0.760498 0.205322
0.641571 0.763702 0.213654
0.675995 0.766785 0.221863
0.710052 0.769775 0.230316
0.743774 0.772430 0.238464
0.776642 0.774933 0.246704
0.806732 0.775269 0.254395
0.835602 0.775391 0.261810
0.863190 0.775360 0.270355
0.889343 0.775574 0.279785
0.914215 0.775879 0.289276
0.937531 0.776337 0.298950
0.939911 0.777802 0.308289
0.940216 0.779449 0.317505
0.940521 0.781555 0.340393
0.402832 0.716370 0.164581
0.410034 0.728760 0.167847
0.415771 0.738739 0.170349
0.420441 0.746857 0.172394
0.424469 0.753754 0.174225
0.426147 0.756653 0.174957
0.427643 0.759277 0.175598
0.429321 0.762238 0.176331
0.431152 0.765411 0.177155
0.433014 0.768585 0.177979
0.434845 0.771729 0.178802
0.436493 0.774658 0.179535
0.444641 0.778015 0.182343
0.476349 0.781494 0.190125
0.508453 0.785065 0.198212
0.541382 0.788452 0.206482
0.575012 0.791748 0.214539
0.608795 0.794891 0.222748
0.642853 0.797821 0.230804
0.676819 0.800720 0.238983
0.710724 0.803375 0.247314
0.743744 0.805664 0.255066
0.776367 0.807892 0.263214
0.808014 0.809845 0.271149
0.836792 0.809753 0.278442
0.864319 0.809692 0.286163
0.890289 0.809479 0.294006
0.914673 0.809418 0.303619
0.937561 0.809418 0.313477
0.946320 0.810394 0.322510
0.946655 0.812134 0.331665
0.946777 0.813751 0.358582
0.423370 0.751892 0.173706
0.430603 0.764374 0.176941
0.436340 0.774323 0.179474
0.441101 0.782623 0.181580
0.442230 0.784485 0.182098
0.444275 0.788147 0.182953
0.446472 0.791931 0.183960
0.448639 0.795624 0.184967
0.450531 0.798950 0.185760
0.452515 0.802338 0.186676
0.454346 0.805511 0.187469
0.456085 0.808563 0.194733
0.457855 0.811646 0.207794
0.477509 0.815369 0.207245
0.509491 0.818726 0.215332
0.542389 0.821960 0.223480
0.575806 0.825043 0.231567
0.609528 0.827881 0.239655
0.643433 0.830627 0.247620
0.677032 0.833038 0.255615
0.710327 0.835297 0.263489
0.743164 0.837311 0.271149
0.775543 0.839386 0.279175
0.807312 0.841553 0.287384
0.837982 0.843353 0.295197
0.865448 0.843170 0.302551
0.891052 0.842590 0.309937
0.915070 0.841797 0.316895
0.937531 0.841461 0.326324
0.952484 0.841583 0.335541
0.952728 0.843231 0.344269
0.952576 0.844177 0.376373
0.443726 0.787140 0.182739
0.450684 0.799255 0.185791
0.454010 0.805054 0.187256
0.457336 0.810791 0.188721
0.460236 0.815826 0.190002
0.462830 0.820343 0.191132
0.465179 0.824432 0.192169
0.467346 0.828125 0.193146
0.469330 0.831604 0.194000
0.471191 0.834930 0.194763
0.473114 0.838196 0.205200
0.474823 0.841217 0.218170
0.476593 0.844269 0.230896
0.481506 0.847626 0.235382
0.510254 0.851135 0.232239
0.542938 0.853882 0.240051
