Game/Assets/LUTs/purple11-free-luts-pack/Nah.CUBE
#Created by: Adobe Photoshop Export Color Lookup Plugin
#Copyright: (C) Copyright 2019 Purple11
TITLE "Nah"
#LUT size
LUT_3D_SIZE 5
#data domain
#LUT data points
DOMAIN_MIN 0.000000 0.000000 0.000000
DOMAIN_MAX 0.903226 0.903226 0.903226
0.177521 0.141174 0.182068
0.242188 0.141174 0.182068
0.469513 0.141174 0.182068
0.820221 0.141174 0.182068
0.963745 0.141174 0.182068
0.177521 0.240936 0.182068
0.242188 0.240936 0.182068
0.469513 0.240936 0.182068
0.820221 0.240936 0.182068
0.963745 0.240936 0.182068
0.177521 0.483734 0.182068
0.242188 0.483734 0.182068
0.469513 0.483734 0.182068
0.820221 0.483734 0.182068
0.963745 0.483734 0.182068
0.177521 0.790588 0.182068
0.242188 0.790588 0.182068
0.469513 0.790588 0.182068
0.820221 0.790588 0.182068
0.963745 0.790588 0.182068
0.177521 0.953979 0.182068
0.242188 0.953979 0.182068
0.469513 0.953979 0.182068
0.820221 0.953979 0.182068
0.963745 0.953979 0.182068
0.177521 0.141174 0.301392
0.242188 0.141174 0.301392
0.469513 0.141174 0.301392
0.820221 0.141174 0.301392
0.963745 0.141174 0.301392
0.177521 0.240936 0.301392
0.242188 0.240936 0.301392
0.469513 0.240936 0.301392
0.820221 0.240936 0.301392
0.963745 0.240936 0.301392
0.177521 0.483734 0.301392
0.242188 0.483734 0.301392
0.469513 0.483734 0.301392
0.820221 0.483734 0.301392
0.963745 0.483734 0.301392
0.177521 0.790588 0.301392
0.242188 0.790588 0.301392
0.469513 0.790588 0.301392
0.820221 0.790588 0.301392
0.963745 0.790588 0.301392
0.177521 0.953979 0.301392
0.242188 0.953979 0.301392
0.469513 0.953979 0.301392
0.820221 0.953979 0.301392
0.963745 0.953979 0.301392
0.177521 0.141174 0.533752
0.242188 0.141174 0.533752
0.469513 0.141174 0.533752
0.820221 0.141174 0.533752
0.963745 0.141174 0.533752
0.177521 0.240936 0.533752
0.242188 0.240936 0.533752
0.469513 0.240936 0.533752
0.820221 0.240936 0.533752
0.963745 0.240936 0.533752
0.177521 0.483734 0.533752
0.242188 0.483734 0.533752
0.469513 0.483734 0.533752
0.820221 0.483734 0.533752
0.963745 0.483734 0.533752
0.177521 0.790588 0.533752
0.242188 0.790588 0.533752
0.469513 0.790588 0.533752
0.820221 0.790588 0.533752
0.963745 0.790588 0.533752
0.177521 0.953979 0.533752
0.242188 0.953979 0.533752
0.469513 0.953979 0.533752
0.820221 0.953979 0.533752
0.963745 0.953979 0.533752
0.177521 0.141174 0.792236
0.242188 0.141174 0.792236
0.469513 0.141174 0.792236
0.820221 0.141174 0.792236
0.963745 0.141174 0.792236
0.177521 0.240936 0.792236
0.242188 0.240936 0.792236
0.469513 0.240936 0.792236
0.820221 0.240936 0.792236
0.963745 0.240936 0.792236
0.177521 0.483734 0.792236
0.242188 0.483734 0.792236
0.469513 0.483734 0.792236
0.820221 0.483734 0.792236
0.963745 0.483734 0.792236
0.177521 0.790588 0.792236
0.242188 0.790588 0.792236
0.469513 0.790588 0.792236
0.820221 0.790588 0.792236
0.963745 0.790588 0.792236
0.177521 0.953979 0.792236
0.242188 0.953979 0.792236
0.469513 0.953979 0.792236
0.820221 0.953979 0.792236
0.963745 0.953979 0.792236
0.177521 0.141174 0.952362
0.242188 0.141174 0.952362
0.469513 0.141174 0.952362
0.820221 0.141174 0.952362
0.963745 0.141174 0.952362
0.177521 0.240936 0.952362
0.242188 0.240936 0.952362
0.469513 0.240936 0.952362
0.820221 0.240936 0.952362
0.963745 0.240936 0.952362
0.177521 0.483734 0.952362
0.242188 0.483734 0.952362
0.469513 0.483734 0.952362
0.820221 0.483734 0.952362
0.963745 0.483734 0.952362
0.177521 0.790588 0.952362
0.242188 0.790588 0.952362
0.469513 0.790588 0.952362
0.820221 0.790588 0.952362
0.963745 0.790588 0.952362
0.177521 0.953979 0.952362
0.242188 0.953979 0.952362
0.469513 0.953979 0.952362
0.820221 0.953979 0.952362
0.963745 0.953979 0.952362
