Game/Assets/LUTs/purple11-free-luts-pack/Nah.CUBE
#Created by: Adobe Photoshop Export Color Lookup Plugin
#Copyright: (C) Copyright 2019 Purple11
TITLE "Nah"
#LUT size
LUT_3D_SIZE 8
#data domain
#LUT data points
DOMAIN_MIN 0.000000 0.000000 0.000000
DOMAIN_MAX 0.903226 0.903226 0.903226
0.177521 0.141174 0.182068
0.207855 0.141174 0.182068
0.258209 0.141174 0.182068
0.371704 0.141174 0.182068
0.589508 0.141174 0.182068
0.786133 0.141174 0.182068
0.897034 0.141174 0.182068
0.963745 0.141174 0.182068
0.177521 0.189453 0.182068
0.207855 0.189453 0.182068
0.258209 0.189453 0.182068
0.371704 0.189453 0.182068
0.589508 0.189453 0.182068
0.786133 0.189453 0.182068
0.897034 0.189453 0.182068
0.963745 0.189453 0.182068
0.177521 0.262970 0.182068
0.207855 0.262970 0.182068
0.258209 0.262970 0.182068
0.371704 0.262970 0.182068
0.589508 0.262970 0.182068
0.786133 0.262970 0.182068
0.897034 0.262970 0.182068
0.963745 0.262970 0.182068
0.177521 0.392242 0.182068
0.207855 0.392242 0.182068
0.258209 0.392242 0.182068
0.371704 0.392242 0.182068
0.589508 0.392242 0.182068
0.786133 0.392242 0.182068
0.897034 0.392242 0.182068
0.963745 0.392242 0.182068
0.177521 0.586029 0.182068
0.207855 0.586029 0.182068
0.258209 0.586029 0.182068
0.371704 0.586029 0.182068
0.589508 0.586029 0.182068
0.786133 0.586029 0.182068
0.897034 0.586029 0.182068
0.963745 0.586029 0.182068
0.177521 0.757538 0.182068
0.207855 0.757538 0.182068
0.258209 0.757538 0.182068
0.371704 0.757538 0.182068
0.589508 0.757538 0.182068
0.786133 0.757538 0.182068
0.897034 0.757538 0.182068
0.963745 0.757538 0.182068
0.177521 0.872528 0.182068
0.207855 0.872528 0.182068
0.258209 0.872528 0.182068
0.371704 0.872528 0.182068
0.589508 0.872528 0.182068
0.786133 0.872528 0.182068
0.897034 0.872528 0.182068
0.963745 0.872528 0.182068
0.177521 0.953979 0.182068
0.207855 0.953979 0.182068
0.258209 0.953979 0.182068
0.371704 0.953979 0.182068
0.589508 0.953979 0.182068
0.786133 0.953979 0.182068
0.897034 0.953979 0.182068
0.963745 0.953979 0.182068
0.177521 0.141174 0.240692
0.207855 0.141174 0.240692
0.258209 0.141174 0.240692
0.371704 0.141174 0.240692
0.589508 0.141174 0.240692
0.786133 0.141174 0.240692
0.897034 0.141174 0.240692
0.963745 0.141174 0.240692
0.177521 0.189453 0.240692
0.207855 0.189453 0.240692
0.258209 0.189453 0.240692
0.371704 0.189453 0.240692
0.589508 0.189453 0.240692
0.786133 0.189453 0.240692
0.897034 0.189453 0.240692
0.963745 0.189453 0.240692
0.177521 0.262970 0.240692
0.207855 0.262970 0.240692
0.258209 0.262970 0.240692
0.371704 0.262970 0.240692
0.589508 0.262970 0.240692
0.786133 0.262970 0.240692
0.897034 0.262970 0.240692
0.963745 0.262970 0.240692
0.177521 0.392242 0.240692
0.207855 0.392242 0.240692
0.258209 0.392242 0.240692
0.371704 0.392242 0.240692
0.589508 0.392242 0.240692
0.786133 0.392242 0.240692
0.897034 0.392242 0.240692
0.963745 0.392242 0.240692
0.177521 0.586029 0.240692
0.207855 0.586029 0.240692
0.258209 0.586029 0.240692
0.371704 0.586029 0.240692
0.589508 0.586029 0.240692
0.786133 0.586029 0.240692
0.897034 0.586029 0.240692
0.963745 0.586029 0.240692
0.177521 0.757538 0.240692
0.207855 0.757538 0.240692
0.258209 0.757538 0.240692
0.371704 0.757538 0.240692
0.589508 0.757538 0.240692
0.786133 0.757538 0.240692
0.897034 0.757538 0.240692
0.963745 0.757538 0.240692
0.177521 0.872528 0.240692
0.207855 0.872528 0.240692
0.258209 0.872528 0.240692
0.371704 0.872528 0.240692
0.589508 0.872528 0.240692
0.786133 0.872528 0.240692
0.897034 0.872528 0.240692
0.963745 0.872528 0.240692
0.177521 0.953979 0.240692
0.207855 0.953979 0.240692
0.258209 0.953979 0.240692
0.371704 0.953979 0.240692
0.589508 0.953979 0.240692
0.786133 0.953979 0.240692
0.897034 0.953979 0.240692
0.963745 0.953979 0.240692
0.177521 0.141174 0.326447
0.207855 0.141174 0.326447
0.258209 0.141174 0.326447
0.371704 0.141174 0.326447
0.589508 0.141174 0.326447
0.786133 0.141174 0.326447
0.897034 0.141174 0.326447
0.963745 0.141174 0.326447
0.177521 0.189453 0.326447
0.207855 0.189453 0.326447
0.258209 0.189453 0.326447
0.371704 0.189453 0.326447
0.589508 0.189453 0.326447
0.786133 0.189453 0.326447
0.897034 0.189453 0.326447
0.963745 0.189453 0.326447
0.177521 0.262970 0.326447
0.207855 0.262970 0.326447
0.258209 0.262970 0.326447
0.371704 0.262970 0.326447
0.589508 0.262970 0.326447
0.786133 0.262970 0.326447
0.897034 0.262970 0.326447
0.963745 0.262970 0.326447
0.177521 0.392242 0.326447
0.207855 0.392242 0.326447
0.258209 0.392242 0.326447
0.371704 0.392242 0.326447
0.589508 0.392242 0.326447
0.786133 0.392242 0.326447
0.897034 0.392242 0.326447
0.963745 0.392242 0.326447
0.177521 0.586029 0.326447
0.207855 0.586029 0.326447
0.258209 0.586029 0.326447
0.371704 0.586029 0.326447
0.589508 0.586029 0.326447
0.786133 0.586029 0.326447
0.897034 0.586029 0.326447
0.963745 0.586029 0.326447
0.177521 0.757538 0.326447
0.207855 0.757538 0.326447
0.258209 0.757538 0.326447
0.371704 0.757538 0.326447
0.589508 0.757538 0.326447
0.786133 0.757538 0.326447
0.897034 0.757538 0.326447
0.963745 0.757538 0.326447
0.177521 0.872528 0.326447
0.207855 0.872528 0.326447
0.258209 0.872528 0.326447
0.371704 0.872528 0.326447
0.589508 0.872528 0.326447
0.786133 0.872528 0.326447
0.897034 0.872528 0.326447
0.963745 0.872528 0.326447
0.177521 0.953979 0.326447
0.207855 0.953979 0.326447
0.258209 0.953979 0.326447
0.371704 0.953979 0.326447
0.589508 0.953979 0.326447
0.786133 0.953979 0.326447
0.897034 0.953979 0.326447
0.963745 0.953979 0.326447
0.177521 0.141174 0.454559
0.207855 0.141174 0.454559
0.258209 0.141174 0.454559
0.371704 0.141174 0.454559
0.589508 0.141174 0.454559
0.786133 0.141174 0.454559
0.897034 0.141174 0.454559
0.963745 0.141174 0.454559
0.177521 0.189453 0.454559
0.207855 0.189453 0.454559
0.258209 0.189453 0.454559
0.371704 0.189453 0.454559
0.589508 0.189453 0.454559
0.786133 0.189453 0.454559
0.897034 0.189453 0.454559
0.963745 0.189453 0.454559
0.177521 0.262970 0.454559
0.207855 0.262970 0.454559
0.258209 0.262970 0.454559
0.371704 0.262970 0.454559
0.589508 0.262970 0.454559
0.786133 0.262970 0.454559
0.897034 0.262970 0.454559
0.963745 0.262970 0.454559
0.177521 0.392242 0.454559
0.207855 0.392242 0.454559
0.258209 0.392242 0.454559
0.371704 0.392242 0.454559
0.589508 0.392242 0.454559
0.786133 0.392242 0.454559
0.897034 0.392242 0.454559
0.963745 0.392242 0.454559
0.177521 0.586029 0.454559
0.207855 0.586029 0.454559
0.258209 0.586029 0.454559
0.371704 0.586029 0.454559
0.589508 0.586029 0.454559
0.786133 0.586029 0.454559
0.897034 0.586029 0.454559
0.963745 0.586029 0.454559
0.177521 0.757538 0.454559
0.207855 0.757538 0.454559
0.258209 0.757538 0.454559
0.371704 0.757538 0.454559
0.589508 0.757538 0.454559
0.786133 0.757538 0.454559
0.897034 0.757538 0.454559
0.963745 0.757538 0.454559
0.177521 0.872528 0.454559
0.207855 0.872528 0.454559
0.258209 0.872528 0.454559
0.371704 0.872528 0.454559
0.589508 0.872528 0.454559
0.786133 0.872528 0.454559
0.897034 0.872528 0.454559
0.963745 0.872528 0.454559
0.177521 0.953979 0.454559
0.207855 0.953979 0.454559
0.258209 0.953979 0.454559
0.371704 0.953979 0.454559
0.589508 0.953979 0.454559
0.786133 0.953979 0.454559
0.897034 0.953979 0.454559
0.963745 0.953979 0.454559
0.177521 0.141174 0.617493
0.207855 0.141174 0.617493
0.258209 0.141174 0.617493
0.371704 0.141174 0.617493
0.589508 0.141174 0.617493
0.786133 0.141174 0.617493
0.897034 0.141174 0.617493
0.963745 0.141174 0.617493
0.177521 0.189453 0.617493
0.207855 0.189453 0.617493
0.258209 0.189453 0.617493
0.371704 0.189453 0.617493
0.589508 0.189453 0.617493
0.786133 0.189453 0.617493
0.897034 0.189453 0.617493
0.963745 0.189453 0.617493
0.177521 0.262970 0.617493
0.207855 0.262970 0.617493
0.258209 0.262970 0.617493
0.371704 0.262970 0.617493
0.589508 0.262970 0.617493
0.786133 0.262970 0.617493
0.897034 0.262970 0.617493
0.963745 0.262970 0.617493
0.177521 0.392242 0.617493
0.207855 0.392242 0.617493
0.258209 0.392242 0.617493
0.371704 0.392242 0.617493
0.589508 0.392242 0.617493
0.786133 0.392242 0.617493
0.897034 0.392242 0.617493
0.963745 0.392242 0.617493
0.177521 0.586029 0.617493
0.207855 0.586029 0.617493
0.258209 0.586029 0.617493
0.371704 0.586029 0.617493
0.589508 0.586029 0.617493
0.786133 0.586029 0.617493
0.897034 0.586029 0.617493
0.963745 0.586029 0.617493
0.177521 0.757538 0.617493
0.207855 0.757538 0.617493
0.258209 0.757538 0.617493
0.371704 0.757538 0.617493
0.589508 0.757538 0.617493
0.786133 0.757538 0.617493
0.897034 0.757538 0.617493
0.963745 0.757538 0.617493
0.177521 0.872528 0.617493
0.207855 0.872528 0.617493
0.258209 0.872528 0.617493
0.371704 0.872528 0.617493
0.589508 0.872528 0.617493
0.786133 0.872528 0.617493
0.897034 0.872528 0.617493
0.963745 0.872528 0.617493
0.177521 0.953979 0.617493
0.207855 0.953979 0.617493
0.258209 0.953979 0.617493
0.371704 0.953979 0.617493
0.589508 0.953979 0.617493
0.786133 0.953979 0.617493
0.897034 0.953979 0.617493
0.963745 0.953979 0.617493
0.177521 0.141174 0.762207
0.207855 0.141174 0.762207
0.258209 0.141174 0.762207
0.371704 0.141174 0.762207
0.589508 0.141174 0.762207
0.786133 0.141174 0.762207
0.897034 0.141174 0.762207
0.963745 0.141174 0.762207
0.177521 0.189453 0.762207
0.207855 0.189453 0.762207
0.258209 0.189453 0.762207
0.371704 0.189453 0.762207
0.589508 0.189453 0.762207
0.786133 0.189453 0.762207
0.897034 0.189453 0.762207
0.963745 0.189453 0.762207
0.177521 0.262970 0.762207
0.207855 0.262970 0.762207
0.258209 0.262970 0.762207
0.371704 0.262970 0.762207
0.589508 0.262970 0.762207
0.786133 0.262970 0.762207
0.897034 0.262970 0.762207
0.963745 0.262970 0.762207
0.177521 0.392242 0.762207
0.207855 0.392242 0.762207
0.258209 0.392242 0.762207
0.371704 0.392242 0.762207
0.589508 0.392242 0.762207
0.786133 0.392242 0.762207
0.897034 0.392242 0.762207
0.963745 0.392242 0.762207
0.177521 0.586029 0.762207
0.207855 0.586029 0.762207
0.258209 0.586029 0.762207
0.371704 0.586029 0.762207
0.589508 0.586029 0.762207
0.786133 0.586029 0.762207
0.897034 0.586029 0.762207
0.963745 0.586029 0.762207
0.177521 0.757538 0.762207
0.207855 0.757538 0.762207
0.258209 0.757538 0.762207
0.371704 0.757538 0.762207
0.589508 0.757538 0.762207
0.786133 0.757538 0.762207
0.897034 0.757538 0.762207
0.963745 0.757538 0.762207
0.177521 0.872528 0.762207
0.207855 0.872528 0.762207
0.258209 0.872528 0.762207
0.371704 0.872528 0.762207
0.589508 0.872528 0.762207
0.786133 0.872528 0.762207
0.897034 0.872528 0.762207
0.963745 0.872528 0.762207
0.177521 0.953979 0.762207
0.207855 0.953979 0.762207
0.258209 0.953979 0.762207
0.371704 0.953979 0.762207
0.589508 0.953979 0.762207
0.786133 0.953979 0.762207
0.897034 0.953979 0.762207
0.963745 0.953979 0.762207
0.177521 0.141174 0.870117
0.207855 0.141174 0.870117
0.258209 0.141174 0.870117
0.371704 0.141174 0.870117
0.589508 0.141174 0.870117
0.786133 0.141174 0.870117
0.897034 0.141174 0.870117
0.963745 0.141174 0.870117
0.177521 0.189453 0.870117
0.207855 0.189453 0.870117
0.258209 0.189453 0.870117
0.371704 0.189453 0.870117
0.589508 0.189453 0.870117
0.786133 0.189453 0.870117
0.897034 0.189453 0.870117
0.963745 0.189453 0.870117
0.177521 0.262970 0.870117
0.207855 0.262970 0.870117
0.258209 0.262970 0.870117
0.371704 0.262970 0.870117
0.589508 0.262970 0.870117
0.786133 0.262970 0.870117
0.897034 0.262970 0.870117
0.963745 0.262970 0.870117
0.177521 0.392242 0.870117
0.207855 0.392242 0.870117
0.258209 0.392242 0.870117
0.371704 0.392242 0.870117
0.589508 0.392242 0.870117
0.786133 0.392242 0.870117
0.897034 0.392242 0.870117
0.963745 0.392242 0.870117
0.177521 0.586029 0.870117
0.207855 0.586029 0.870117
0.258209 0.586029 0.870117
0.371704 0.586029 0.870117
0.589508 0.586029 0.870117
0.786133 0.586029 0.870117
0.897034 0.586029 0.870117
0.963745 0.586029 0.870117
0.177521 0.757538 0.870117
0.207855 0.757538 0.870117
0.258209 0.757538 0.870117
0.371704 0.757538 0.870117
0.589508 0.757538 0.870117
0.786133 0.757538 0.870117
0.897034 0.757538 0.870117
0.963745 0.757538 0.870117
0.177521 0.872528 0.870117
0.207855 0.872528 0.870117
0.258209 0.872528 0.870117
0.371704 0.872528 0.870117
0.589508 0.872528 0.870117
0.786133 0.872528 0.870117
0.897034 0.872528 0.870117
0.963745 0.872528 0.870117
0.177521 0.953979 0.870117
0.207855 0.953979 0.870117
0.258209 0.953979 0.870117
0.371704 0.953979 0.870117
0.589508 0.953979 0.870117
0.786133 0.953979 0.870117
0.897034 0.953979 0.870117
0.963745 0.953979 0.870117
0.177521 0.141174 0.952362
0.207855 0.141174 0.952362
0.258209 0.141174 0.952362
0.371704 0.141174 0.952362
0.589508 0.141174 0.952362
0.786133 0.141174 0.952362
0.897034 0.141174 0.952362
0.963745 0.141174 0.952362
0.177521 0.189453 0.952362
0.207855 0.189453 0.952362
0.258209 0.189453 0.952362
0.371704 0.189453 0.952362
0.589508 0.189453 0.952362
0.786133 0.189453 0.952362
0.897034 0.189453 0.952362
0.963745 0.189453 0.952362
0.177521 0.262970 0.952362
0.207855 0.262970 0.952362
0.258209 0.262970 0.952362
0.371704 0.262970 0.952362
0.589508 0.262970 0.952362
0.786133 0.262970 0.952362
0.897034 0.262970 0.952362
0.963745 0.262970 0.952362
0.177521 0.392242 0.952362
0.207855 0.392242 0.952362
0.258209 0.392242 0.952362
0.371704 0.392242 0.952362
0.589508 0.392242 0.952362
0.786133 0.392242 0.952362
0.897034 0.392242 0.952362
0.963745 0.392242 0.952362
0.177521 0.586029 0.952362
0.207855 0.586029 0.952362
0.258209 0.586029 0.952362
0.371704 0.586029 0.952362
0.589508 0.586029 0.952362
0.786133 0.586029 0.952362
0.897034 0.586029 0.952362
0.963745 0.586029 0.952362
0.177521 0.757538 0.952362
0.207855 0.757538 0.952362
0.258209 0.757538 0.952362
0.371704 0.757538 0.952362
0.589508 0.757538 0.952362
0.786133 0.757538 0.952362
0.897034 0.757538 0.952362
0.963745 0.757538 0.952362
0.177521 0.872528 0.952362
0.207855 0.872528 0.952362
0.258209 0.872528 0.952362
0.371704 0.872528 0.952362
0.589508 0.872528 0.952362
0.786133 0.872528 0.952362
0.897034 0.872528 0.952362
0.963745 0.872528 0.952362
0.177521 0.953979 0.952362
0.207855 0.953979 0.952362
0.258209 0.953979 0.952362
0.371704 0.953979 0.952362
0.589508 0.953979 0.952362
0.786133 0.953979 0.952362
0.897034 0.953979 0.952362
0.963745 0.953979 0.952362
