Game/Assets/LUTs/purple11-free-luts-pack/Nah.CUBE
#Created by: Adobe Photoshop Export Color Lookup Plugin
#Copyright: (C) Copyright 2019 Purple11
TITLE "Nah"
#LUT size
LUT_3D_SIZE 32
#data domain
DOMAIN_MIN 0.0 0.0 0.0
DOMAIN_MAX 1.0 1.0 1.0
#LUT data points
0.177521 0.141174 0.182068
0.184204 0.141174 0.182068
0.191406 0.141174 0.182068
0.199188 0.141174 0.182068
0.207855 0.141174 0.182068
0.217621 0.141174 0.182068
0.228912 0.141174 0.182068
0.242188 0.141174 0.182068
0.258209 0.141174 0.182068
0.278015 0.141174 0.182068
0.302734 0.141174 0.182068
0.333649 0.141174 0.182068
0.371704 0.141174 0.182068
0.417084 0.141174 0.182068
0.469513 0.141174 0.182068
0.527893 0.141174 0.182068
0.589508 0.141174 0.182068
0.647705 0.141174 0.182068
0.700256 0.141174 0.182068
0.746429 0.141174 0.182068
0.786133 0.141174 0.182068
0.820221 0.141174 0.182068
0.849548 0.141174 0.182068
0.874908 0.141174 0.182068
0.897034 0.141174 0.182068
0.916504 0.141174 0.182068
0.933868 0.141174 0.182068
0.949524 0.141174 0.182068
0.963745 0.141174 0.182068
0.976807 0.141174 0.182068
0.988861 0.141174 0.182068
1.000000 0.141174 0.182068
0.177521 0.151733 0.182068
0.184204 0.151733 0.182068
0.191406 0.151733 0.182068
0.199188 0.151733 0.182068
0.207855 0.151733 0.182068
0.217621 0.151733 0.182068
0.228912 0.151733 0.182068
0.242188 0.151733 0.182068
0.258209 0.151733 0.182068
0.278015 0.151733 0.182068
0.302734 0.151733 0.182068
0.333649 0.151733 0.182068
0.371704 0.151733 0.182068
0.417084 0.151733 0.182068
0.469513 0.151733 0.182068
0.527893 0.151733 0.182068
0.589508 0.151733 0.182068
0.647705 0.151733 0.182068
0.700256 0.151733 0.182068
0.746429 0.151733 0.182068
0.786133 0.151733 0.182068
0.820221 0.151733 0.182068
0.849548 0.151733 0.182068
0.874908 0.151733 0.182068
0.897034 0.151733 0.182068
0.916504 0.151733 0.182068
0.933868 0.151733 0.182068
0.949524 0.151733 0.182068
0.963745 0.151733 0.182068
0.976807 0.151733 0.182068
0.988861 0.151733 0.182068
1.000000 0.151733 0.182068
0.177521 0.163177 0.182068
0.184204 0.163177 0.182068
0.191406 0.163177 0.182068
0.199188 0.163177 0.182068
0.207855 0.163177 0.182068
0.217621 0.163177 0.182068
0.228912 0.163177 0.182068
0.242188 0.163177 0.182068
0.258209 0.163177 0.182068
0.278015 0.163177 0.182068
0.302734 0.163177 0.182068
0.333649 0.163177 0.182068
0.371704 0.163177 0.182068
0.417084 0.163177 0.182068
0.469513 0.163177 0.182068
0.527893 0.163177 0.182068
0.589508 0.163177 0.182068
0.647705 0.163177 0.182068
0.700256 0.163177 0.182068
0.746429 0.163177 0.182068
0.786133 0.163177 0.182068
0.820221 0.163177 0.182068
0.849548 0.163177 0.182068
0.874908 0.163177 0.182068
0.897034 0.163177 0.182068
0.916504 0.163177 0.182068
0.933868 0.163177 0.182068
0.949524 0.163177 0.182068
0.963745 0.163177 0.182068
0.976807 0.163177 0.182068
0.988861 0.163177 0.182068
1.000000 0.163177 0.182068
0.177521 0.175720 0.182068
0.184204 0.175720 0.182068
0.191406 0.175720 0.182068
0.199188 0.175720 0.182068
0.207855 0.175720 0.182068
0.217621 0.175720 0.182068
0.228912 0.175720 0.182068
0.242188 0.175720 0.182068
0.258209 0.175720 0.182068
0.278015 0.175720 0.182068
0.302734 0.175720 0.182068
0.333649 0.175720 0.182068
0.371704 0.175720 0.182068
0.417084 0.175720 0.182068
0.469513 0.175720 0.182068
0.527893 0.175720 0.182068
0.589508 0.175720 0.182068
0.647705 0.175720 0.182068
0.700256 0.175720 0.182068
0.746429 0.175720 0.182068
0.786133 0.175720 0.182068
0.820221 0.175720 0.182068
0.849548 0.175720 0.182068
0.874908 0.175720 0.182068
0.897034 0.175720 0.182068
0.916504 0.175720 0.182068
0.933868 0.175720 0.182068
0.949524 0.175720 0.182068
0.963745 0.175720 0.182068
0.976807 0.175720 0.182068
0.988861 0.175720 0.182068
1.000000 0.175720 0.182068
0.177521 0.189453 0.182068
0.184204 0.189453 0.182068
0.191406 0.189453 0.182068
0.199188 0.189453 0.182068
0.207855 0.189453 0.182068
0.217621 0.189453 0.182068
0.228912 0.189453 0.182068
0.242188 0.189453 0.182068
0.258209 0.189453 0.182068
0.278015 0.189453 0.182068
0.302734 0.189453 0.182068
0.333649 0.189453 0.182068
0.371704 0.189453 0.182068
0.417084 0.189453 0.182068
0.469513 0.189453 0.182068
0.527893 0.189453 0.182068
0.589508 0.189453 0.182068
0.647705 0.189453 0.182068
0.700256 0.189453 0.182068
0.746429 0.189453 0.182068
0.786133 0.189453 0.182068
0.820221 0.189453 0.182068
0.849548 0.189453 0.182068
0.874908 0.189453 0.182068
0.897034 0.189453 0.182068
0.916504 0.189453 0.182068
0.933868 0.189453 0.182068
0.949524 0.189453 0.182068
0.963745 0.189453 0.182068
0.976807 0.189453 0.182068
0.988861 0.189453 0.182068
1.000000 0.189453 0.182068
0.177521 0.204681 0.182068
0.184204 0.204681 0.182068
0.191406 0.204681 0.182068
0.199188 0.204681 0.182068
0.207855 0.204681 0.182068
0.217621 0.204681 0.182068
0.228912 0.204681 0.182068
0.242188 0.204681 0.182068
0.258209 0.204681 0.182068
0.278015 0.204681 0.182068
0.302734 0.204681 0.182068
0.333649 0.204681 0.182068
0.371704 0.204681 0.182068
0.417084 0.204681 0.182068
0.469513 0.204681 0.182068
0.527893 0.204681 0.182068
0.589508 0.204681 0.182068
0.647705 0.204681 0.182068
0.700256 0.204681 0.182068
0.746429 0.204681 0.182068
0.786133 0.204681 0.182068
0.820221 0.204681 0.182068
0.849548 0.204681 0.182068
0.874908 0.204681 0.182068
0.897034 0.204681 0.182068
0.916504 0.204681 0.182068
0.933868 0.204681 0.182068
0.949524 0.204681 0.182068
0.963745 0.204681 0.182068
0.976807 0.204681 0.182068
0.988861 0.204681 0.182068
1.000000 0.204681 0.182068
0.177521 0.221710 0.182068
0.184204 0.221710 0.182068
0.191406 0.221710 0.182068
0.199188 0.221710 0.182068
0.207855 0.221710 0.182068
0.217621 0.221710 0.182068
0.228912 0.221710 0.182068
0.242188 0.221710 0.182068
0.258209 0.221710 0.182068
0.278015 0.221710 0.182068
0.302734 0.221710 0.182068
0.333649 0.221710 0.182068
0.371704 0.221710 0.182068
0.417084 0.221710 0.182068
0.469513 0.221710 0.182068
0.527893 0.221710 0.182068
0.589508 0.221710 0.182068
0.647705 0.221710 0.182068
0.700256 0.221710 0.182068
0.746429 0.221710 0.182068
0.786133 0.221710 0.182068
0.820221 0.221710 0.182068
0.849548 0.221710 0.182068
0.874908 0.221710 0.182068
0.897034 0.221710 0.182068
0.916504 0.221710 0.182068
0.933868 0.221710 0.182068
0.949524 0.221710 0.182068
0.963745 0.221710 0.182068
0.976807 0.221710 0.182068
0.988861 0.221710 0.182068
1.000000 0.221710 0.182068
0.177521 0.240936 0.182068
0.184204 0.240936 0.182068
0.191406 0.240936 0.182068
0.199188 0.240936 0.182068
0.207855 0.240936 0.182068
0.217621 0.240936 0.182068
0.228912 0.240936 0.182068
0.242188 0.240936 0.182068
0.258209 0.240936 0.182068
0.278015 0.240936 0.182068
0.302734 0.240936 0.182068
0.333649 0.240936 0.182068
0.371704 0.240936 0.182068
0.417084 0.240936 0.182068
0.469513 0.240936 0.182068
0.527893 0.240936 0.182068
0.589508 0.240936 0.182068
0.647705 0.240936 0.182068
0.700256 0.240936 0.182068
0.746429 0.240936 0.182068
0.786133 0.240936 0.182068
0.820221 0.240936 0.182068
0.849548 0.240936 0.182068
0.874908 0.240936 0.182068
0.897034 0.240936 0.182068
0.916504 0.240936 0.182068
0.933868 0.240936 0.182068
0.949524 0.240936 0.182068
0.963745 0.240936 0.182068
0.976807 0.240936 0.182068
0.988861 0.240936 0.182068
1.000000 0.240936 0.182068
0.177521 0.262970 0.182068
0.184204 0.262970 0.182068
0.191406 0.262970 0.182068
0.199188 0.262970 0.182068
0.207855 0.262970 0.182068
0.217621 0.262970 0.182068
0.228912 0.262970 0.182068
0.242188 0.262970 0.182068
0.258209 0.262970 0.182068
0.278015 0.262970 0.182068
0.302734 0.262970 0.182068
0.333649 0.262970 0.182068
0.371704 0.262970 0.182068
0.417084 0.262970 0.182068
0.469513 0.262970 0.182068
0.527893 0.262970 0.182068
0.589508 0.262970 0.182068
0.647705 0.262970 0.182068
0.700256 0.262970 0.182068
0.746429 0.262970 0.182068
0.786133 0.262970 0.182068
0.820221 0.262970 0.182068
0.849548 0.262970 0.182068
0.874908 0.262970 0.182068
0.897034 0.262970 0.182068
0.916504 0.262970 0.182068
0.933868 0.262970 0.182068
0.949524 0.262970 0.182068
0.963745 0.262970 0.182068
0.976807 0.262970 0.182068
0.988861 0.262970 0.182068
1.000000 0.262970 0.182068
0.177521 0.288483 0.182068
0.184204 0.288483 0.182068
0.191406 0.288483 0.182068
0.199188 0.288483 0.182068
0.207855 0.288483 0.182068
0.217621 0.288483 0.182068
0.228912 0.288483 0.182068
0.242188 0.288483 0.182068
0.258209 0.288483 0.182068
0.278015 0.288483 0.182068
0.302734 0.288483 0.182068
0.333649 0.288483 0.182068
0.371704 0.288483 0.182068
0.417084 0.288483 0.182068
0.469513 0.288483 0.182068
0.527893 0.288483 0.182068
0.589508 0.288483 0.182068
0.647705 0.288483 0.182068
0.700256 0.288483 0.182068
0.746429 0.288483 0.182068
0.786133 0.288483 0.182068
0.820221 0.288483 0.182068
0.849548 0.288483 0.182068
0.874908 0.288483 0.182068
0.897034 0.288483 0.182068
0.916504 0.288483 0.182068
0.933868 0.288483 0.182068
0.949524 0.288483 0.182068
0.963745 0.288483 0.182068
0.976807 0.288483 0.182068
0.988861 0.288483 0.182068
1.000000 0.288483 0.182068
0.177521 0.318207 0.182068
0.184204 0.318207 0.182068
0.191406 0.318207 0.182068
0.199188 0.318207 0.182068
0.207855 0.318207 0.182068
0.217621 0.318207 0.182068
0.228912 0.318207 0.182068
0.242188 0.318207 0.182068
0.258209 0.318207 0.182068
0.278015 0.318207 0.182068
0.302734 0.318207 0.182068
0.333649 0.318207 0.182068
0.371704 0.318207 0.182068
0.417084 0.318207 0.182068
0.469513 0.318207 0.182068
0.527893 0.318207 0.182068
0.589508 0.318207 0.182068
0.647705 0.318207 0.182068
0.700256 0.318207 0.182068
0.746429 0.318207 0.182068
0.786133 0.318207 0.182068
0.820221 0.318207 0.182068
0.849548 0.318207 0.182068
0.874908 0.318207 0.182068
0.897034 0.318207 0.182068
0.916504 0.318207 0.182068
0.933868 0.318207 0.182068
0.949524 0.318207 0.182068
0.963745 0.318207 0.182068
0.976807 0.318207 0.182068
0.988861 0.318207 0.182068
1.000000 0.318207 0.182068
0.177521 0.352783 0.182068
0.184204 0.352783 0.182068
0.191406 0.352783 0.182068
0.199188 0.352783 0.182068
0.207855 0.352783 0.182068
0.217621 0.352783 0.182068
0.228912 0.352783 0.182068
0.242188 0.352783 0.182068
0.258209 0.352783 0.182068
0.278015 0.352783 0.182068
0.302734 0.352783 0.182068
0.333649 0.352783 0.182068
0.371704 0.352783 0.182068
0.417084 0.352783 0.182068
0.469513 0.352783 0.182068
0.527893 0.352783 0.182068
0.589508 0.352783 0.182068
0.647705 0.352783 0.182068
0.700256 0.352783 0.182068
0.746429 0.352783 0.182068
0.786133 0.352783 0.182068
0.820221 0.352783 0.182068
0.849548 0.352783 0.182068
0.874908 0.352783 0.182068
0.897034 0.352783 0.182068
0.916504 0.352783 0.182068
0.933868 0.352783 0.182068
0.949524 0.352783 0.182068
0.963745 0.352783 0.182068
0.976807 0.352783 0.182068
0.988861 0.352783 0.182068
1.000000 0.352783 0.182068
0.177521 0.392242 0.182068
0.184204 0.392242 0.182068
0.191406 0.392242 0.182068
0.199188 0.392242 0.182068
0.207855 0.392242 0.182068
0.217621 0.392242 0.182068
0.228912 0.392242 0.182068
0.242188 0.392242 0.182068
0.258209 0.392242 0.182068
0.278015 0.392242 0.182068
0.302734 0.392242 0.182068
0.333649 0.392242 0.182068
0.371704 0.392242 0.182068
0.417084 0.392242 0.182068
0.469513 0.392242 0.182068
0.527893 0.392242 0.182068
0.589508 0.392242 0.182068
0.647705 0.392242 0.182068
0.700256 0.392242 0.182068
0.746429 0.392242 0.182068
0.786133 0.392242 0.182068
0.820221 0.392242 0.182068
0.849548 0.392242 0.182068
0.874908 0.392242 0.182068
0.897034 0.392242 0.182068
0.916504 0.392242 0.182068
0.933868 0.392242 0.182068
0.949524 0.392242 0.182068
0.963745 0.392242 0.182068
0.976807 0.392242 0.182068
0.988861 0.392242 0.182068
1.000000 0.392242 0.182068
0.177521 0.436096 0.182068
0.184204 0.436096 0.182068
0.191406 0.436096 0.182068
0.199188 0.436096 0.182068
0.207855 0.436096 0.182068
0.217621 0.436096 0.182068
0.228912 0.436096 0.182068
0.242188 0.436096 0.182068
0.258209 0.436096 0.182068
0.278015 0.436096 0.182068
0.302734 0.436096 0.182068
0.333649 0.436096 0.182068
0.371704 0.436096 0.182068
0.417084 0.436096 0.182068
0.469513 0.436096 0.182068
0.527893 0.436096 0.182068
0.589508 0.436096 0.182068
0.647705 0.436096 0.182068
0.700256 0.436096 0.182068
0.746429 0.436096 0.182068
0.786133 0.436096 0.182068
0.820221 0.436096 0.182068
0.849548 0.436096 0.182068
0.874908 0.436096 0.182068
0.897034 0.436096 0.182068
0.916504 0.436096 0.182068
0.933868 0.436096 0.182068
0.949524 0.436096 0.182068
0.963745 0.436096 0.182068
0.976807 0.436096 0.182068
0.988861 0.436096 0.182068
1.000000 0.436096 0.182068
0.177521 0.483734 0.182068
0.184204 0.483734 0.182068
0.191406 0.483734 0.182068
0.199188 0.483734 0.182068
0.207855 0.483734 0.182068
0.217621 0.483734 0.182068
0.228912 0.483734 0.182068
0.242188 0.483734 0.182068
0.258209 0.483734 0.182068
0.278015 0.483734 0.182068
0.302734 0.483734 0.182068
0.333649 0.483734 0.182068
0.371704 0.483734 0.182068
0.417084 0.483734 0.182068
0.469513 0.483734 0.182068
0.527893 0.483734 0.182068
0.589508 0.483734 0.182068
0.647705 0.483734 0.182068
0.700256 0.483734 0.182068
0.746429 0.483734 0.182068
0.786133 0.483734 0.182068
0.820221 0.483734 0.182068
0.849548 0.483734 0.182068
0.874908 0.483734 0.182068
0.897034 0.483734 0.182068
0.916504 0.483734 0.182068
0.933868 0.483734 0.182068
0.949524 0.483734 0.182068
0.963745 0.483734 0.182068
0.976807 0.483734 0.182068
0.988861 0.483734 0.182068
1.000000 0.483734 0.182068
0.177521 0.534271 0.182068
0.184204 0.534271 0.182068
0.191406 0.534271 0.182068
0.199188 0.534271 0.182068
0.207855 0.534271 0.182068
0.217621 0.534271 0.182068
0.228912 0.534271 0.182068
0.242188 0.534271 0.182068
0.258209 0.534271 0.182068
0.278015 0.534271 0.182068
0.302734 0.534271 0.182068
0.333649 0.534271 0.182068
0.371704 0.534271 0.182068
0.417084 0.534271 0.182068
0.469513 0.534271 0.182068
0.527893 0.534271 0.182068
0.589508 0.534271 0.182068
0.647705 0.534271 0.182068
0.700256 0.534271 0.182068
0.746429 0.534271 0.182068
0.786133 0.534271 0.182068
0.820221 0.534271 0.182068
0.849548 0.534271 0.182068
0.874908 0.534271 0.182068
0.897034 0.534271 0.182068
0.916504 0.534271 0.182068
0.933868 0.534271 0.182068
0.949524 0.534271 0.182068
0.963745 0.534271 0.182068
0.976807 0.534271 0.182068
0.988861 0.534271 0.182068
1.000000 0.534271 0.182068
0.177521 0.586029 0.182068
0.184204 0.586029 0.182068
0.191406 0.586029 0.182068
0.199188 0.586029 0.182068
0.207855 0.586029 0.182068
0.217621 0.586029 0.182068
0.228912 0.586029 0.182068
0.242188 0.586029 0.182068
0.258209 0.586029 0.182068
0.278015 0.586029 0.182068
0.302734 0.586029 0.182068
0.333649 0.586029 0.182068
0.371704 0.586029 0.182068
0.417084 0.586029 0.182068
0.469513 0.586029 0.182068
0.527893 0.586029 0.182068
0.589508 0.586029 0.182068
0.647705 0.586029 0.182068
0.700256 0.586029 0.182068
0.746429 0.586029 0.182068
0.786133 0.586029 0.182068
0.820221 0.586029 0.182068
0.849548 0.586029 0.182068
0.874908 0.586029 0.182068
0.897034 0.586029 0.182068
0.916504 0.586029 0.182068
0.933868 0.586029 0.182068
0.949524 0.586029 0.182068
0.963745 0.586029 0.182068
0.976807 0.586029 0.182068
0.988861 0.586029 0.182068
1.000000 0.586029 0.182068
0.177521 0.634766 0.182068
0.184204 0.634766 0.182068
0.191406 0.634766 0.182068
0.199188 0.634766 0.182068
0.207855 0.634766 0.182068
0.217621 0.634766 0.182068
0.228912 0.634766 0.182068
0.242188 0.634766 0.182068
0.258209 0.634766 0.182068
0.278015 0.634766 0.182068
0.302734 0.634766 0.182068
0.333649 0.634766 0.182068
0.371704 0.634766 0.182068
0.417084 0.634766 0.182068
0.469513 0.634766 0.182068
0.527893 0.634766 0.182068
0.589508 0.634766 0.182068
0.647705 0.634766 0.182068
0.700256 0.634766 0.182068
0.746429 0.634766 0.182068
0.786133 0.634766 0.182068
0.820221 0.634766 0.182068
0.849548 0.634766 0.182068
0.874908 0.634766 0.182068
0.897034 0.634766 0.182068
0.916504 0.634766 0.182068
0.933868 0.634766 0.182068
0.949524 0.634766 0.182068
0.963745 0.634766 0.182068
0.976807 0.634766 0.182068
0.988861 0.634766 0.182068
1.000000 0.634766 0.182068
0.177521 0.679749 0.182068
0.184204 0.679749 0.182068
0.191406 0.679749 0.182068
0.199188 0.679749 0.182068
0.207855 0.679749 0.182068
0.217621 0.679749 0.182068
0.228912 0.679749 0.182068
0.242188 0.679749 0.182068
0.258209 0.679749 0.182068
0.278015 0.679749 0.182068
0.302734 0.679749 0.182068
0.333649 0.679749 0.182068
0.371704 0.679749 0.182068
0.417084 0.679749 0.182068
0.469513 0.679749 0.182068
0.527893 0.679749 0.182068
0.589508 0.679749 0.182068
0.647705 0.679749 0.182068
0.700256 0.679749 0.182068
0.746429 0.679749 0.182068
0.786133 0.679749 0.182068
0.820221 0.679749 0.182068
0.849548 0.679749 0.182068
0.874908 0.679749 0.182068
0.897034 0.679749 0.182068
0.916504 0.679749 0.182068
0.933868 0.679749 0.182068
0.949524 0.679749 0.182068
0.963745 0.679749 0.182068
0.976807 0.679749 0.182068
0.988861 0.679749 0.182068
1.000000 0.679749 0.182068
0.177521 0.720642 0.182068
0.184204 0.720642 0.182068
0.191406 0.720642 0.182068
0.199188 0.720642 0.182068
0.207855 0.720642 0.182068
0.217621 0.720642 0.182068
0.228912 0.720642 0.182068
0.242188 0.720642 0.182068
0.258209 0.720642 0.182068
0.278015 0.720642 0.182068
0.302734 0.720642 0.182068
0.333649 0.720642 0.182068
0.371704 0.720642 0.182068
0.417084 0.720642 0.182068
0.469513 0.720642 0.182068
0.527893 0.720642 0.182068
0.589508 0.720642 0.182068
0.647705 0.720642 0.182068
0.700256 0.720642 0.182068
0.746429 0.720642 0.182068
0.786133 0.720642 0.182068
0.820221 0.720642 0.182068
0.849548 0.720642 0.182068
0.874908 0.720642 0.182068
0.897034 0.720642 0.182068
0.916504 0.720642 0.182068
0.933868 0.720642 0.182068
0.949524 0.720642 0.182068
0.963745 0.720642 0.182068
0.976807 0.720642 0.182068
0.988861 0.720642 0.182068
1.000000 0.720642 0.182068
0.177521 0.757538 0.182068
0.184204 0.757538 0.182068
0.191406 0.757538 0.182068
0.199188 0.757538 0.182068
0.207855 0.757538 0.182068
0.217621 0.757538 0.182068
0.228912 0.757538 0.182068
0.242188 0.757538 0.182068
0.258209 0.757538 0.182068
0.278015 0.757538 0.182068
0.302734 0.757538 0.182068
0.333649 0.757538 0.182068
0.371704 0.757538 0.182068
0.417084 0.757538 0.182068
0.469513 0.757538 0.182068
0.527893 0.757538 0.182068
0.589508 0.757538 0.182068
0.647705 0.757538 0.182068
0.700256 0.757538 0.182068
0.746429 0.757538 0.182068
0.786133 0.757538 0.182068
0.820221 0.757538 0.182068
0.849548 0.757538 0.182068
0.874908 0.757538 0.182068
0.897034 0.757538 0.182068
0.916504 0.757538 0.182068
0.933868 0.757538 0.182068
0.949524 0.757538 0.182068
0.963745 0.757538 0.182068
0.976807 0.757538 0.182068
0.988861 0.757538 0.182068
1.000000 0.757538 0.182068
0.177521 0.790588 0.182068
0.184204 0.790588 0.182068
0.191406 0.790588 0.182068
0.199188 0.790588 0.182068
0.207855 0.790588 0.182068
0.217621 0.790588 0.182068
0.228912 0.790588 0.182068
0.242188 0.790588 0.182068
0.258209 0.790588 0.182068
0.278015 0.790588 0.182068
0.302734 0.790588 0.182068
0.333649 0.790588 0.182068
0.371704 0.790588 0.182068
0.417084 0.790588 0.182068
0.469513 0.790588 0.182068
0.527893 0.790588 0.182068
0.589508 0.790588 0.182068
0.647705 0.790588 0.182068
0.700256 0.790588 0.182068
0.746429 0.790588 0.182068
0.786133 0.790588 0.182068
0.820221 0.790588 0.182068
0.849548 0.790588 0.182068
0.874908 0.790588 0.182068
0.897034 0.790588 0.182068
0.916504 0.790588 0.182068
0.933868 0.790588 0.182068
0.949524 0.790588 0.182068
0.963745 0.790588 0.182068
0.976807 0.790588 0.182068
0.988861 0.790588 0.182068
1.000000 0.790588 0.182068
0.177521 0.820435 0.182068
0.184204 0.820435 0.182068
0.191406 0.820435 0.182068
0.199188 0.820435 0.182068
0.207855 0.820435 0.182068
0.217621 0.820435 0.182068
0.228912 0.820435 0.182068
0.242188 0.820435 0.182068
0.258209 0.820435 0.182068
0.278015 0.820435 0.182068
0.302734 0.820435 0.182068
0.333649 0.820435 0.182068
0.371704 0.820435 0.182068
0.417084 0.820435 0.182068
0.469513 0.820435 0.182068
0.527893 0.820435 0.182068
0.589508 0.820435 0.182068
0.647705 0.820435 0.182068
0.700256 0.820435 0.182068
0.746429 0.820435 0.182068
0.786133 0.820435 0.182068
0.820221 0.820435 0.182068
0.849548 0.820435 0.182068
0.874908 0.820435 0.182068
0.897034 0.820435 0.182068
0.916504 0.820435 0.182068
0.933868 0.820435 0.182068
0.949524 0.820435 0.182068
0.963745 0.820435 0.182068
0.976807 0.820435 0.182068
0.988861 0.820435 0.182068
1.000000 0.820435 0.182068
0.177521 0.847595 0.182068
0.184204 0.847595 0.182068
0.191406 0.847595 0.182068
0.199188 0.847595 0.182068
0.207855 0.847595 0.182068
0.217621 0.847595 0.182068
0.228912 0.847595 0.182068
0.242188 0.847595 0.182068
0.258209 0.847595 0.182068
0.278015 0.847595 0.182068
0.302734 0.847595 0.182068
0.333649 0.847595 0.182068
0.371704 0.847595 0.182068
0.417084 0.847595 0.182068
0.469513 0.847595 0.182068
0.527893 0.847595 0.182068
0.589508 0.847595 0.182068
0.647705 0.847595 0.182068
0.700256 0.847595 0.182068
0.746429 0.847595 0.182068
0.786133 0.847595 0.182068
0.820221 0.847595 0.182068
0.849548 0.847595 0.182068
0.874908 0.847595 0.182068
0.897034 0.847595 0.182068
0.916504 0.847595 0.182068
0.933868 0.847595 0.182068
0.949524 0.847595 0.182068
0.963745 0.847595 0.182068
0.976807 0.847595 0.182068
0.988861 0.847595 0.182068
1.000000 0.847595 0.182068
0.177521 0.872528 0.182068
0.184204 0.872528 0.182068
0.191406 0.872528 0.182068
0.199188 0.872528 0.182068
0.207855 0.872528 0.182068
0.217621 0.872528 0.182068
0.228912 0.872528 0.182068
0.242188 0.872528 0.182068
0.258209 0.872528 0.182068
0.278015 0.872528 0.182068
0.302734 0.872528 0.182068
0.333649 0.872528 0.182068
0.371704 0.872528 0.182068
0.417084 0.872528 0.182068
0.469513 0.872528 0.182068
0.527893 0.872528 0.182068
0.589508 0.872528 0.182068
0.647705 0.872528 0.182068
0.700256 0.872528 0.182068
0.746429 0.872528 0.182068
0.786133 0.872528 0.182068
0.820221 0.872528 0.182068
0.849548 0.872528 0.182068
0.874908 0.872528 0.182068
0.897034 0.872528 0.182068
0.916504 0.872528 0.182068
0.933868 0.872528 0.182068
0.949524 0.872528 0.182068
0.963745 0.872528 0.182068
0.976807 0.872528 0.182068
0.988861 0.872528 0.182068
1.000000 0.872528 0.182068
0.177521 0.895416 0.182068
0.184204 0.895416 0.182068
0.191406 0.895416 0.182068
0.199188 0.895416 0.182068
0.207855 0.895416 0.182068
0.217621 0.895416 0.182068
0.228912 0.895416 0.182068
0.242188 0.895416 0.182068
0.258209 0.895416 0.182068
0.278015 0.895416 0.182068
0.302734 0.895416 0.182068
0.333649 0.895416 0.182068
0.371704 0.895416 0.182068
0.417084 0.895416 0.182068
0.469513 0.895416 0.182068
0.527893 0.895416 0.182068
0.589508 0.895416 0.182068
0.647705 0.895416 0.182068
0.700256 0.895416 0.182068
0.746429 0.895416 0.182068
0.786133 0.895416 0.182068
0.820221 0.895416 0.182068
0.849548 0.895416 0.182068
0.874908 0.895416 0.182068
0.897034 0.895416 0.182068
0.916504 0.895416 0.182068
0.933868 0.895416 0.182068
0.949524 0.895416 0.182068
0.963745 0.895416 0.182068
0.976807 0.895416 0.182068
0.988861 0.895416 0.182068
1.000000 0.895416 0.182068
0.177521 0.916504 0.182068
0.184204 0.916504 0.182068
0.191406 0.916504 0.182068
0.199188 0.916504 0.182068
0.207855 0.916504 0.182068
0.217621 0.916504 0.182068
0.228912 0.916504 0.182068
0.242188 0.916504 0.182068
0.258209 0.916504 0.182068
0.278015 0.916504 0.182068
0.302734 0.916504 0.182068
0.333649 0.916504 0.182068
0.371704 0.916504 0.182068
0.417084 0.916504 0.182068
0.469513 0.916504 0.182068
0.527893 0.916504 0.182068
0.589508 0.916504 0.182068
0.647705 0.916504 0.182068
0.700256 0.916504 0.182068
0.746429 0.916504 0.182068
0.786133 0.916504 0.182068
0.820221 0.916504 0.182068
0.849548 0.916504 0.182068
0.874908 0.916504 0.182068
0.897034 0.916504 0.182068
0.916504 0.916504 0.182068
0.933868 0.916504 0.182068
0.949524 0.916504 0.182068
0.963745 0.916504 0.182068
0.976807 0.916504 0.182068
0.988861 0.916504 0.182068
1.000000 0.916504 0.182068
0.177521 0.936005 0.182068
0.184204 0.936005 0.182068
0.191406 0.936005 0.182068
0.199188 0.936005 0.182068
0.207855 0.936005 0.182068
0.217621 0.936005 0.182068
0.228912 0.936005 0.182068
0.242188 0.936005 0.182068
0.258209 0.936005 0.182068
0.278015 0.936005 0.182068
0.302734 0.936005 0.182068
0.333649 0.936005 0.182068
0.371704 0.936005 0.182068
0.417084 0.936005 0.182068
0.469513 0.936005 0.182068
0.527893 0.936005 0.182068
0.589508 0.936005 0.182068
