Game/Assets/LUTs/purple11-free-luts-pack/Once upon a time.CUBE
#Created by: Adobe Photoshop Export Color Lookup Plugin
#Copyright: (C) Copyright 2019 Purple11
TITLE "Once upon a time"
#LUT size
LUT_3D_SIZE 32
#data domain
DOMAIN_MIN 0.0 0.0 0.0
DOMAIN_MAX 1.0 1.0 1.0
#LUT data points
0.000000 0.000000 0.027252
0.024597 0.000000 0.027252
0.050201 0.000000 0.027252
0.076965 0.000000 0.027252
0.104950 0.000000 0.027252
0.134094 0.000000 0.027252
0.164642 0.000000 0.027252
0.196442 0.000000 0.027252
0.229645 0.000000 0.027252
0.264191 0.000000 0.027252
0.300049 0.000000 0.027252
0.337250 0.000000 0.027252
0.375641 0.000000 0.027252
0.415466 0.000000 0.027252
0.456512 0.000000 0.027252
0.498932 0.000000 0.027252
0.542450 0.000000 0.027252
0.585327 0.000000 0.027252
0.626953 0.000000 0.027252
0.666901 0.000000 0.027252
0.704987 0.000000 0.027252
0.740814 0.000000 0.027252
0.774384 0.000000 0.027252
0.805756 0.000000 0.027252
0.834991 0.000000 0.027252
0.862457 0.000000 0.027252
0.888306 0.000000 0.027252
0.912842 0.000000 0.027252
0.936096 0.000000 0.027252
0.958313 0.000000 0.027252
0.979553 0.000000 0.027252
1.000000 0.000000 0.027252
0.000000 0.019714 0.027252
0.024597 0.019714 0.027252
0.050201 0.019714 0.027252
0.076965 0.019714 0.027252
0.104950 0.019714 0.027252
0.134094 0.019714 0.027252
0.164642 0.019714 0.027252
0.196442 0.019714 0.027252
0.229645 0.019714 0.027252
0.264191 0.019714 0.027252
0.300049 0.019714 0.027252
0.337250 0.019714 0.027252
0.375641 0.019714 0.027252
0.415466 0.019714 0.027252
0.456512 0.019714 0.027252
0.498932 0.019714 0.027252
0.542450 0.019714 0.027252
0.585327 0.019714 0.027252
0.626953 0.019714 0.027252
0.666901 0.019714 0.027252
0.704987 0.019714 0.027252
0.740814 0.019714 0.027252
0.774384 0.019714 0.027252
0.805756 0.019714 0.027252
0.834991 0.019714 0.027252
0.862457 0.019714 0.027252
0.888306 0.019714 0.027252
0.912842 0.019714 0.027252
0.936096 0.019714 0.027252
0.958313 0.019714 0.027252
0.979553 0.019714 0.027252
1.000000 0.019714 0.027252
0.000000 0.040161 0.027252
0.024597 0.040161 0.027252
0.050201 0.040161 0.027252
0.076965 0.040161 0.027252
0.104950 0.040161 0.027252
0.134094 0.040161 0.027252
0.164642 0.040161 0.027252
0.196442 0.040161 0.027252
0.229645 0.040161 0.027252
0.264191 0.040161 0.027252
0.300049 0.040161 0.027252
0.337250 0.040161 0.027252
0.375641 0.040161 0.027252
0.415466 0.040161 0.027252
0.456512 0.040161 0.027252
0.498932 0.040161 0.027252
0.542450 0.040161 0.027252
0.585327 0.040161 0.027252
0.626953 0.040161 0.027252
0.666901 0.040161 0.027252
0.704987 0.040161 0.027252
0.740814 0.040161 0.027252
0.774384 0.040161 0.027252
0.805756 0.040161 0.027252
0.834991 0.040161 0.027252
0.862457 0.040161 0.027252
0.888306 0.040161 0.027252
0.912842 0.040161 0.027252
0.936096 0.040161 0.027252
0.958313 0.040161 0.027252
0.979553 0.040161 0.027252
1.000000 0.040161 0.027252
0.000000 0.061646 0.027252
0.024597 0.061646 0.027252
0.050201 0.061646 0.027252
0.076965 0.061646 0.027252
0.104950 0.061646 0.027252
0.134094 0.061646 0.027252
0.164642 0.061646 0.027252
0.196442 0.061646 0.027252
0.229645 0.061646 0.027252
0.264191 0.061646 0.027252
0.300049 0.061646 0.027252
0.337250 0.061646 0.027252
0.375641 0.061646 0.027252
0.415466 0.061646 0.027252
0.456512 0.061646 0.027252
0.498932 0.061646 0.027252
0.542450 0.061646 0.027252
0.585327 0.061646 0.027252
0.626953 0.061646 0.027252
0.666901 0.061646 0.027252
0.704987 0.061646 0.027252
0.740814 0.061646 0.027252
0.774384 0.061646 0.027252
0.805756 0.061646 0.027252
0.834991 0.061646 0.027252
0.862457 0.061646 0.027252
0.888306 0.061646 0.027252
0.912842 0.061646 0.027252
0.936096 0.061646 0.027252
0.958313 0.061646 0.027252
0.979553 0.061646 0.027252
1.000000 0.061646 0.027252
0.000000 0.084351 0.027252
0.024597 0.084351 0.027252
0.050201 0.084351 0.027252
0.076965 0.084351 0.027252
0.104950 0.084351 0.027252
0.134094 0.084351 0.027252
0.164642 0.084351 0.027252
0.196442 0.084351 0.027252
0.229645 0.084351 0.027252
0.264191 0.084351 0.027252
0.300049 0.084351 0.027252
0.337250 0.084351 0.027252
0.375641 0.084351 0.027252
0.415466 0.084351 0.027252
0.456512 0.084351 0.027252
0.498932 0.084351 0.027252
0.542450 0.084351 0.027252
0.585327 0.084351 0.027252
0.626953 0.084351 0.027252
0.666901 0.084351 0.027252
0.704987 0.084351 0.027252
0.740814 0.084351 0.027252
0.774384 0.084351 0.027252
0.805756 0.084351 0.027252
0.834991 0.084351 0.027252
0.862457 0.084351 0.027252
0.888306 0.084351 0.027252
0.912842 0.084351 0.027252
0.936096 0.084351 0.027252
0.958313 0.084351 0.027252
0.979553 0.084351 0.027252
1.000000 0.084351 0.027252
0.000000 0.108490 0.027252
0.024597 0.108490 0.027252
0.050201 0.108490 0.027252
0.076965 0.108490 0.027252
0.104950 0.108490 0.027252
0.134094 0.108490 0.027252
0.164642 0.108490 0.027252
0.196442 0.108490 0.027252
0.229645 0.108490 0.027252
0.264191 0.108490 0.027252
0.300049 0.108490 0.027252
0.337250 0.108490 0.027252
0.375641 0.108490 0.027252
0.415466 0.108490 0.027252
0.456512 0.108490 0.027252
0.498932 0.108490 0.027252
0.542450 0.108490 0.027252
0.585327 0.108490 0.027252
0.626953 0.108490 0.027252
0.666901 0.108490 0.027252
0.704987 0.108490 0.027252
0.740814 0.108490 0.027252
0.774384 0.108490 0.027252
0.805756 0.108490 0.027252
0.834991 0.108490 0.027252
0.862457 0.108490 0.027252
0.888306 0.108490 0.027252
0.912842 0.108490 0.027252
0.936096 0.108490 0.027252
0.958313 0.108490 0.027252
0.979553 0.108490 0.027252
1.000000 0.108490 0.027252
0.000000 0.134491 0.027252
0.024597 0.134491 0.027252
0.050201 0.134491 0.027252
0.076965 0.134491 0.027252
0.104950 0.134491 0.027252
0.134094 0.134491 0.027252
0.164642 0.134491 0.027252
0.196442 0.134491 0.027252
0.229645 0.134491 0.027252
0.264191 0.134491 0.027252
0.300049 0.134491 0.027252
0.337250 0.134491 0.027252
0.375641 0.134491 0.027252
0.415466 0.134491 0.027252
0.456512 0.134491 0.027252
0.498932 0.134491 0.027252
0.542450 0.134491 0.027252
0.585327 0.134491 0.027252
0.626953 0.134491 0.027252
0.666901 0.134491 0.027252
0.704987 0.134491 0.027252
0.740814 0.134491 0.027252
0.774384 0.134491 0.027252
0.805756 0.134491 0.027252
0.834991 0.134491 0.027252
0.862457 0.134491 0.027252
0.888306 0.134491 0.027252
0.912842 0.134491 0.027252
0.936096 0.134491 0.027252
0.958313 0.134491 0.027252
0.979553 0.134491 0.027252
1.000000 0.134491 0.027252
0.000000 0.162537 0.027252
0.024597 0.162537 0.027252
0.050201 0.162537 0.027252
0.076965 0.162537 0.027252
0.104950 0.162537 0.027252
0.134094 0.162537 0.027252
0.164642 0.162537 0.027252
0.196442 0.162537 0.027252
0.229645 0.162537 0.027252
0.264191 0.162537 0.027252
0.300049 0.162537 0.027252
0.337250 0.162537 0.027252
0.375641 0.162537 0.027252
0.415466 0.162537 0.027252
0.456512 0.162537 0.027252
0.498932 0.162537 0.027252
0.542450 0.162537 0.027252
0.585327 0.162537 0.027252
0.626953 0.162537 0.027252
0.666901 0.162537 0.027252
0.704987 0.162537 0.027252
0.740814 0.162537 0.027252
0.774384 0.162537 0.027252
0.805756 0.162537 0.027252
0.834991 0.162537 0.027252
0.862457 0.162537 0.027252
0.888306 0.162537 0.027252
0.912842 0.162537 0.027252
0.936096 0.162537 0.027252
0.958313 0.162537 0.027252
0.979553 0.162537 0.027252
1.000000 0.162537 0.027252
0.000000 0.193268 0.027252
0.024597 0.193268 0.027252
0.050201 0.193268 0.027252
0.076965 0.193268 0.027252
0.104950 0.193268 0.027252
0.134094 0.193268 0.027252
0.164642 0.193268 0.027252
0.196442 0.193268 0.027252
0.229645 0.193268 0.027252
0.264191 0.193268 0.027252
0.300049 0.193268 0.027252
0.337250 0.193268 0.027252
0.375641 0.193268 0.027252
0.415466 0.193268 0.027252
0.456512 0.193268 0.027252
0.498932 0.193268 0.027252
0.542450 0.193268 0.027252
0.585327 0.193268 0.027252
0.626953 0.193268 0.027252
0.666901 0.193268 0.027252
0.704987 0.193268 0.027252
0.740814 0.193268 0.027252
0.774384 0.193268 0.027252
0.805756 0.193268 0.027252
0.834991 0.193268 0.027252
0.862457 0.193268 0.027252
0.888306 0.193268 0.027252
0.912842 0.193268 0.027252
0.936096 0.193268 0.027252
0.958313 0.193268 0.027252
0.979553 0.193268 0.027252
1.000000 0.193268 0.027252
0.000000 0.227020 0.027252
0.024597 0.227020 0.027252
0.050201 0.227020 0.027252
0.076965 0.227020 0.027252
0.104950 0.227020 0.027252
0.134094 0.227020 0.027252
0.164642 0.227020 0.027252
0.196442 0.227020 0.027252
0.229645 0.227020 0.027252
0.264191 0.227020 0.027252
0.300049 0.227020 0.027252
0.337250 0.227020 0.027252
0.375641 0.227020 0.027252
0.415466 0.227020 0.027252
0.456512 0.227020 0.027252
0.498932 0.227020 0.027252
0.542450 0.227020 0.027252
0.585327 0.227020 0.027252
0.626953 0.227020 0.027252
0.666901 0.227020 0.027252
0.704987 0.227020 0.027252
0.740814 0.227020 0.027252
0.774384 0.227020 0.027252
0.805756 0.227020 0.027252
0.834991 0.227020 0.027252
0.862457 0.227020 0.027252
0.888306 0.227020 0.027252
0.912842 0.227020 0.027252
0.936096 0.227020 0.027252
0.958313 0.227020 0.027252
0.979553 0.227020 0.027252
1.000000 0.227020 0.027252
0.000000 0.264160 0.027252
0.024597 0.264160 0.027252
0.050201 0.264160 0.027252
0.076965 0.264160 0.027252
0.104950 0.264160 0.027252
0.134094 0.264160 0.027252
0.164642 0.264160 0.027252
0.196442 0.264160 0.027252
0.229645 0.264160 0.027252
0.264191 0.264160 0.027252
0.300049 0.264160 0.027252
0.337250 0.264160 0.027252
0.375641 0.264160 0.027252
0.415466 0.264160 0.027252
0.456512 0.264160 0.027252
0.498932 0.264160 0.027252
0.542450 0.264160 0.027252
0.585327 0.264160 0.027252
0.626953 0.264160 0.027252
0.666901 0.264160 0.027252
0.704987 0.264160 0.027252
0.740814 0.264160 0.027252
0.774384 0.264160 0.027252
0.805756 0.264160 0.027252
0.834991 0.264160 0.027252
0.862457 0.264160 0.027252
0.888306 0.264160 0.027252
0.912842 0.264160 0.027252
0.936096 0.264160 0.027252
0.958313 0.264160 0.027252
0.979553 0.264160 0.027252
1.000000 0.264160 0.027252
0.000000 0.304626 0.027252
0.024597 0.304626 0.027252
0.050201 0.304626 0.027252
0.076965 0.304626 0.027252
0.104950 0.304626 0.027252
0.134094 0.304626 0.027252
0.164642 0.304626 0.027252
0.196442 0.304626 0.027252
0.229645 0.304626 0.027252
0.264191 0.304626 0.027252
0.300049 0.304626 0.027252
0.337250 0.304626 0.027252
0.375641 0.304626 0.027252
0.415466 0.304626 0.027252
0.456512 0.304626 0.027252
0.498932 0.304626 0.027252
0.542450 0.304626 0.027252
0.585327 0.304626 0.027252
0.626953 0.304626 0.027252
0.666901 0.304626 0.027252
0.704987 0.304626 0.027252
0.740814 0.304626 0.027252
0.774384 0.304626 0.027252
0.805756 0.304626 0.027252
0.834991 0.304626 0.027252
0.862457 0.304626 0.027252
0.888306 0.304626 0.027252
0.912842 0.304626 0.027252
0.936096 0.304626 0.027252
0.958313 0.304626 0.027252
0.979553 0.304626 0.027252
1.000000 0.304626 0.027252
0.000000 0.348297 0.027252
0.024597 0.348297 0.027252
0.050201 0.348297 0.027252
0.076965 0.348297 0.027252
0.104950 0.348297 0.027252
0.134094 0.348297 0.027252
0.164642 0.348297 0.027252
0.196442 0.348297 0.027252
0.229645 0.348297 0.027252
0.264191 0.348297 0.027252
0.300049 0.348297 0.027252
0.337250 0.348297 0.027252
0.375641 0.348297 0.027252
0.415466 0.348297 0.027252
0.456512 0.348297 0.027252
0.498932 0.348297 0.027252
0.542450 0.348297 0.027252
0.585327 0.348297 0.027252
0.626953 0.348297 0.027252
0.666901 0.348297 0.027252
0.704987 0.348297 0.027252
0.740814 0.348297 0.027252
0.774384 0.348297 0.027252
0.805756 0.348297 0.027252
0.834991 0.348297 0.027252
0.862457 0.348297 0.027252
0.888306 0.348297 0.027252
0.912842 0.348297 0.027252
0.936096 0.348297 0.027252
0.958313 0.348297 0.027252
0.979553 0.348297 0.027252
1.000000 0.348297 0.027252
0.000000 0.394714 0.027252
0.024597 0.394714 0.027252
0.050201 0.394714 0.027252
0.076965 0.394714 0.027252
0.104950 0.394714 0.027252
0.134094 0.394714 0.027252
0.164642 0.394714 0.027252
0.196442 0.394714 0.027252
0.229645 0.394714 0.027252
0.264191 0.394714 0.027252
0.300049 0.394714 0.027252
0.337250 0.394714 0.027252
0.375641 0.394714 0.027252
0.415466 0.394714 0.027252
0.456512 0.394714 0.027252
0.498932 0.394714 0.027252
0.542450 0.394714 0.027252
0.585327 0.394714 0.027252
0.626953 0.394714 0.027252
0.666901 0.394714 0.027252
0.704987 0.394714 0.027252
0.740814 0.394714 0.027252
0.774384 0.394714 0.027252
0.805756 0.394714 0.027252
0.834991 0.394714 0.027252
0.862457 0.394714 0.027252
0.888306 0.394714 0.027252
0.912842 0.394714 0.027252
0.936096 0.394714 0.027252
0.958313 0.394714 0.027252
0.979553 0.394714 0.027252
1.000000 0.394714 0.027252
0.000000 0.443390 0.027252
0.024597 0.443390 0.027252
0.050201 0.443390 0.027252
0.076965 0.443390 0.027252
0.104950 0.443390 0.027252
0.134094 0.443390 0.027252
0.164642 0.443390 0.027252
0.196442 0.443390 0.027252
0.229645 0.443390 0.027252
0.264191 0.443390 0.027252
0.300049 0.443390 0.027252
0.337250 0.443390 0.027252
0.375641 0.443390 0.027252
0.415466 0.443390 0.027252
0.456512 0.443390 0.027252
0.498932 0.443390 0.027252
0.542450 0.443390 0.027252
0.585327 0.443390 0.027252
0.626953 0.443390 0.027252
0.666901 0.443390 0.027252
0.704987 0.443390 0.027252
0.740814 0.443390 0.027252
0.774384 0.443390 0.027252
0.805756 0.443390 0.027252
0.834991 0.443390 0.027252
0.862457 0.443390 0.027252
0.888306 0.443390 0.027252
0.912842 0.443390 0.027252
0.936096 0.443390 0.027252
0.958313 0.443390 0.027252
0.979553 0.443390 0.027252
1.000000 0.443390 0.027252
0.000000 0.493652 0.027252
0.024597 0.493652 0.027252
0.050201 0.493652 0.027252
0.076965 0.493652 0.027252
0.104950 0.493652 0.027252
0.134094 0.493652 0.027252
0.164642 0.493652 0.027252
0.196442 0.493652 0.027252
0.229645 0.493652 0.027252
0.264191 0.493652 0.027252
0.300049 0.493652 0.027252
0.337250 0.493652 0.027252
0.375641 0.493652 0.027252
0.415466 0.493652 0.027252
0.456512 0.493652 0.027252
0.498932 0.493652 0.027252
0.542450 0.493652 0.027252
0.585327 0.493652 0.027252
0.626953 0.493652 0.027252
0.666901 0.493652 0.027252
0.704987 0.493652 0.027252
0.740814 0.493652 0.027252
0.774384 0.493652 0.027252
0.805756 0.493652 0.027252
0.834991 0.493652 0.027252
0.862457 0.493652 0.027252
0.888306 0.493652 0.027252
0.912842 0.493652 0.027252
0.936096 0.493652 0.027252
0.958313 0.493652 0.027252
0.979553 0.493652 0.027252
1.000000 0.493652 0.027252
0.000000 0.544617 0.027252
0.024597 0.544617 0.027252
0.050201 0.544617 0.027252
0.076965 0.544617 0.027252
0.104950 0.544617 0.027252
0.134094 0.544617 0.027252
0.164642 0.544617 0.027252
0.196442 0.544617 0.027252
0.229645 0.544617 0.027252
0.264191 0.544617 0.027252
0.300049 0.544617 0.027252
0.337250 0.544617 0.027252
0.375641 0.544617 0.027252
0.415466 0.544617 0.027252
0.456512 0.544617 0.027252
0.498932 0.544617 0.027252
0.542450 0.544617 0.027252
0.585327 0.544617 0.027252
0.626953 0.544617 0.027252
0.666901 0.544617 0.027252
0.704987 0.544617 0.027252
0.740814 0.544617 0.027252
0.774384 0.544617 0.027252
0.805756 0.544617 0.027252
0.834991 0.544617 0.027252
0.862457 0.544617 0.027252
0.888306 0.544617 0.027252
0.912842 0.544617 0.027252
0.936096 0.544617 0.027252
0.958313 0.544617 0.027252
0.979553 0.544617 0.027252
1.000000 0.544617 0.027252
0.000000 0.593597 0.027252
0.024597 0.593597 0.027252
0.050201 0.593597 0.027252
0.076965 0.593597 0.027252
0.104950 0.593597 0.027252
0.134094 0.593597 0.027252
0.164642 0.593597 0.027252
0.196442 0.593597 0.027252
0.229645 0.593597 0.027252
0.264191 0.593597 0.027252
0.300049 0.593597 0.027252
0.337250 0.593597 0.027252
0.375641 0.593597 0.027252
0.415466 0.593597 0.027252
0.456512 0.593597 0.027252
0.498932 0.593597 0.027252
0.542450 0.593597 0.027252
0.585327 0.593597 0.027252
0.626953 0.593597 0.027252
0.666901 0.593597 0.027252
0.704987 0.593597 0.027252
0.740814 0.593597 0.027252
0.774384 0.593597 0.027252
0.805756 0.593597 0.027252
0.834991 0.593597 0.027252
0.862457 0.593597 0.027252
0.888306 0.593597 0.027252
0.912842 0.593597 0.027252
0.936096 0.593597 0.027252
0.958313 0.593597 0.027252
0.979553 0.593597 0.027252
1.000000 0.593597 0.027252
0.000000 0.639862 0.027252
0.024597 0.639862 0.027252
0.050201 0.639862 0.027252
0.076965 0.639862 0.027252
0.104950 0.639862 0.027252
0.134094 0.639862 0.027252
0.164642 0.639862 0.027252
0.196442 0.639862 0.027252
0.229645 0.639862 0.027252
0.264191 0.639862 0.027252
0.300049 0.639862 0.027252
0.337250 0.639862 0.027252
0.375641 0.639862 0.027252
0.415466 0.639862 0.027252
0.456512 0.639862 0.027252
0.498932 0.639862 0.027252
0.542450 0.639862 0.027252
0.585327 0.639862 0.027252
0.626953 0.639862 0.027252
0.666901 0.639862 0.027252
0.704987 0.639862 0.027252
0.740814 0.639862 0.027252
0.774384 0.639862 0.027252
0.805756 0.639862 0.027252
0.834991 0.639862 0.027252
0.862457 0.639862 0.027252
0.888306 0.639862 0.027252
0.912842 0.639862 0.027252
0.936096 0.639862 0.027252
0.958313 0.639862 0.027252
0.979553 0.639862 0.027252
1.000000 0.639862 0.027252
0.000000 0.683075 0.027252
0.024597 0.683075 0.027252
0.050201 0.683075 0.027252
0.076965 0.683075 0.027252
0.104950 0.683075 0.027252
0.134094 0.683075 0.027252
0.164642 0.683075 0.027252
0.196442 0.683075 0.027252
0.229645 0.683075 0.027252
0.264191 0.683075 0.027252
0.300049 0.683075 0.027252
0.337250 0.683075 0.027252
0.375641 0.683075 0.027252
0.415466 0.683075 0.027252
0.456512 0.683075 0.027252
0.498932 0.683075 0.027252
0.542450 0.683075 0.027252
0.585327 0.683075 0.027252
0.626953 0.683075 0.027252
0.666901 0.683075 0.027252
0.704987 0.683075 0.027252
0.740814 0.683075 0.027252
0.774384 0.683075 0.027252
0.805756 0.683075 0.027252
0.834991 0.683075 0.027252
0.862457 0.683075 0.027252
0.888306 0.683075 0.027252
0.912842 0.683075 0.027252
0.936096 0.683075 0.027252
0.958313 0.683075 0.027252
0.979553 0.683075 0.027252
1.000000 0.683075 0.027252
0.000000 0.723114 0.027252
0.024597 0.723114 0.027252
0.050201 0.723114 0.027252
0.076965 0.723114 0.027252
0.104950 0.723114 0.027252
0.134094 0.723114 0.027252
0.164642 0.723114 0.027252
0.196442 0.723114 0.027252
0.229645 0.723114 0.027252
0.264191 0.723114 0.027252
0.300049 0.723114 0.027252
0.337250 0.723114 0.027252
0.375641 0.723114 0.027252
0.415466 0.723114 0.027252
0.456512 0.723114 0.027252
0.498932 0.723114 0.027252
0.542450 0.723114 0.027252
0.585327 0.723114 0.027252
0.626953 0.723114 0.027252
0.666901 0.723114 0.027252
0.704987 0.723114 0.027252
0.740814 0.723114 0.027252
0.774384 0.723114 0.027252
0.805756 0.723114 0.027252
0.834991 0.723114 0.027252
0.862457 0.723114 0.027252
0.888306 0.723114 0.027252
0.912842 0.723114 0.027252
0.936096 0.723114 0.027252
0.958313 0.723114 0.027252
0.979553 0.723114 0.027252
1.000000 0.723114 0.027252
0.000000 0.759735 0.027252
0.024597 0.759735 0.027252
0.050201 0.759735 0.027252
0.076965 0.759735 0.027252
0.104950 0.759735 0.027252
0.134094 0.759735 0.027252
0.164642 0.759735 0.027252
0.196442 0.759735 0.027252
0.229645 0.759735 0.027252
0.264191 0.759735 0.027252
0.300049 0.759735 0.027252
0.337250 0.759735 0.027252
0.375641 0.759735 0.027252
0.415466 0.759735 0.027252
0.456512 0.759735 0.027252
0.498932 0.759735 0.027252
0.542450 0.759735 0.027252
0.585327 0.759735 0.027252
0.626953 0.759735 0.027252
0.666901 0.759735 0.027252
0.704987 0.759735 0.027252
0.740814 0.759735 0.027252
0.774384 0.759735 0.027252
0.805756 0.759735 0.027252
0.834991 0.759735 0.027252
0.862457 0.759735 0.027252
0.888306 0.759735 0.027252
0.912842 0.759735 0.027252
0.936096 0.759735 0.027252
0.958313 0.759735 0.027252
0.979553 0.759735 0.027252
1.000000 0.759735 0.027252
0.000000 0.793152 0.027252
0.024597 0.793152 0.027252
0.050201 0.793152 0.027252
0.076965 0.793152 0.027252
0.104950 0.793152 0.027252
0.134094 0.793152 0.027252
0.164642 0.793152 0.027252
0.196442 0.793152 0.027252
0.229645 0.793152 0.027252
0.264191 0.793152 0.027252
0.300049 0.793152 0.027252
0.337250 0.793152 0.027252
0.375641 0.793152 0.027252
0.415466 0.793152 0.027252
0.456512 0.793152 0.027252
0.498932 0.793152 0.027252
0.542450 0.793152 0.027252
0.585327 0.793152 0.027252
0.626953 0.793152 0.027252
0.666901 0.793152 0.027252
0.704987 0.793152 0.027252
0.740814 0.793152 0.027252
0.774384 0.793152 0.027252
0.805756 0.793152 0.027252
0.834991 0.793152 0.027252
0.862457 0.793152 0.027252
0.888306 0.793152 0.027252
0.912842 0.793152 0.027252
0.936096 0.793152 0.027252
0.958313 0.793152 0.027252
0.979553 0.793152 0.027252
1.000000 0.793152 0.027252
0.000000 0.823700 0.027252
0.024597 0.823700 0.027252
0.050201 0.823700 0.027252
0.076965 0.823700 0.027252
0.104950 0.823700 0.027252
0.134094 0.823700 0.027252
0.164642 0.823700 0.027252
0.196442 0.823700 0.027252
0.229645 0.823700 0.027252
0.264191 0.823700 0.027252
0.300049 0.823700 0.027252
0.337250 0.823700 0.027252
0.375641 0.823700 0.027252
0.415466 0.823700 0.027252
0.456512 0.823700 0.027252
0.498932 0.823700 0.027252
0.542450 0.823700 0.027252
0.585327 0.823700 0.027252
0.626953 0.823700 0.027252
0.666901 0.823700 0.027252
0.704987 0.823700 0.027252
0.740814 0.823700 0.027252
0.774384 0.823700 0.027252
0.805756 0.823700 0.027252
0.834991 0.823700 0.027252
0.862457 0.823700 0.027252
0.888306 0.823700 0.027252
0.912842 0.823700 0.027252
0.936096 0.823700 0.027252
0.958313 0.823700 0.027252
0.979553 0.823700 0.027252
1.000000 0.823700 0.027252
0.000000 0.851593 0.027252
0.024597 0.851593 0.027252
0.050201 0.851593 0.027252
0.076965 0.851593 0.027252
0.104950 0.851593 0.027252
0.134094 0.851593 0.027252
0.164642 0.851593 0.027252
0.196442 0.851593 0.027252
0.229645 0.851593 0.027252
0.264191 0.851593 0.027252
0.300049 0.851593 0.027252
0.337250 0.851593 0.027252
0.375641 0.851593 0.027252
0.415466 0.851593 0.027252
0.456512 0.851593 0.027252
0.498932 0.851593 0.027252
0.542450 0.851593 0.027252
0.585327 0.851593 0.027252
0.626953 0.851593 0.027252
0.666901 0.851593 0.027252
0.704987 0.851593 0.027252
0.740814 0.851593 0.027252
0.774384 0.851593 0.027252
0.805756 0.851593 0.027252
0.834991 0.851593 0.027252
0.862457 0.851593 0.027252
0.888306 0.851593 0.027252
0.912842 0.851593 0.027252
0.936096 0.851593 0.027252
0.958313 0.851593 0.027252
0.979553 0.851593 0.027252
1.000000 0.851593 0.027252
0.000000 0.877228 0.027252
0.024597 0.877228 0.027252
0.050201 0.877228 0.027252
0.076965 0.877228 0.027252
0.104950 0.877228 0.027252
0.134094 0.877228 0.027252
0.164642 0.877228 0.027252
0.196442 0.877228 0.027252
0.229645 0.877228 0.027252
0.264191 0.877228 0.027252
0.300049 0.877228 0.027252
0.337250 0.877228 0.027252
0.375641 0.877228 0.027252
0.415466 0.877228 0.027252
0.456512 0.877228 0.027252
0.498932 0.877228 0.027252
0.542450 0.877228 0.027252
0.585327 0.877228 0.027252
0.626953 0.877228 0.027252
0.666901 0.877228 0.027252
0.704987 0.877228 0.027252
0.740814 0.877228 0.027252
0.774384 0.877228 0.027252
0.805756 0.877228 0.027252
0.834991 0.877228 0.027252
0.862457 0.877228 0.027252
0.888306 0.877228 0.027252
0.912842 0.877228 0.027252
0.936096 0.877228 0.027252
0.958313 0.877228 0.027252
0.979553 0.877228 0.027252
1.000000 0.877228 0.027252
0.000000 0.900879 0.027252
0.024597 0.900879 0.027252
0.050201 0.900879 0.027252
0.076965 0.900879 0.027252
0.104950 0.900879 0.027252
0.134094 0.900879 0.027252
0.164642 0.900879 0.027252
0.196442 0.900879 0.027252
0.229645 0.900879 0.027252
0.264191 0.900879 0.027252
0.300049 0.900879 0.027252
0.337250 0.900879 0.027252
0.375641 0.900879 0.027252
0.415466 0.900879 0.027252
0.456512 0.900879 0.027252
0.498932 0.900879 0.027252
0.542450 0.900879 0.027252
0.585327 0.900879 0.027252
0.626953 0.900879 0.027252
0.666901 0.900879 0.027252
0.704987 0.900879 0.027252
0.740814 0.900879 0.027252
0.774384 0.900879 0.027252
0.805756 0.900879 0.027252
0.834991 0.900879 0.027252
0.862457 0.900879 0.027252
0.888306 0.900879 0.027252
0.912842 0.900879 0.027252
0.936096 0.900879 0.027252
0.958313 0.900879 0.027252
0.979553 0.900879 0.027252
1.000000 0.900879 0.027252
0.000000 0.922943 0.027252
0.024597 0.922943 0.027252
0.050201 0.922943 0.027252
0.076965 0.922943 0.027252
0.104950 0.922943 0.027252
0.134094 0.922943 0.027252
0.164642 0.922943 0.027252
0.196442 0.922943 0.027252
0.229645 0.922943 0.027252
0.264191 0.922943 0.027252
0.300049 0.922943 0.027252
0.337250 0.922943 0.027252
0.375641 0.922943 0.027252
0.415466 0.922943 0.027252
0.456512 0.922943 0.027252
0.498932 0.922943 0.027252
