Game/Assets/LUTs/purple11-free-luts-pack/Once upon a time.CUBE
#Created by: Adobe Photoshop Export Color Lookup Plugin
#Copyright: (C) Copyright 2019 Purple11
TITLE "Once upon a time"
#LUT size
LUT_3D_SIZE 8
#data domain
#LUT data points
DOMAIN_MIN 0.000000 0.000000 0.000000
DOMAIN_MAX 0.903226 0.903226 0.903226
0.000000 0.000000 0.027252
0.104950 0.000000 0.027252
0.229645 0.000000 0.027252
0.375641 0.000000 0.027252
0.542450 0.000000 0.027252
0.704987 0.000000 0.027252
0.834991 0.000000 0.027252
0.936096 0.000000 0.027252
0.000000 0.084351 0.027252
0.104950 0.084351 0.027252
0.229645 0.084351 0.027252
0.375641 0.084351 0.027252
0.542450 0.084351 0.027252
0.704987 0.084351 0.027252
0.834991 0.084351 0.027252
0.936096 0.084351 0.027252
0.000000 0.193268 0.027252
0.104950 0.193268 0.027252
0.229645 0.193268 0.027252
0.375641 0.193268 0.027252
0.542450 0.193268 0.027252
0.704987 0.193268 0.027252
0.834991 0.193268 0.027252
0.936096 0.193268 0.027252
0.000000 0.348297 0.027252
0.104950 0.348297 0.027252
0.229645 0.348297 0.027252
0.375641 0.348297 0.027252
0.542450 0.348297 0.027252
0.704987 0.348297 0.027252
0.834991 0.348297 0.027252
0.936096 0.348297 0.027252
0.000000 0.544617 0.027252
0.104950 0.544617 0.027252
0.229645 0.544617 0.027252
0.375641 0.544617 0.027252
0.542450 0.544617 0.027252
0.704987 0.544617 0.027252
0.834991 0.544617 0.027252
0.936096 0.544617 0.027252
0.000000 0.723114 0.027252
0.104950 0.723114 0.027252
0.229645 0.723114 0.027252
0.375641 0.723114 0.027252
0.542450 0.723114 0.027252
0.704987 0.723114 0.027252
0.834991 0.723114 0.027252
0.936096 0.723114 0.027252
0.000000 0.851593 0.027252
0.104950 0.851593 0.027252
0.229645 0.851593 0.027252
0.375641 0.851593 0.027252
0.542450 0.851593 0.027252
0.704987 0.851593 0.027252
0.834991 0.851593 0.027252
0.936096 0.851593 0.027252
0.000000 0.943634 0.027252
0.104950 0.943634 0.027252
0.229645 0.943634 0.027252
0.375641 0.943634 0.027252
0.542450 0.943634 0.027252
0.704987 0.943634 0.027252
0.834991 0.943634 0.027252
0.936096 0.943634 0.027252
0.000000 0.000000 0.104858
0.104950 0.000000 0.104858
0.229645 0.000000 0.104858
0.375641 0.000000 0.104858
0.542450 0.000000 0.104858
0.704987 0.000000 0.104858
0.834991 0.000000 0.104858
0.936096 0.000000 0.104858
0.000000 0.084351 0.104858
0.104950 0.084351 0.104858
0.229645 0.084351 0.104858
0.375641 0.084351 0.104858
0.542450 0.084351 0.104858
0.704987 0.084351 0.104858
0.834991 0.084351 0.104858
0.936096 0.084351 0.104858
0.000000 0.193268 0.104858
0.104950 0.193268 0.104858
0.229645 0.193268 0.104858
0.375641 0.193268 0.104858
0.542450 0.193268 0.104858
0.704987 0.193268 0.104858
0.834991 0.193268 0.104858
0.936096 0.193268 0.104858
0.000000 0.348297 0.104858
0.104950 0.348297 0.104858
0.229645 0.348297 0.104858
0.375641 0.348297 0.104858
0.542450 0.348297 0.104858
0.704987 0.348297 0.104858
0.834991 0.348297 0.104858
0.936096 0.348297 0.104858
0.000000 0.544617 0.104858
0.104950 0.544617 0.104858
0.229645 0.544617 0.104858
0.375641 0.544617 0.104858
0.542450 0.544617 0.104858
0.704987 0.544617 0.104858
0.834991 0.544617 0.104858
0.936096 0.544617 0.104858
0.000000 0.723114 0.104858
0.104950 0.723114 0.104858
0.229645 0.723114 0.104858
0.375641 0.723114 0.104858
0.542450 0.723114 0.104858
0.704987 0.723114 0.104858
0.834991 0.723114 0.104858
0.936096 0.723114 0.104858
0.000000 0.851593 0.104858
0.104950 0.851593 0.104858
0.229645 0.851593 0.104858
0.375641 0.851593 0.104858
0.542450 0.851593 0.104858
0.704987 0.851593 0.104858
0.834991 0.851593 0.104858
0.936096 0.851593 0.104858
0.000000 0.943634 0.104858
0.104950 0.943634 0.104858
0.229645 0.943634 0.104858
0.375641 0.943634 0.104858
0.542450 0.943634 0.104858
0.704987 0.943634 0.104858
0.834991 0.943634 0.104858
0.936096 0.943634 0.104858
0.000000 0.000000 0.213196
0.104950 0.000000 0.213196
0.229645 0.000000 0.213196
0.375641 0.000000 0.213196
0.542450 0.000000 0.213196
0.704987 0.000000 0.213196
0.834991 0.000000 0.213196
0.936096 0.000000 0.213196
0.000000 0.084351 0.213196
0.104950 0.084351 0.213196
0.229645 0.084351 0.213196
0.375641 0.084351 0.213196
0.542450 0.084351 0.213196
0.704987 0.084351 0.213196
0.834991 0.084351 0.213196
0.936096 0.084351 0.213196
0.000000 0.193268 0.213196
0.104950 0.193268 0.213196
0.229645 0.193268 0.213196
0.375641 0.193268 0.213196
0.542450 0.193268 0.213196
0.704987 0.193268 0.213196
0.834991 0.193268 0.213196
0.936096 0.193268 0.213196
0.000000 0.348297 0.213196
0.104950 0.348297 0.213196
0.229645 0.348297 0.213196
0.375641 0.348297 0.213196
0.542450 0.348297 0.213196
0.704987 0.348297 0.213196
0.834991 0.348297 0.213196
0.936096 0.348297 0.213196
0.000000 0.544617 0.213196
0.104950 0.544617 0.213196
0.229645 0.544617 0.213196
0.375641 0.544617 0.213196
0.542450 0.544617 0.213196
0.704987 0.544617 0.213196
0.834991 0.544617 0.213196
0.936096 0.544617 0.213196
0.000000 0.723114 0.213196
0.104950 0.723114 0.213196
0.229645 0.723114 0.213196
0.375641 0.723114 0.213196
0.542450 0.723114 0.213196
0.704987 0.723114 0.213196
0.834991 0.723114 0.213196
0.936096 0.723114 0.213196
0.000000 0.851593 0.213196
0.104950 0.851593 0.213196
0.229645 0.851593 0.213196
0.375641 0.851593 0.213196
0.542450 0.851593 0.213196
0.704987 0.851593 0.213196
0.834991 0.851593 0.213196
0.936096 0.851593 0.213196
0.000000 0.943634 0.213196
0.104950 0.943634 0.213196
0.229645 0.943634 0.213196
0.375641 0.943634 0.213196
0.542450 0.943634 0.213196
0.704987 0.943634 0.213196
0.834991 0.943634 0.213196
0.936096 0.943634 0.213196
0.000000 0.000000 0.375153
0.104950 0.000000 0.375153
0.229645 0.000000 0.375153
0.375641 0.000000 0.375153
0.542450 0.000000 0.375153
0.704987 0.000000 0.375153
0.834991 0.000000 0.375153
0.936096 0.000000 0.375153
0.000000 0.084351 0.375153
0.104950 0.084351 0.375153
0.229645 0.084351 0.375153
0.375641 0.084351 0.375153
0.542450 0.084351 0.375153
0.704987 0.084351 0.375153
0.834991 0.084351 0.375153
0.936096 0.084351 0.375153
0.000000 0.193268 0.375153
0.104950 0.193268 0.375153
0.229645 0.193268 0.375153
0.375641 0.193268 0.375153
0.542450 0.193268 0.375153
0.704987 0.193268 0.375153
0.834991 0.193268 0.375153
0.936096 0.193268 0.375153
0.000000 0.348297 0.375153
0.104950 0.348297 0.375153
0.229645 0.348297 0.375153
0.375641 0.348297 0.375153
0.542450 0.348297 0.375153
0.704987 0.348297 0.375153
0.834991 0.348297 0.375153
0.936096 0.348297 0.375153
0.000000 0.544617 0.375153
0.104950 0.544617 0.375153
0.229645 0.544617 0.375153
0.375641 0.544617 0.375153
0.542450 0.544617 0.375153
0.704987 0.544617 0.375153
0.834991 0.544617 0.375153
0.936096 0.544617 0.375153
0.000000 0.723114 0.375153
0.104950 0.723114 0.375153
0.229645 0.723114 0.375153
0.375641 0.723114 0.375153
0.542450 0.723114 0.375153
0.704987 0.723114 0.375153
0.834991 0.723114 0.375153
0.936096 0.723114 0.375153
0.000000 0.851593 0.375153
0.104950 0.851593 0.375153
0.229645 0.851593 0.375153
0.375641 0.851593 0.375153
0.542450 0.851593 0.375153
0.704987 0.851593 0.375153
0.834991 0.851593 0.375153
0.936096 0.851593 0.375153
0.000000 0.943634 0.375153
0.104950 0.943634 0.375153
0.229645 0.943634 0.375153
0.375641 0.943634 0.375153
0.542450 0.943634 0.375153
0.704987 0.943634 0.375153
0.834991 0.943634 0.375153
0.936096 0.943634 0.375153
0.000000 0.000000 0.538635
0.104950 0.000000 0.538635
0.229645 0.000000 0.538635
0.375641 0.000000 0.538635
0.542450 0.000000 0.538635
0.704987 0.000000 0.538635
0.834991 0.000000 0.538635
0.936096 0.000000 0.538635
0.000000 0.084351 0.538635
0.104950 0.084351 0.538635
0.229645 0.084351 0.538635
0.375641 0.084351 0.538635
0.542450 0.084351 0.538635
0.704987 0.084351 0.538635
0.834991 0.084351 0.538635
0.936096 0.084351 0.538635
0.000000 0.193268 0.538635
0.104950 0.193268 0.538635
0.229645 0.193268 0.538635
0.375641 0.193268 0.538635
0.542450 0.193268 0.538635
0.704987 0.193268 0.538635
0.834991 0.193268 0.538635
0.936096 0.193268 0.538635
0.000000 0.348297 0.538635
0.104950 0.348297 0.538635
0.229645 0.348297 0.538635
0.375641 0.348297 0.538635
0.542450 0.348297 0.538635
0.704987 0.348297 0.538635
0.834991 0.348297 0.538635
0.936096 0.348297 0.538635
0.000000 0.544617 0.538635
0.104950 0.544617 0.538635
0.229645 0.544617 0.538635
0.375641 0.544617 0.538635
0.542450 0.544617 0.538635
0.704987 0.544617 0.538635
0.834991 0.544617 0.538635
0.936096 0.544617 0.538635
0.000000 0.723114 0.538635
0.104950 0.723114 0.538635
0.229645 0.723114 0.538635
0.375641 0.723114 0.538635
0.542450 0.723114 0.538635
0.704987 0.723114 0.538635
0.834991 0.723114 0.538635
0.936096 0.723114 0.538635
0.000000 0.851593 0.538635
0.104950 0.851593 0.538635
0.229645 0.851593 0.538635
0.375641 0.851593 0.538635
0.542450 0.851593 0.538635
0.704987 0.851593 0.538635
0.834991 0.851593 0.538635
0.936096 0.851593 0.538635
0.000000 0.943634 0.538635
0.104950 0.943634 0.538635
0.229645 0.943634 0.538635
0.375641 0.943634 0.538635
0.542450 0.943634 0.538635
0.704987 0.943634 0.538635
0.834991 0.943634 0.538635
0.936096 0.943634 0.538635
0.000000 0.000000 0.645477
0.104950 0.000000 0.645477
0.229645 0.000000 0.645477
0.375641 0.000000 0.645477
0.542450 0.000000 0.645477
0.704987 0.000000 0.645477
0.834991 0.000000 0.645477
0.936096 0.000000 0.645477
0.000000 0.084351 0.645477
0.104950 0.084351 0.645477
0.229645 0.084351 0.645477
0.375641 0.084351 0.645477
0.542450 0.084351 0.645477
0.704987 0.084351 0.645477
0.834991 0.084351 0.645477
0.936096 0.084351 0.645477
0.000000 0.193268 0.645477
0.104950 0.193268 0.645477
0.229645 0.193268 0.645477
0.375641 0.193268 0.645477
0.542450 0.193268 0.645477
0.704987 0.193268 0.645477
0.834991 0.193268 0.645477
0.936096 0.193268 0.645477
0.000000 0.348297 0.645477
0.104950 0.348297 0.645477
0.229645 0.348297 0.645477
0.375641 0.348297 0.645477
0.542450 0.348297 0.645477
0.704987 0.348297 0.645477
0.834991 0.348297 0.645477
0.936096 0.348297 0.645477
0.000000 0.544617 0.645477
0.104950 0.544617 0.645477
0.229645 0.544617 0.645477
0.375641 0.544617 0.645477
0.542450 0.544617 0.645477
0.704987 0.544617 0.645477
0.834991 0.544617 0.645477
0.936096 0.544617 0.645477
0.000000 0.723114 0.645477
0.104950 0.723114 0.645477
0.229645 0.723114 0.645477
0.375641 0.723114 0.645477
0.542450 0.723114 0.645477
0.704987 0.723114 0.645477
0.834991 0.723114 0.645477
0.936096 0.723114 0.645477
0.000000 0.851593 0.645477
0.104950 0.851593 0.645477
0.229645 0.851593 0.645477
0.375641 0.851593 0.645477
0.542450 0.851593 0.645477
0.704987 0.851593 0.645477
0.834991 0.851593 0.645477
0.936096 0.851593 0.645477
0.000000 0.943634 0.645477
0.104950 0.943634 0.645477
0.229645 0.943634 0.645477
0.375641 0.943634 0.645477
0.542450 0.943634 0.645477
0.704987 0.943634 0.645477
0.834991 0.943634 0.645477
0.936096 0.943634 0.645477
0.000000 0.000000 0.760559
0.104950 0.000000 0.760559
0.229645 0.000000 0.760559
0.375641 0.000000 0.760559
0.542450 0.000000 0.760559
0.704987 0.000000 0.760559
0.834991 0.000000 0.760559
0.936096 0.000000 0.760559
0.000000 0.084351 0.760559
0.104950 0.084351 0.760559
0.229645 0.084351 0.760559
0.375641 0.084351 0.760559
0.542450 0.084351 0.760559
0.704987 0.084351 0.760559
0.834991 0.084351 0.760559
0.936096 0.084351 0.760559
0.000000 0.193268 0.760559
0.104950 0.193268 0.760559
0.229645 0.193268 0.760559
0.375641 0.193268 0.760559
0.542450 0.193268 0.760559
0.704987 0.193268 0.760559
0.834991 0.193268 0.760559
0.936096 0.193268 0.760559
0.000000 0.348297 0.760559
0.104950 0.348297 0.760559
0.229645 0.348297 0.760559
0.375641 0.348297 0.760559
0.542450 0.348297 0.760559
0.704987 0.348297 0.760559
0.834991 0.348297 0.760559
0.936096 0.348297 0.760559
0.000000 0.544617 0.760559
0.104950 0.544617 0.760559
0.229645 0.544617 0.760559
0.375641 0.544617 0.760559
0.542450 0.544617 0.760559
0.704987 0.544617 0.760559
0.834991 0.544617 0.760559
0.936096 0.544617 0.760559
0.000000 0.723114 0.760559
0.104950 0.723114 0.760559
0.229645 0.723114 0.760559
0.375641 0.723114 0.760559
0.542450 0.723114 0.760559
0.704987 0.723114 0.760559
0.834991 0.723114 0.760559
0.936096 0.723114 0.760559
0.000000 0.851593 0.760559
0.104950 0.851593 0.760559
0.229645 0.851593 0.760559
0.375641 0.851593 0.760559
0.542450 0.851593 0.760559
0.704987 0.851593 0.760559
0.834991 0.851593 0.760559
0.936096 0.851593 0.760559
0.000000 0.943634 0.760559
0.104950 0.943634 0.760559
0.229645 0.943634 0.760559
0.375641 0.943634 0.760559
0.542450 0.943634 0.760559
0.704987 0.943634 0.760559
0.834991 0.943634 0.760559
0.936096 0.943634 0.760559
0.000000 0.000000 0.901886
0.104950 0.000000 0.901886
0.229645 0.000000 0.901886
0.375641 0.000000 0.901886
0.542450 0.000000 0.901886
0.704987 0.000000 0.901886
0.834991 0.000000 0.901886
0.936096 0.000000 0.901886
0.000000 0.084351 0.901886
0.104950 0.084351 0.901886
0.229645 0.084351 0.901886
0.375641 0.084351 0.901886
0.542450 0.084351 0.901886
0.704987 0.084351 0.901886
0.834991 0.084351 0.901886
0.936096 0.084351 0.901886
0.000000 0.193268 0.901886
0.104950 0.193268 0.901886
0.229645 0.193268 0.901886
0.375641 0.193268 0.901886
0.542450 0.193268 0.901886
0.704987 0.193268 0.901886
0.834991 0.193268 0.901886
0.936096 0.193268 0.901886
0.000000 0.348297 0.901886
0.104950 0.348297 0.901886
0.229645 0.348297 0.901886
0.375641 0.348297 0.901886
0.542450 0.348297 0.901886
0.704987 0.348297 0.901886
0.834991 0.348297 0.901886
0.936096 0.348297 0.901886
0.000000 0.544617 0.901886
0.104950 0.544617 0.901886
0.229645 0.544617 0.901886
0.375641 0.544617 0.901886
0.542450 0.544617 0.901886
0.704987 0.544617 0.901886
0.834991 0.544617 0.901886
0.936096 0.544617 0.901886
0.000000 0.723114 0.901886
0.104950 0.723114 0.901886
0.229645 0.723114 0.901886
0.375641 0.723114 0.901886
0.542450 0.723114 0.901886
0.704987 0.723114 0.901886
0.834991 0.723114 0.901886
0.936096 0.723114 0.901886
0.000000 0.851593 0.901886
0.104950 0.851593 0.901886
0.229645 0.851593 0.901886
0.375641 0.851593 0.901886
0.542450 0.851593 0.901886
0.704987 0.851593 0.901886
0.834991 0.851593 0.901886
0.936096 0.851593 0.901886
0.000000 0.943634 0.901886
0.104950 0.943634 0.901886
0.229645 0.943634 0.901886
0.375641 0.943634 0.901886
0.542450 0.943634 0.901886
0.704987 0.943634 0.901886
0.834991 0.943634 0.901886
0.936096 0.943634 0.901886
