Game/Assets/LUTs/purple11-free-luts-pack/Once upon a time.CUBE
#Created by: Adobe Photoshop Export Color Lookup Plugin
#Copyright: (C) Copyright 2019 Purple11
TITLE "Once upon a time"
#LUT size
LUT_3D_SIZE 5
#data domain
#LUT data points
DOMAIN_MIN 0.000000 0.000000 0.000000
DOMAIN_MAX 0.903226 0.903226 0.903226
0.000000 0.000000 0.027252
0.196442 0.000000 0.027252
0.456512 0.000000 0.027252
0.740814 0.000000 0.027252
0.936096 0.000000 0.027252
0.000000 0.162537 0.027252
0.196442 0.162537 0.027252
0.456512 0.162537 0.027252
0.740814 0.162537 0.027252
0.936096 0.162537 0.027252
0.000000 0.443390 0.027252
0.196442 0.443390 0.027252
0.456512 0.443390 0.027252
0.740814 0.443390 0.027252
0.936096 0.443390 0.027252
0.000000 0.759735 0.027252
0.196442 0.759735 0.027252
0.456512 0.759735 0.027252
0.740814 0.759735 0.027252
0.936096 0.759735 0.027252
0.000000 0.943634 0.027252
0.196442 0.943634 0.027252
0.456512 0.943634 0.027252
0.740814 0.943634 0.027252
0.936096 0.943634 0.027252
0.000000 0.000000 0.181427
0.196442 0.000000 0.181427
0.456512 0.000000 0.181427
0.740814 0.000000 0.181427
0.936096 0.000000 0.181427
0.000000 0.162537 0.181427
0.196442 0.162537 0.181427
0.456512 0.162537 0.181427
0.740814 0.162537 0.181427
0.936096 0.162537 0.181427
0.000000 0.443390 0.181427
0.196442 0.443390 0.181427
0.456512 0.443390 0.181427
0.740814 0.443390 0.181427
0.936096 0.443390 0.181427
0.000000 0.759735 0.181427
0.196442 0.759735 0.181427
0.456512 0.759735 0.181427
0.740814 0.759735 0.181427
0.936096 0.759735 0.181427
0.000000 0.943634 0.181427
0.196442 0.943634 0.181427
0.456512 0.943634 0.181427
0.740814 0.943634 0.181427
0.936096 0.943634 0.181427
0.000000 0.000000 0.462585
0.196442 0.000000 0.462585
0.456512 0.000000 0.462585
0.740814 0.000000 0.462585
0.936096 0.000000 0.462585
0.000000 0.162537 0.462585
0.196442 0.162537 0.462585
0.456512 0.162537 0.462585
0.740814 0.162537 0.462585
0.936096 0.162537 0.462585
0.000000 0.443390 0.462585
0.196442 0.443390 0.462585
0.456512 0.443390 0.462585
0.740814 0.443390 0.462585
0.936096 0.443390 0.462585
0.000000 0.759735 0.462585
0.196442 0.759735 0.462585
0.456512 0.759735 0.462585
0.740814 0.759735 0.462585
0.936096 0.759735 0.462585
0.000000 0.943634 0.462585
0.196442 0.943634 0.462585
0.456512 0.943634 0.462585
0.740814 0.943634 0.462585
0.936096 0.943634 0.462585
0.000000 0.000000 0.670715
0.196442 0.000000 0.670715
0.456512 0.000000 0.670715
0.740814 0.000000 0.670715
0.936096 0.000000 0.670715
0.000000 0.162537 0.670715
0.196442 0.162537 0.670715
0.456512 0.162537 0.670715
0.740814 0.162537 0.670715
0.936096 0.162537 0.670715
0.000000 0.443390 0.670715
0.196442 0.443390 0.670715
0.456512 0.443390 0.670715
0.740814 0.443390 0.670715
0.936096 0.443390 0.670715
0.000000 0.759735 0.670715
0.196442 0.759735 0.670715
0.456512 0.759735 0.670715
0.740814 0.759735 0.670715
0.936096 0.759735 0.670715
0.000000 0.943634 0.670715
0.196442 0.943634 0.670715
0.456512 0.943634 0.670715
0.740814 0.943634 0.670715
0.936096 0.943634 0.670715
0.000000 0.000000 0.901886
0.196442 0.000000 0.901886
0.456512 0.000000 0.901886
0.740814 0.000000 0.901886
0.936096 0.000000 0.901886
0.000000 0.162537 0.901886
0.196442 0.162537 0.901886
0.456512 0.162537 0.901886
0.740814 0.162537 0.901886
0.936096 0.162537 0.901886
0.000000 0.443390 0.901886
0.196442 0.443390 0.901886
0.456512 0.443390 0.901886
0.740814 0.443390 0.901886
0.936096 0.443390 0.901886
0.000000 0.759735 0.901886
0.196442 0.759735 0.901886
0.456512 0.759735 0.901886
0.740814 0.759735 0.901886
0.936096 0.759735 0.901886
0.000000 0.943634 0.901886
0.196442 0.943634 0.901886
0.456512 0.943634 0.901886
0.740814 0.943634 0.901886
0.936096 0.943634 0.901886
