Game/Assets/LUTs/purple11-free-luts-pack/Passing by.CUBE
#Created by: Adobe Photoshop Export Color Lookup Plugin
#Copyright: (C) Copyright 2019 Purple11
TITLE "Passing by"
#LUT size
LUT_3D_SIZE 8
#data domain
#LUT data points
DOMAIN_MIN 0.000000 0.000000 0.000000
DOMAIN_MAX 0.903226 0.903226 0.903226
0.167999 0.073547 0.103577
0.232513 0.064148 0.115662
0.318481 0.052002 0.130310
0.426788 0.044891 0.144897
0.562378 0.050964 0.166473
0.694885 0.068268 0.195587
0.804749 0.081390 0.217285
0.892517 0.090424 0.233063
0.191437 0.147827 0.085754
0.247528 0.142212 0.101044
0.332581 0.128174 0.121765
0.471405 0.099182 0.174255
0.611969 0.112671 0.200867
0.744354 0.128571 0.227875
0.854340 0.139374 0.248169
0.941650 0.145874 0.262817
0.218140 0.234436 0.068634
0.277374 0.243317 0.078430
0.358887 0.242889 0.092865
0.466309 0.239319 0.112122
0.608887 0.241119 0.152435
0.754852 0.240112 0.205170
0.917389 0.211700 0.289429
1.000000 0.216187 0.302917
0.231903 0.345245 0.053558
0.283661 0.364655 0.064026
0.384338 0.376984 0.067841
0.495605 0.380554 0.080658
0.628326 0.384735 0.116547
0.757690 0.385895 0.156677
0.868988 0.380157 0.190521
0.959412 0.370880 0.217285
0.249420 0.489319 0.034027
0.295532 0.511932 0.048950
0.392365 0.526764 0.058105
0.518372 0.536194 0.065033
0.655853 0.539337 0.088409
0.776306 0.533569 0.127563
0.879333 0.521545 0.159668
0.961761 0.507874 0.183716
0.283051 0.637421 0.036774
0.325928 0.660034 0.056122
0.414978 0.672668 0.067566
0.536499 0.676239 0.075256
0.676910 0.670288 0.082214
0.795654 0.656677 0.109924
0.893799 0.639893 0.141998
0.971771 0.626373 0.164642
0.312775 0.753143 0.041473
0.352936 0.772461 0.061829
0.435974 0.781097 0.075256
0.553192 0.778992 0.083893
0.690887 0.769958 0.090942
0.812988 0.769684 0.096008
0.907806 0.767273 0.123718
0.982117 0.764099 0.143982
0.336914 0.837158 0.045532
0.375275 0.853180 0.066528
0.453918 0.861176 0.081299
0.567810 0.870667 0.090759
0.703094 0.876617 0.097992
0.823425 0.879486 0.102844
0.919708 0.880219 0.108612
0.990906 0.879944 0.128448
0.180054 0.071198 0.132172
0.235931 0.065338 0.154938
0.321198 0.053925 0.167450
0.429718 0.049713 0.180695
0.566254 0.057129 0.201752
0.700043 0.075714 0.225983
0.812836 0.091156 0.229462
0.901825 0.100769 0.238495
0.192108 0.143250 0.143402
0.244781 0.143341 0.157318
0.334839 0.132507 0.174835
0.474487 0.104431 0.215210
0.615997 0.119263 0.240784
0.749725 0.136169 0.257629
0.863525 0.150055 0.254028
0.950928 0.156097 0.268585
0.216583 0.235596 0.122894
0.273651 0.247681 0.131958
0.355743 0.248138 0.144104
0.465088 0.245178 0.158630
0.610809 0.248169 0.190857
0.760437 0.248352 0.230133
0.926605 0.221954 0.295654
1.000000 0.229462 0.308838
0.231262 0.350952 0.096985
0.282806 0.370636 0.107513
0.383423 0.383514 0.109131
0.497192 0.387695 0.115723
0.634033 0.393585 0.138672
0.766602 0.395996 0.163788
0.877960 0.389557 0.197510
0.968414 0.379456 0.224152
0.259033 0.499481 0.040710
0.305450 0.523102 0.057373
0.401428 0.537811 0.066681
0.527008 0.546570 0.073456
0.664307 0.548737 0.096527
0.784760 0.541840 0.135529
0.887939 0.528961 0.167511
0.970459 0.514771 0.191315
0.292969 0.647675 0.045349
0.335785 0.669922 0.064636
0.424103 0.682068 0.076202
0.545105 0.684692 0.083801
0.685211 0.677673 0.090576
0.803741 0.663269 0.118500
0.902039 0.646179 0.150238
0.980164 0.636902 0.171661
0.322418 0.761993 0.050171
0.362396 0.780670 0.070496
0.445038 0.788605 0.083893
0.561859 0.785767 0.092407
0.699127 0.780334 0.099274
0.820953 0.780243 0.104126
0.915894 0.778137 0.131226
0.990265 0.775116 0.151123
0.346375 0.844543 0.054260
0.384491 0.860046 0.075195
0.462891 0.871216 0.089905
0.576355 0.880890 0.099274
0.711334 0.887177 0.106323
0.831421 0.890259 0.110962
0.927490 0.891388 0.116272
0.998779 0.891357 0.135773
0.196167 0.068085 0.167145
0.245178 0.063049 0.206543
0.326477 0.056366 0.218719
0.433685 0.054321 0.231323
0.569611 0.062592 0.252167
0.702026 0.080261 0.278137
0.812195 0.093262 0.297180
0.900269 0.101990 0.310608
0.210938 0.133392 0.199829
0.255371 0.139740 0.214935
0.342102 0.134796 0.231842
0.478455 0.109497 0.268036
0.619171 0.124695 0.293091
0.751617 0.140381 0.316895
0.861755 0.150787 0.334229
0.949432 0.156830 0.346252
0.224823 0.232361 0.196899
0.270844 0.249359 0.208496
0.351318 0.252106 0.220184
0.461212 0.249481 0.235229
0.609802 0.252411 0.268890
0.762115 0.250305 0.313812
0.925049 0.221924 0.381409
1.000000 0.229095 0.390778
0.231415 0.352020 0.181458
0.278564 0.373077 0.193054
0.376495 0.386841 0.196381
0.490173 0.390686 0.205353
0.627136 0.394989 0.234436
0.760193 0.394836 0.266022
0.874542 0.387756 0.292603
0.967468 0.377167 0.313782
0.246216 0.498077 0.159515
0.291718 0.521820 0.175598
0.387207 0.536957 0.183716
0.514618 0.545410 0.187592
0.655273 0.546753 0.204559
0.779358 0.538849 0.235168
0.885468 0.525421 0.259399
0.970367 0.510956 0.277283
0.282288 0.646637 0.153229
0.324677 0.668579 0.171875
0.413055 0.680511 0.181946
0.535797 0.682251 0.186676
0.678741 0.674469 0.188721
0.800354 0.659729 0.209869
0.901489 0.643341 0.233276
0.981812 0.638153 0.247650
0.315308 0.761108 0.143616
0.355133 0.779175 0.163239
0.437866 0.786743 0.175201
0.556091 0.783417 0.180664
0.696045 0.781921 0.182373
0.820526 0.782684 0.181030
0.917999 0.781555 0.199707
0.994141 0.779541 0.212341
0.343964 0.844238 0.129517
0.382233 0.859283 0.149506
0.460693 0.874023 0.162720
0.575134 0.884521 0.168976
0.712189 0.891846 0.170013
0.834747 0.896271 0.166382
0.933075 0.899109 0.161560
1.000000 0.897888 0.197205
0.215240 0.064362 0.212555
0.255188 0.072388 0.274323
0.336395 0.058624 0.284729
0.440887 0.059204 0.296265
0.575897 0.069366 0.315460
0.707458 0.086975 0.338135
0.817017 0.099640 0.354675
0.904694 0.107788 0.366455
0.224640 0.151276 0.273438
0.269440 0.146271 0.287354
0.357544 0.132874 0.304016
0.485779 0.114868 0.335358
0.625519 0.131561 0.358215
0.756897 0.146912 0.378998
0.866577 0.156677 0.393951
0.953888 0.161987 0.404388
0.232971 0.254059 0.276123
0.277405 0.256195 0.289642
0.358521 0.254547 0.302368
0.468597 0.253601 0.317841
0.618164 0.257202 0.349884
0.770599 0.253845 0.388977
0.929718 0.226532 0.444275
1.000000 0.235138 0.450806
0.247131 0.351685 0.271545
0.285339 0.374573 0.284607
0.376465 0.390503 0.289948
0.487732 0.394592 0.299072
0.626770 0.399048 0.326416
0.761688 0.397614 0.355438
0.877777 0.389160 0.380249
0.972351 0.377197 0.400299
0.252991 0.498322 0.256775
0.294861 0.522919 0.273590
0.385864 0.539246 0.282928
0.511902 0.547668 0.287262
0.653198 0.547607 0.303986
0.779297 0.538025 0.331573
0.887329 0.523224 0.353851
0.973633 0.507996 0.370300
0.283081 0.645538 0.257904
0.324371 0.667358 0.276550
0.409973 0.679382 0.287445
0.531586 0.680481 0.292542
0.675812 0.671448 0.294983
0.798950 0.655609 0.315674
0.902252 0.643616 0.336029
0.984100 0.638184 0.349213
0.311951 0.756989 0.257782
0.351257 0.774414 0.277039
0.432281 0.781952 0.289429
0.550262 0.778259 0.295349
0.691376 0.781097 0.297974
0.817902 0.781738 0.297607
0.917236 0.780182 0.315857
0.995026 0.777588 0.328125
0.336334 0.837006 0.256317
0.374359 0.852722 0.276093
0.451843 0.870392 0.289490
0.566498 0.881653 0.296295
0.705170 0.888916 0.299133
0.829773 0.892792 0.298645
0.929810 0.894562 0.298950
1.000000 0.893463 0.328461
0.225067 0.094818 0.272522
0.251892 0.123505 0.349884
0.339050 0.083893 0.370392
0.452393 0.063324 0.378662
0.585663 0.076691 0.396240
0.715668 0.094452 0.415222
0.824493 0.106720 0.428802
0.911713 0.114471 0.438263
0.237854 0.185394 0.372498
0.276031 0.188171 0.390381
0.381653 0.136139 0.412750
0.497406 0.119507 0.420563
0.635162 0.138672 0.441162
0.765167 0.153931 0.458435
0.874054 0.163086 0.470673
0.960846 0.167725 0.479004
0.236877 0.294067 0.366699
0.272919 0.302246 0.382324
0.365326 0.270660 0.392029
0.483521 0.255127 0.405212
0.632507 0.260559 0.436890
0.786224 0.254791 0.475861
0.937134 0.231415 0.524475
1.000000 0.242950 0.525513
0.268799 0.364319 0.371918
0.305573 0.383087 0.387665
0.382721 0.396423 0.396881
0.490784 0.396820 0.408356
0.632904 0.402222 0.434052
0.769928 0.399567 0.458649
0.887238 0.389526 0.478638
0.981659 0.376190 0.494293
0.280731 0.496643 0.364716
0.317169 0.521576 0.382385
0.393188 0.539764 0.394043
0.514526 0.548523 0.399750
0.654785 0.547424 0.416870
0.782898 0.536316 0.440948
0.892883 0.520538 0.460266
0.981018 0.504486 0.474701
0.304138 0.642151 0.368927
0.340851 0.663879 0.388062
0.414459 0.676544 0.400726
0.533478 0.677490 0.407043
0.677460 0.667755 0.410126
0.801636 0.651306 0.430054
0.907257 0.645447 0.446411
0.990723 0.640137 0.457520
0.326569 0.751129 0.372162
0.362610 0.768066 0.391663
0.435791 0.776001 0.405243
0.551392 0.776459 0.412323
0.692657 0.781891 0.415527
0.820190 0.783112 0.416534
0.921631 0.781830 0.431763
1.000000 0.779633 0.443939
0.345947 0.829193 0.373932
0.381500 0.848938 0.393738
0.454224 0.868256 0.408112
0.567078 0.881104 0.415833
0.705994 0.889435 0.419403
0.832123 0.893921 0.419250
0.933868 0.895874 0.420197
1.000000 0.894836 0.464233
0.231598 0.127411 0.332336
0.251007 0.167114 0.417267
0.321136 0.147583 0.461487
0.459045 0.078522 0.465729
0.597321 0.082794 0.481262
0.725494 0.100952 0.497192
0.833282 0.112946 0.508301
0.919922 0.120270 0.515900
0.250824 0.216614 0.477539
0.281708 0.225281 0.494690
0.362091 0.197601 0.506348
0.507080 0.135986 0.511658
0.646881 0.144623 0.528290
0.774933 0.159882 0.542755
0.882812 0.168549 0.552734
0.969055 0.172577 0.559357
0.238922 0.330963 0.458618
0.270020 0.341553 0.475922
0.349426 0.318512 0.489014
0.498016 0.262390 0.499603
0.651520 0.260590 0.530975
0.810852 0.249512 0.575378
0.945862 0.235107 0.609894
1.000000 0.250854 0.603058
0.259125 0.421753 0.462524
0.290375 0.438477 0.479797
0.358582 0.444763 0.492065
0.504242 0.401550 0.500092
0.647156 0.403290 0.523682
0.782440 0.399567 0.545837
0.899109 0.388000 0.564331
0.993225 0.373566 0.579041
0.311096 0.493378 0.467072
0.345184 0.518188 0.485413
0.415009 0.537811 0.499451
0.522186 0.551208 0.503326
0.660797 0.553009 0.517792
0.790161 0.544159 0.535889
0.901917 0.529175 0.550781
0.990692 0.510681 0.563690
0.331390 0.636902 0.472626
0.366547 0.658051 0.492340
0.434601 0.671234 0.507050
0.540710 0.677307 0.508667
0.683411 0.670197 0.510010
0.808167 0.660187 0.526428
0.915070 0.657959 0.538025
0.999451 0.654388 0.545929
0.351746 0.743408 0.477570
0.386383 0.759827 0.497467
0.452972 0.768494 0.512787
0.558167 0.779114 0.513245
0.698395 0.787506 0.514832
0.826111 0.790741 0.515503
0.928925 0.790894 0.526489
1.000000 0.794250 0.541718
0.369354 0.820007 0.480865
0.403748 0.843903 0.501038
0.469055 0.864929 0.516876
0.573639 0.882233 0.516693
0.711609 0.892639 0.518494
0.838104 0.898346 0.517151
0.940826 0.901184 0.517670
1.000000 0.906067 0.562439
0.235870 0.157379 0.383942
0.250336 0.201416 0.473694
0.311432 0.204590 0.543701
0.447327 0.143951 0.551483
0.608948 0.087311 0.558441
0.735077 0.105774 0.572388
0.841797 0.117676 0.581818
0.927887 0.124603 0.588165
0.252136 0.264008 0.557678
0.282104 0.276764 0.577423
0.359772 0.256897 0.592224
0.499908 0.201355 0.600281
0.658417 0.148865 0.607269
0.784576 0.164154 0.620026
0.891327 0.172394 0.628540
0.977020 0.175903 0.634186
0.243164 0.365967 0.542969
0.273529 0.379944 0.563232
0.349762 0.364624 0.580383
0.497803 0.313904 0.595337
0.672241 0.257751 0.619415
0.847504 0.234680 0.681152
0.954468 0.237457 0.688721
1.000000 0.257660 0.672089
0.251129 0.474884 0.544556
0.280762 0.491852 0.564636
0.356995 0.483490 0.580719
0.499664 0.444458 0.591858
0.661591 0.402588 0.605591
0.795288 0.397858 0.626648
0.911163 0.385132 0.644318
1.000000 0.372681 0.656830
0.315674 0.521149 0.551788
0.349304 0.542908 0.571869
0.415680 0.560486 0.588043
0.521057 0.578766 0.591187
0.671814 0.556396 0.598602
0.801331 0.542786 0.617310
0.912323 0.523865 0.632629
1.000000 0.505310 0.644226
0.356415 0.631104 0.559021
0.390289 0.651733 0.579407
0.454651 0.665192 0.595978
0.555054 0.676605 0.595612
0.691437 0.683624 0.585876
0.816467 0.679138 0.601227
0.923706 0.677551 0.611938
1.000000 0.679077 0.619537
0.375244 0.735504 0.564789
0.408844 0.751556 0.585297
0.472076 0.760773 0.602264
0.570892 0.781403 0.598907
0.706207 0.798828 0.590332
0.833557 0.802765 0.594208
0.936890 0.803436 0.604340
1.000000 0.811737 0.621338
0.391632 0.813568 0.568939
0.425079 0.838654 0.589569
0.487457 0.861053 0.606995
0.584961 0.883270 0.601074
0.719177 0.898193 0.595001
0.845306 0.904388 0.596161
0.948303 0.907562 0.598907
1.000000 0.917297 0.650421
0.238281 0.182251 0.426910
0.251526 0.231140 0.521393
0.306580 0.252655 0.609589
0.442719 0.198578 0.623444
0.611938 0.116516 0.628235
0.743866 0.109344 0.637817
0.849548 0.121033 0.646271
0.935059 0.127686 0.651886
0.253876 0.306580 0.625092
0.281311 0.319366 0.645386
0.360870 0.303497 0.662109
0.497192 0.252289 0.672607
0.662781 0.175079 0.678040
0.793274 0.167114 0.687195
0.899139 0.175140 0.694916
0.984253 0.178162 0.700012
0.250031 0.399536 0.616913
0.277985 0.413330 0.637848
0.358551 0.400726 0.657318
0.503357 0.353119 0.675659
0.689301 0.271057 0.702759
0.856232 0.236481 0.750519
0.962219 0.238678 0.757629
1.000000 0.263428 0.730347
0.253357 0.506500 0.615143
0.281158 0.521149 0.635742
0.360626 0.513885 0.653687
0.499573 0.477600 0.667297
0.670105 0.414642 0.679047
0.807281 0.395264 0.697418
0.922485 0.381683 0.715118
1.000000 0.375305 0.720581
0.311035 0.556000 0.621765
0.341278 0.575836 0.642395
0.408356 0.592468 0.660248
0.514343 0.614655 0.664246
0.680084 0.560394 0.673492
0.811768 0.537872 0.689667
0.921844 0.518585 0.704224
1.000000 0.506622 0.710297
0.376495 0.626923 0.629211
0.408783 0.647583 0.650024
0.468689 0.663025 0.668243
0.563019 0.681824 0.669495
0.696472 0.690063 0.660706
0.823822 0.684113 0.674896
0.931671 0.682037 0.685791
1.000000 0.689789 0.688599
0.395447 0.728302 0.635345
0.428406 0.744049 0.656372
0.489197 0.754364 0.674896
0.584656 0.780853 0.673859
0.713715 0.806824 0.660706
0.840637 0.812012 0.666779
0.944458 0.813080 0.676788
1.000000 0.826111 0.689087
0.410950 0.808411 0.639954
0.443848 0.833771 0.661041
0.503937 0.857208 0.679932
0.598419 0.882019 0.677002
0.726532 0.902161 0.665314
0.852295 0.908813 0.669189
0.955566 0.912323 0.674103
1.000000 0.927551 0.720337
