Game/Assets/LUTs/purple11-free-luts-pack/Passing by.CUBE
#Created by: Adobe Photoshop Export Color Lookup Plugin
#Copyright: (C) Copyright 2019 Purple11
TITLE "Passing by"
#LUT size
LUT_3D_SIZE 5
#data domain
#LUT data points
DOMAIN_MIN 0.000000 0.000000 0.000000
DOMAIN_MAX 0.903226 0.903226 0.903226
0.167999 0.073547 0.103577
0.294952 0.055298 0.126434
0.490143 0.043762 0.151733
0.724457 0.071899 0.201630
0.892517 0.090424 0.233063
0.213684 0.212280 0.071991
0.328278 0.212830 0.095795
0.527863 0.204010 0.136383
0.819885 0.186829 0.264160
0.987488 0.196320 0.291870
0.239929 0.414062 0.044067
0.358765 0.445312 0.060120
0.573547 0.458679 0.079956
0.794617 0.458099 0.149628
0.958740 0.440094 0.198120
0.290924 0.669495 0.038025
0.395020 0.701202 0.067230
0.609558 0.702332 0.081177
0.825897 0.678253 0.115540
0.974518 0.662750 0.158966
0.336914 0.837158 0.045532
0.430542 0.858765 0.078186
0.634216 0.873993 0.094574
0.849792 0.879791 0.103760
0.990906 0.879944 0.128448
0.191681 0.068939 0.157715
0.301758 0.057404 0.201477
0.495728 0.052551 0.224213
0.730804 0.082489 0.270599
0.899628 0.100861 0.298340
0.218658 0.209076 0.181152
0.321411 0.220367 0.203583
0.528351 0.213989 0.237122
0.826385 0.196777 0.343475
0.994781 0.205444 0.365997
0.237335 0.421570 0.149384
0.352661 0.454224 0.165192
0.571655 0.467743 0.179352
0.798431 0.465027 0.234406
0.966614 0.445251 0.271118
0.293671 0.679199 0.121338
0.396973 0.709564 0.148895
0.613556 0.708282 0.156372
0.834106 0.684143 0.177002
0.986908 0.678162 0.200623
0.357239 0.850372 0.061646
0.449402 0.876465 0.094421
0.651001 0.893738 0.110657
0.865387 0.900635 0.119263
1.000000 0.898315 0.171539
0.221008 0.077087 0.240875
0.319702 0.063782 0.321686
0.508026 0.062256 0.340637
0.740509 0.094208 0.378601
0.907867 0.111053 0.400055
0.232330 0.246094 0.318207
0.342102 0.223785 0.339417
0.546875 0.221771 0.374146
0.835968 0.206787 0.459015
1.000000 0.213989 0.475647
0.262726 0.421661 0.315613
0.354889 0.458710 0.336212
0.568878 0.473328 0.352966
0.801147 0.466003 0.399719
0.974243 0.442108 0.432373
0.297119 0.675171 0.312805
0.392365 0.705048 0.341431
0.606812 0.701813 0.351105
0.832184 0.683655 0.372253
0.989655 0.675873 0.396698
0.337860 0.833435 0.314453
0.429016 0.865601 0.345184
0.633881 0.885681 0.357056
0.857910 0.893890 0.357208
1.000000 0.893768 0.394257
0.232880 0.135101 0.346008
0.294128 0.172791 0.480225
0.530701 0.072296 0.491577
0.756714 0.105804 0.519806
0.921936 0.121460 0.534576
0.238800 0.312042 0.480865
0.322723 0.309479 0.510925
0.585968 0.220093 0.544159
0.852142 0.215546 0.608521
1.000000 0.227783 0.613037
0.285919 0.455933 0.486725
0.365570 0.488770 0.516022
0.583832 0.474365 0.535675
0.818115 0.463165 0.571381
0.991943 0.436462 0.594604
0.343109 0.665375 0.497223
0.424347 0.694916 0.529327
0.616516 0.703278 0.529480
0.843140 0.699432 0.545776
1.000000 0.697571 0.562500
0.375153 0.817780 0.504517
0.454346 0.859131 0.537537
0.642761 0.889465 0.537048
0.867828 0.901031 0.536621
1.000000 0.908936 0.585724
0.238281 0.182251 0.426910
0.288239 0.253357 0.590637
0.525665 0.159576 0.626373
0.772125 0.112823 0.640259
0.935059 0.127686 0.651886
0.253693 0.372559 0.622925
0.337677 0.378357 0.659882
0.627594 0.266876 0.721924
0.867493 0.219940 0.735474
1.000000 0.238647 0.724945
0.276489 0.532562 0.617981
0.350983 0.562134 0.652496
0.588165 0.513733 0.674927
0.837463 0.457520 0.700073
1.000000 0.434937 0.717194
0.382324 0.654572 0.630890
0.458282 0.683411 0.665924
0.632416 0.709808 0.664490
0.856720 0.722534 0.673798
1.000000 0.730499 0.685242
0.410950 0.808411 0.639954
0.485748 0.851776 0.675629
0.658478 0.892822 0.671844
0.880249 0.909943 0.669678
1.000000 0.927551 0.720337
