Game/Assets/LUTs/purple11-free-luts-pack/Passing by.CUBE
#Created by: Adobe Photoshop Export Color Lookup Plugin
#Copyright: (C) Copyright 2019 Purple11
TITLE "Passing by"
#LUT size
LUT_3D_SIZE 32
#data domain
DOMAIN_MIN 0.0 0.0 0.0
DOMAIN_MAX 1.0 1.0 1.0
#LUT data points
0.167999 0.073547 0.103577
0.183411 0.070587 0.106140
0.197174 0.068665 0.112457
0.214600 0.066711 0.112366
0.232513 0.064148 0.115662
0.252045 0.061340 0.119110
0.272919 0.058319 0.122711
0.294952 0.055298 0.126434
0.318481 0.052002 0.130310
0.343323 0.048645 0.134308
0.369629 0.046722 0.137970
0.397461 0.045746 0.141449
0.426788 0.044891 0.144897
0.457642 0.044220 0.148285
0.490143 0.043762 0.151733
0.525757 0.045990 0.157898
0.562378 0.050964 0.166473
0.597626 0.055573 0.174530
0.631439 0.060150 0.182037
0.663879 0.064301 0.189056
0.694885 0.068268 0.195587
0.724457 0.071899 0.201630
0.752594 0.075348 0.207275
0.779388 0.078522 0.212463
0.804749 0.081390 0.217285
0.828827 0.084045 0.221771
0.851562 0.086395 0.225891
0.872955 0.088562 0.229706
0.892517 0.090424 0.233063
0.903412 0.091187 0.234375
0.913849 0.091919 0.235657
0.923889 0.092621 0.237000
0.170410 0.090668 0.099213
0.183075 0.088470 0.109467
0.201080 0.084320 0.112549
0.219971 0.079498 0.119690
0.241852 0.073822 0.124359
0.261322 0.071075 0.127594
0.282104 0.068176 0.131012
0.304413 0.065002 0.134583
0.327911 0.061829 0.138245
0.352966 0.059235 0.141815
0.379333 0.058380 0.144989
0.407288 0.057526 0.148224
0.436707 0.056854 0.151428
0.467804 0.056274 0.154724
0.500458 0.055847 0.158112
0.536896 0.059784 0.165741
0.573547 0.064636 0.174194
0.608734 0.069305 0.182068
0.642578 0.073700 0.189453
0.675018 0.077942 0.196381
0.705933 0.081787 0.202789
0.735596 0.085327 0.208740
0.763702 0.088654 0.214294
0.790497 0.091705 0.219421
0.815918 0.094482 0.224182
0.839966 0.096924 0.228546
0.862701 0.099182 0.232544
0.884125 0.101166 0.236328
0.903534 0.102936 0.239624
0.914490 0.103577 0.240936
0.924927 0.104218 0.242157
0.934937 0.104797 0.243408
0.176636 0.107697 0.095398
0.186707 0.107269 0.102325
0.201782 0.105804 0.102234
0.218567 0.102844 0.106262
0.237457 0.099518 0.110748
0.260376 0.093140 0.119385
0.284210 0.087128 0.127228
0.314575 0.075592 0.142639
0.338165 0.072754 0.146210
0.363403 0.071808 0.149200
0.389862 0.071014 0.152283
0.417938 0.070343 0.155396
0.447540 0.069824 0.158539
0.478668 0.069366 0.161713
0.511780 0.069702 0.165588
0.548828 0.074677 0.174164
0.585510 0.079559 0.182434
0.620728 0.084137 0.190216
0.654572 0.088531 0.197449
0.686920 0.092529 0.204224
0.717926 0.096313 0.210541
0.747528 0.099731 0.216431
0.775665 0.102997 0.221832
0.802399 0.105774 0.226837
0.827850 0.108398 0.231537
0.851959 0.110779 0.235870
0.874695 0.112854 0.239868
0.896118 0.114807 0.243500
0.915405 0.116364 0.246765
0.926331 0.116913 0.248016
0.936798 0.117432 0.249237
0.946869 0.117920 0.250458
0.183411 0.127411 0.090881
0.193756 0.127930 0.094330
0.208160 0.125702 0.097870
0.223877 0.123352 0.101624
0.241486 0.119995 0.106293
0.260406 0.116486 0.111023
0.281708 0.112244 0.116608
0.306610 0.106476 0.124115
0.333344 0.101135 0.131927
0.365082 0.094177 0.144318
0.401154 0.084900 0.160065
0.429321 0.084351 0.163086
0.459045 0.083984 0.166138
0.490326 0.083649 0.169189
0.524658 0.085785 0.174805
0.561676 0.090668 0.183197
0.598358 0.095551 0.191345
0.633514 0.100098 0.198975
0.667328 0.104340 0.206055
0.699768 0.108215 0.212708
0.730713 0.111908 0.218842
0.760284 0.115234 0.224640
0.788422 0.118256 0.229980
0.815186 0.120911 0.234924
0.840668 0.123383 0.239563
0.864746 0.125610 0.243774
0.887451 0.127533 0.247681
0.908905 0.129272 0.251343
0.928070 0.130646 0.254456
0.939087 0.131104 0.255676
0.949585 0.131531 0.256897
0.959595 0.131927 0.258087
0.191437 0.147827 0.085754
0.201141 0.148712 0.089813
0.214874 0.147125 0.093384
0.230377 0.145081 0.096771
0.247528 0.142212 0.101044
0.266357 0.138794 0.105591
0.286224 0.135559 0.110077
0.308136 0.131287 0.115570
0.332581 0.128174 0.121765
0.359528 0.125183 0.128510
0.389740 0.121338 0.136719
0.423340 0.115936 0.147278
0.471405 0.099182 0.174255
0.502869 0.098999 0.177277
0.538239 0.103027 0.184631
0.575378 0.107880 0.192902
0.611969 0.112671 0.200867
0.647217 0.117157 0.208313
0.680939 0.121216 0.215302
0.713348 0.125122 0.221802
0.744354 0.128571 0.227875
0.773895 0.131744 0.233521
0.802063 0.134583 0.238770
0.828827 0.137054 0.243683
0.854340 0.139374 0.248169
0.878387 0.141357 0.252350
0.901154 0.143097 0.256195
0.922638 0.144684 0.259766
0.941650 0.145874 0.262817
0.952637 0.146179 0.263947
0.963165 0.146515 0.265167
0.973267 0.146790 0.266327
0.201996 0.167572 0.080475
0.209839 0.170166 0.084595
0.221954 0.170044 0.088257
0.237274 0.167969 0.091980
0.254242 0.165466 0.095703
0.272461 0.162659 0.099854
0.292664 0.159058 0.104614
0.314148 0.156769 0.108948
0.338043 0.154938 0.114044
0.363556 0.153046 0.119568
0.390869 0.150757 0.125641
0.420532 0.147858 0.132812
0.452667 0.143829 0.141571
0.489532 0.138824 0.152069
0.535034 0.133331 0.172241
0.589844 0.126221 0.203217
0.626465 0.130920 0.211029
0.661713 0.135254 0.218323
0.695435 0.139191 0.225128
0.727844 0.142822 0.231567
0.758820 0.146118 0.237518
0.788391 0.149170 0.243042
0.816498 0.151855 0.248199
0.843323 0.154114 0.252991
0.868774 0.156219 0.257446
0.892853 0.157959 0.261536
0.915710 0.159576 0.265320
0.937164 0.160889 0.268860
0.956024 0.161957 0.271790
0.967041 0.162079 0.272980
0.977661 0.162262 0.274078
0.987732 0.162415 0.275238
0.210846 0.190521 0.075104
0.218201 0.193512 0.079315
0.230164 0.193481 0.083099
0.244781 0.192169 0.086426
0.261261 0.190033 0.090302
0.279633 0.187073 0.094482
0.299255 0.184967 0.098511
0.320923 0.184082 0.102417
0.344238 0.183044 0.106720
0.369263 0.181671 0.111572
0.396027 0.179993 0.117004
0.424561 0.178223 0.122833
0.455658 0.175568 0.129883
0.488678 0.172516 0.137512
0.525757 0.170715 0.148926
0.567627 0.170959 0.165955
0.614136 0.168610 0.186920
0.673035 0.157043 0.224060
0.710754 0.158234 0.235687
0.743134 0.161682 0.241974
0.774109 0.164764 0.247803
0.803711 0.167542 0.253235
0.831848 0.169983 0.258331
0.858673 0.172089 0.263031
0.884125 0.173920 0.267395
0.908264 0.175507 0.271454
0.931061 0.176849 0.275146
0.952576 0.177979 0.278625
0.971313 0.178802 0.281464
0.982361 0.178833 0.282593
0.992981 0.178864 0.283691
1.000000 0.180054 0.284698
0.213684 0.212280 0.071991
0.222504 0.215912 0.075806
0.237122 0.218231 0.077850
0.252777 0.217590 0.080902
0.268921 0.215729 0.084595
0.286804 0.214020 0.088318
0.306793 0.213470 0.091949
0.328278 0.212830 0.095795
0.351379 0.212097 0.099976
0.375885 0.211334 0.104309
0.402252 0.210175 0.109283
0.430328 0.208893 0.114502
0.460449 0.207031 0.120514
0.492584 0.204895 0.127106
0.527863 0.204010 0.136383
0.567383 0.205688 0.150421
0.607422 0.206543 0.165222
0.646912 0.206421 0.180450
0.686890 0.204742 0.197266
0.728973 0.201324 0.216217
0.781372 0.190186 0.248047
0.819885 0.186829 0.264160
0.848022 0.189026 0.269104
0.874817 0.190857 0.273743
0.900299 0.192444 0.278046
0.924469 0.193756 0.281982
0.947296 0.194885 0.285706
0.968781 0.195740 0.289093
0.987488 0.196320 0.291870
0.998566 0.196167 0.292969
1.000000 0.199463 0.293671
1.000000 0.203217 0.294403
0.218140 0.234436 0.068634
0.224945 0.238861 0.072693
0.238922 0.241394 0.075104
0.257568 0.242859 0.076477
0.277374 0.243317 0.078430
0.295349 0.243561 0.081757
0.314850 0.243530 0.085175
0.336060 0.243317 0.088867
0.358887 0.242889 0.092865
0.383026 0.242371 0.097046
0.409119 0.241577 0.101715
0.436798 0.240570 0.106720
0.466309 0.239319 0.112122
0.497772 0.237701 0.118134
0.532318 0.237396 0.126587
0.570587 0.239471 0.139435
0.608887 0.241119 0.152435
0.646332 0.242035 0.165436
0.683014 0.242249 0.178406
0.719208 0.241638 0.191589
0.754852 0.240112 0.205170
0.790314 0.237671 0.219391
0.826355 0.233887 0.234985
0.864563 0.227997 0.253357
0.917389 0.211700 0.289429
0.941528 0.212708 0.293365
0.964355 0.213501 0.296936
0.985901 0.214203 0.300293
1.000000 0.216187 0.302917
1.000000 0.220123 0.303619
1.000000 0.223816 0.304321
1.000000 0.227417 0.305206
0.221069 0.258698 0.065552
0.228394 0.262970 0.069366
0.241486 0.265778 0.072021
0.259705 0.268524 0.073517
0.279846 0.271759 0.074463
0.303131 0.274536 0.075195
0.323486 0.275177 0.078217
0.344421 0.275238 0.081787
0.366913 0.275146 0.085663
0.390717 0.274933 0.089752
0.416443 0.274384 0.094208
0.443878 0.273590 0.099060
0.473022 0.272675 0.104218
0.503815 0.271515 0.109680
0.537781 0.271637 0.117859
0.575073 0.273926 0.129944
0.612274 0.275879 0.142029
0.648529 0.277191 0.153839
0.683838 0.277802 0.165588
0.718170 0.277893 0.177002
0.751740 0.277344 0.188416
0.784302 0.276276 0.199554
0.815948 0.274689 0.210754
0.846619 0.272675 0.221588
0.877106 0.269684 0.233032
0.906677 0.266388 0.244415
0.936127 0.262238 0.256439
0.965790 0.257233 0.269409
0.994080 0.250824 0.283447
1.000000 0.250183 0.294159
1.000000 0.249115 0.316162
1.000000 0.252533 0.317047
0.224976 0.284058 0.062073
0.231934 0.289154 0.065796
0.243805 0.293793 0.068481
0.260956 0.297516 0.069977
0.280670 0.300995 0.071228
0.303558 0.303986 0.072083
0.328522 0.306763 0.072754
0.353271 0.308655 0.074524
0.375366 0.308899 0.078278
0.399109 0.308777 0.082336
0.424316 0.308563 0.086670
0.451324 0.308075 0.091370
0.480011 0.307465 0.096222
0.510468 0.306427 0.101562
0.543884 0.306946 0.109650
0.580444 0.309448 0.121185
0.616943 0.311279 0.132935
0.652344 0.312622 0.144226
0.686584 0.313416 0.155090
0.719971 0.313599 0.165771
0.752228 0.313416 0.176086
0.783295 0.312714 0.185944
0.813385 0.311493 0.195740
0.842590 0.309875 0.205322
0.870605 0.307922 0.214447
0.897614 0.305725 0.223419
0.923706 0.303131 0.232178
0.948517 0.300385 0.240448
0.970245 0.297516 0.247894
0.983429 0.295135 0.251831
0.996460 0.292755 0.256012
1.000000 0.293701 0.261169
0.228851 0.313263 0.057831
0.234802 0.319305 0.061646
0.246460 0.324219 0.064423
0.262421 0.328339 0.066376
0.281830 0.331970 0.067688
0.304443 0.335144 0.068756
0.329071 0.338104 0.069550
0.355499 0.341034 0.070312
0.383636 0.343781 0.071075
0.407745 0.344269 0.074707
0.432739 0.344208 0.079041
0.459381 0.343903 0.083618
0.487610 0.343292 0.088501
0.517548 0.342560 0.093597
0.550751 0.343353 0.102020
0.586639 0.345764 0.113220
0.622375 0.347504 0.124512
0.657104 0.348816 0.135406
0.690491 0.349548 0.145782
0.722961 0.349762 0.155945
0.754425 0.349426 0.165771
0.784668 0.348785 0.175110
0.813751 0.347595 0.184204
0.841736 0.346130 0.192871
0.868774 0.344269 0.201294
0.894501 0.342255 0.209229
0.919189 0.339996 0.216858
0.942657 0.337585 0.224091
0.962646 0.335144 0.230194
0.974884 0.333008 0.233398
0.986877 0.330933 0.236633
0.998413 0.328918 0.239929
0.231903 0.345245 0.053558
0.238892 0.351074 0.057251
0.249756 0.356293 0.060211
0.264343 0.360962 0.062500
0.283661 0.364655 0.064026
0.306000 0.367889 0.065216
0.330231 0.371094 0.066162
0.356445 0.374146 0.067047
0.384338 0.376984 0.067841
0.413727 0.379852 0.068634
0.441498 0.381104 0.071350
0.467682 0.380981 0.075836
0.495605 0.380554 0.080658
0.525146 0.379730 0.085876
0.557953 0.380890 0.094452
0.593292 0.383026 0.105560
0.628326 0.384735 0.116547
0.662354 0.385773 0.127167
0.695160 0.386292 0.137360
0.727051 0.386292 0.147278
0.757690 0.385895 0.156677
0.787231 0.384979 0.165741
0.815552 0.383667 0.174347
0.842926 0.382050 0.182709
0.868988 0.380157 0.190521
0.893951 0.378052 0.197998
0.917786 0.375732 0.205078
0.940399 0.373322 0.211823
0.959412 0.370880 0.217285
0.971313 0.368622 0.220306
0.982574 0.366608 0.223053
0.993561 0.364655 0.225952
0.236145 0.378571 0.048798
0.242493 0.384766 0.052734
0.252472 0.390289 0.055969
0.267426 0.394867 0.058380
0.285980 0.398865 0.060181
0.307373 0.402557 0.061523
0.331299 0.405823 0.062683
0.357391 0.408875 0.063629
0.385132 0.411835 0.064514
0.414581 0.414581 0.065399
0.445496 0.417206 0.066315
0.476471 0.419098 0.068115
0.503876 0.418732 0.072906
0.533020 0.418091 0.078033
0.565582 0.419373 0.087067
0.600372 0.421234 0.098145
0.634766 0.422607 0.109039
0.668152 0.423370 0.119476
0.700439 0.423615 0.129547
0.731567 0.423309 0.139191
0.761688 0.422607 0.148438
0.790588 0.421417 0.157257
0.818451 0.419861 0.165833
0.845001 0.418030 0.173676
0.870483 0.415863 0.181335
0.894867 0.413483 0.188538
0.918091 0.410919 0.195374
0.940002 0.408356 0.201660
0.958374 0.405701 0.206879
0.969879 0.403412 0.209656
0.980957 0.401215 0.212402
0.991516 0.399200 0.215027
0.239929 0.414062 0.044067
0.246674 0.420105 0.048004
0.256287 0.425873 0.051453
0.270416 0.430725 0.054077
0.288330 0.434967 0.056152
0.309448 0.438751 0.057739
0.332825 0.442200 0.059052
0.358765 0.445312 0.060120
0.386414 0.448273 0.061127
0.415802 0.451019 0.062103
0.446472 0.453613 0.063110
0.478790 0.455872 0.064087
0.512299 0.458038 0.065247
0.541199 0.457336 0.070343
0.573547 0.458679 0.079956
0.607758 0.460205 0.090973
0.641541 0.461273 0.101776
0.674377 0.461578 0.112183
0.706055 0.461456 0.122223
0.736633 0.460815 0.131683
0.766205 0.459656 0.140839
0.794617 0.458099 0.149628
0.821808 0.456146 0.157867
0.847900 0.453918 0.165771
0.872894 0.451416 0.173248
0.896637 0.448761 0.180237
0.919434 0.445862 0.186920
0.940887 0.442932 0.193115
0.958740 0.440094 0.198120
0.969940 0.437622 0.200836
0.980713 0.435394 0.203400
0.991119 0.433197 0.205994
0.245026 0.450897 0.039001
0.250702 0.457336 0.043243
0.260742 0.462952 0.046722
0.274261 0.468048 0.049622
0.291351 0.472626 0.051971
0.311951 0.476471 0.053772
0.335022 0.479980 0.055298
0.360504 0.483124 0.056610
0.387909 0.486115 0.057739
0.417206 0.488739 0.058807
0.447906 0.491211 0.059845
0.480164 0.493347 0.060974
0.513702 0.495270 0.062225
0.548828 0.497101 0.063965
0.581726 0.498657 0.073059
0.615295 0.499817 0.084045
0.648560 0.500305 0.094818
0.680817 0.500214 0.105255
0.711945 0.499664 0.115204
0.742126 0.498444 0.124847
0.771149 0.496857 0.133881
0.798950 0.494843 0.142609
0.825775 0.492371 0.150879
0.851349 0.489685 0.158691
0.875885 0.486755 0.166046
0.899353 0.483643 0.173065
0.921509 0.480438 0.179535
0.942657 0.477173 0.185669
0.959869 0.474213 0.190430
0.970917 0.471619 0.193115
0.981537 0.469147 0.195679
0.991638 0.466919 0.198151
0.249420 0.489319 0.034027
0.255737 0.495575 0.038239
0.265045 0.501465 0.042023
0.278381 0.506836 0.045502
0.295532 0.511932 0.048950
0.315948 0.516296 0.051727
0.339294 0.520142 0.054138
0.364716 0.523712 0.056244
0.392365 0.526764 0.058105
0.421539 0.529663 0.059906
0.452423 0.532166 0.061554
0.484833 0.534302 0.063324
0.518372 0.536194 0.065033
0.553131 0.537628 0.066742
0.589142 0.538727 0.068542
0.623169 0.539337 0.077515
0.655853 0.539337 0.088409
0.687531 0.538666 0.098877
0.718140 0.537506 0.108856
0.747742 0.535767 0.118469
0.776306 0.533569 0.127563
0.803741 0.530914 0.136322
0.830048 0.528015 0.144592
0.855194 0.524902 0.152313
0.879333 0.521545 0.159668
0.902344 0.518066 0.166565
0.924225 0.514618 0.173035
0.945007 0.511108 0.179108
0.961761 0.507874 0.183716
0.972626 0.505157 0.186310
0.983002 0.502716 0.188812
0.993073 0.500275 0.191345
0.257019 0.528290 0.032715
0.264069 0.535065 0.038025
0.273712 0.541473 0.042969
0.286896 0.547241 0.047241
0.303497 0.552307 0.050903
0.323181 0.556732 0.053894
0.345764 0.560577 0.056488
0.370941 0.563904 0.058685
0.398071 0.566864 0.060669
0.427002 0.569427 0.062500
0.457550 0.571686 0.064240
0.489594 0.573578 0.065979
0.522980 0.574951 0.067688
0.557617 0.576019 0.069427
0.593353 0.576599 0.071259
0.629974 0.576599 0.073059
0.662811 0.576019 0.082672
0.693939 0.574707 0.093231
0.724121 0.572845 0.103333
0.753296 0.570557 0.113007
0.781372 0.567810 0.122162
0.808411 0.564728 0.130890
0.834320 0.561432 0.139099
0.859192 0.557861 0.146912
0.882965 0.554199 0.154236
0.905609 0.550446 0.161072
0.927246 0.546692 0.167511
0.947632 0.542969 0.173462
0.964081 0.539581 0.178070
0.974731 0.536896 0.180603
0.985046 0.534271 0.183105
0.994873 0.531830 0.185547
0.265961 0.566833 0.034119
0.272919 0.573456 0.039490
0.282318 0.579803 0.044464
0.294983 0.585510 0.048950
0.311310 0.590454 0.052673
0.330505 0.594788 0.055939
0.352631 0.598511 0.058594
0.377075 0.601776 0.061005
0.403748 0.604553 0.063110
0.432404 0.606812 0.065033
0.462616 0.608795 0.066864
0.494324 0.610229 0.068604
0.527527 0.611267 0.070343
0.561951 0.611755 0.072021
0.597504 0.611755 0.073792
0.634003 0.611206 0.075653
0.669434 0.609894 0.077728
0.700104 0.607971 0.088348
0.729889 0.605591 0.098572
0.758606 0.602722 0.108276
0.786346 0.599518 0.117523
0.812988 0.596069 0.126251
0.838593 0.592377 0.134521
0.863129 0.588593 0.142303
0.886597 0.584564 0.149567
0.909027 0.580688 0.156403
0.930267 0.576721 0.162750
0.950531 0.572815 0.168701
0.966583 0.569336 0.173248
0.977081 0.566559 0.175751
0.987244 0.563873 0.178192
0.996948 0.561432 0.180603
0.274902 0.603058 0.035400
0.281372 0.609650 0.040863
0.290924 0.615753 0.045898
0.303192 0.621429 0.050476
0.318909 0.626312 0.054382
0.337524 0.630646 0.057861
0.359161 0.634216 0.060699
0.383087 0.637329 0.063232
0.409485 0.639801 0.065430
0.437744 0.641846 0.067444
0.467712 0.643372 0.069305
0.499298 0.644440 0.071136
0.532074 0.645020 0.072876
0.566254 0.645020 0.074585
0.601593 0.644379 0.076355
0.637817 0.643127 0.078156
0.673248 0.641235 0.079865
0.705963 0.638794 0.084198
0.735291 0.635925 0.094421
0.763763 0.632660 0.104218
0.791107 0.629120 0.113464
0.817444 0.625336 0.122192
0.842712 0.621338 0.130493
0.867004 0.617249 0.138245
0.890198 0.613129 0.145508
0.912384 0.609039 0.152313
0.933441 0.604828 0.158661
0.953430 0.600891 0.164581
0.969147 0.597412 0.168945
0.979584 0.594513 0.171478
0.989594 0.591858 0.173889
0.999237 0.589386 0.176300
0.283051 0.637421 0.036774
0.289825 0.643677 0.042206
0.298737 0.649750 0.047333
0.310883 0.655182 0.051971
0.325928 0.660034 0.056122
0.344452 0.664093 0.059601
0.365448 0.667572 0.062683
0.389191 0.670410 0.065277
0.414978 0.672668 0.067566
0.442932 0.674377 0.069672
0.472595 0.675568 0.071625
0.503784 0.676239 0.073517
0.536499 0.676239 0.075256
0.570465 0.675690 0.077026
0.605621 0.674500 0.078827
0.641785 0.672668 0.080597
0.676910 0.670288 0.082214
0.710388 0.667419 0.083832
0.740601 0.664124 0.090881
0.768616 0.660522 0.100616
0.795654 0.656677 0.109924
0.821777 0.652588 0.118683
0.846741 0.648438 0.126923
0.870850 0.644196 0.134735
0.893799 0.639893 0.141998
0.915680 0.635681 0.148712
0.936523 0.631561 0.155060
0.956299 0.627808 0.160797
0.971771 0.626373 0.164642
0.982117 0.624847 0.166901
0.992004 0.623505 0.169067
1.000000 0.622650 0.173218
0.290924 0.669495 0.038025
0.297821 0.675507 0.043427
0.306671 0.681458 0.048676
0.318512 0.686737 0.053406
0.333099 0.691406 0.057648
0.351105 0.695343 0.061279
0.371613 0.698639 0.064453
0.395020 0.701202 0.067230
0.420502 0.703217 0.069672
0.448090 0.704590 0.071869
0.477386 0.705383 0.073914
0.508392 0.705475 0.075775
0.540833 0.705048 0.077606
0.574554 0.704010 0.079376
0.609558 0.702332 0.081177
0.645508 0.700073 0.082916
0.680511 0.697266 0.084564
0.713837 0.694000 0.086090
0.745514 0.690460 0.087646
0.773285 0.686584 0.097473
0.800110 0.682495 0.106781
0.825897 0.678253 0.115540
0.850739 0.674011 0.123840
0.874451 0.669617 0.131531
0.897308 0.667969 0.138214
0.919067 0.666718 0.144257
0.939728 0.665375 0.149902
0.959320 0.664032 0.155151
0.974518 0.662750 0.158966
0.984650 0.661377 0.161102
0.994476 0.660095 0.163300
1.000000 0.659576 0.171539
0.298706 0.699432 0.039215
0.305359 0.705322 0.044617
0.313995 0.710999 0.049957
0.325592 0.716095 0.054749
0.339996 0.720612 0.059082
0.357422 0.724365 0.062927
0.377808 0.727325 0.066162
0.400604 0.729736 0.069122
0.425903 0.731354 0.071655
0.453094 0.732330 0.073944
0.482178 0.732697 0.076019
0.512787 0.732483 0.078003
0.545105 0.731598 0.079803
0.578674 0.730133 0.081635
0.613434 0.728119 0.083405
0.649323 0.725494 0.085144
0.684113 0.722321 0.086761
0.717285 0.718811 0.088287
0.748840 0.714966 0.089661
0.777710 0.710938 0.094696
0.804321 0.706696 0.104034
0.830078 0.705475 0.112091
0.854736 0.704559 0.119568
0.878387 0.703552 0.126556
0.900940 0.702423 0.133026
0.922485 0.701324 0.139099
0.942871 0.700165 0.144684
0.962280 0.699005 0.149902
0.977081 0.697845 0.153534
0.987183 0.696625 0.155823
0.996887 0.695496 0.157928
1.000000 0.695038 0.171295
0.305908 0.727295 0.040405
0.312683 0.732910 0.045776
0.321167 0.738434 0.051147
0.332428 0.743347 0.056061
0.346710 0.747589 0.060516
0.363617 0.751190 0.064423
0.383606 0.753937 0.067871
0.406097 0.755951 0.070892
0.430969 0.757263 0.073517
0.457886 0.757996 0.075897
0.486755 0.757996 0.078033
0.517242 0.757355 0.080048
0.549194 0.756195 0.081940
0.582581 0.754425 0.083771
0.617188 0.752106 0.085510
0.652832 0.749084 0.087250
0.687500 0.745697 0.088898
0.720551 0.741974 0.090363
0.751984 0.739563 0.091736
0.781799 0.739197 0.092926
0.808838 0.738708 0.099396
0.834320 0.738037 0.107391
0.858704 0.737305 0.114807
0.882111 0.736511 0.121765
0.904419 0.735565 0.128204
0.925751 0.734589 0.134216
0.945953 0.733643 0.139832
0.965088 0.732666 0.144958
0.979675 0.731598 0.148590
0.989624 0.730560 0.150757
0.999237 0.729614 0.152863
1.000000 0.728943 0.172516
0.312775 0.753143 0.041473
0.319489 0.758545 0.046936
0.327972 0.763794 0.052338
0.339020 0.768433 0.057281
0.352936 0.772461 0.061829
0.369751 0.775726 0.065887
0.389252 0.778290 0.069427
0.411377 0.780090 0.072540
0.435974 0.781097 0.075256
0.462677 0.781494 0.077667
0.491180 0.781281 0.079956
0.521454 0.780426 0.082031
0.553192 0.778992 0.083893
0.586365 0.776947 0.085754
0.620880 0.774353 0.087555
0.656372 0.771118 0.089325
0.690887 0.769958 0.090942
0.723755 0.770111 0.092377
0.755035 0.770203 0.093689
0.784790 0.770020 0.094910
0.812988 0.769684 0.096008
0.838409 0.769257 0.102966
0.862549 0.768677 0.110352
0.885742 0.768036 0.117310
0.907806 0.767273 0.123718
0.928894 0.766602 0.129730
0.948914 0.765778 0.135254
0.967865 0.764954 0.140381
0.982117 0.764099 0.143982
0.992004 0.763153 0.146149
1.000000 0.762238 0.151947
1.000000 0.761108 0.175476
0.319427 0.776947 0.042542
0.325958 0.782104 0.048035
0.334412 0.787109 0.053467
0.345337 0.791504 0.058502
0.359009 0.795288 0.063080
0.375366 0.798370 0.067261
0.394684 0.800659 0.070862
0.416504 0.802277 0.074127
0.440735 0.803131 0.076904
0.467072 0.803314 0.079437
0.495453 0.802795 0.081757
0.525513 0.801788 0.083862
0.557098 0.800079 0.085815
0.590149 0.797821 0.087616
0.624390 0.797302 0.089508
0.659698 0.798157 0.091217
0.694061 0.798767 0.092804
0.726898 0.799164 0.094330
0.758148 0.799377 0.095581
0.787628 0.799408 0.096802
0.815704 0.799316 0.097839
0.842316 0.799042 0.098877
0.866211 0.798706 0.106232
0.889130 0.798248 0.113129
0.911011 0.797699 0.119537
0.931946 0.797119 0.125488
0.951721 0.796539 0.130981
0.970459 0.795929 0.136108
0.984467 0.795166 0.139648
0.994232 0.794464 0.141846
1.000000 0.793152 0.154205
1.000000 0.791626 0.180115
0.325623 0.798798 0.043610
0.332001 0.803772 0.049133
0.340424 0.808472 0.054504
0.351196 0.812714 0.059662
0.364594 0.816284 0.064301
0.380859 0.819183 0.068512
0.399841 0.821320 0.072266
0.421387 0.822693 0.075562
0.445374 0.823364 0.078491
0.471466 0.823334 0.081055
0.499573 0.822784 0.083435
0.529388 0.821533 0.085571
0.560822 0.821716 0.087585
0.593689 0.823090 0.089478
0.627838 0.824310 0.091278
0.662933 0.825409 0.093048
0.697235 0.826202 0.094635
0.729889 0.826782 0.096069
0.760986 0.827209 0.097412
0.790375 0.827393 0.098572
0.818451 0.827484 0.099640
0.844910 0.827423 0.100555
0.869659 0.827271 0.102325
0.892365 0.827026 0.109222
0.914124 0.826660 0.115631
0.934784 0.826324 0.121582
0.954437 0.825928 0.127075
0.972992 0.825470 0.132172
0.986694 0.824951 0.135620
0.996460 0.824280 0.137848
1.000000 0.822388 0.158081
1.000000 0.820374 0.186462
0.331451 0.818787 0.044556
0.337860 0.823608 0.050140
0.346222 0.828094 0.055603
0.356934 0.832062 0.060699
0.370148 0.835541 0.065430
0.386108 0.838226 0.069702
0.404724 0.840240 0.073547
0.425995 0.841522 0.076935
0.449860 0.842041 0.079895
0.475739 0.841888 0.082550
0.503571 0.843079 0.084961
0.533173 0.845093 0.087128
0.564392 0.846924 0.089233
0.597015 0.848480 0.091156
0.631073 0.849915 0.092987
0.666107 0.851135 0.094727
