Game/Assets/LUTs/purple11-free-luts-pack/Serenity.CUBE
#Created by: Adobe Photoshop Export Color Lookup Plugin
#Copyright: (C) Copyright 2019 Purple11
TITLE "Serenity"
#LUT size
LUT_3D_SIZE 5
#data domain
#LUT data points
DOMAIN_MIN 0.000000 0.000000 0.000000
DOMAIN_MAX 0.903226 0.903226 0.903226
0.129028 0.184662 0.276703
0.224060 0.167328 0.283844
0.491974 0.144623 0.300049
0.764771 0.163147 0.262573
0.849884 0.169281 0.250244
0.117523 0.262665 0.277649
0.226715 0.263947 0.277649
0.492126 0.246552 0.300018
0.764923 0.262329 0.262543
0.860382 0.268250 0.248688
0.222504 0.520660 0.300049
0.222504 0.520660 0.300049
0.492035 0.520660 0.300049
0.765106 0.531067 0.262543
0.893188 0.536255 0.243835
0.396820 0.773926 0.262543
0.396820 0.773926 0.262543
0.512787 0.773926 0.262543
0.765106 0.773926 0.262543
0.941406 0.777374 0.236572
0.511322 0.947845 0.265015
0.511322 0.947845 0.265015
0.525208 0.947845 0.265015
0.771088 0.947845 0.264984
0.946472 0.947845 0.264984
0.107056 0.201172 0.398865
0.219940 0.186188 0.385834
0.491974 0.144623 0.382172
0.764771 0.163147 0.348358
0.849884 0.169281 0.337341
0.112885 0.279144 0.379913
0.206360 0.276337 0.396606
0.486450 0.216187 0.373322
0.760254 0.219604 0.325226
0.855835 0.223267 0.309570
0.209167 0.516296 0.399231
0.209167 0.516296 0.399231
0.494141 0.524933 0.365326
0.761902 0.518250 0.330750
0.889771 0.519958 0.310120
0.386017 0.771820 0.366272
0.386017 0.771820 0.366272
0.499359 0.774963 0.334045
0.764832 0.774963 0.334045
0.939728 0.771851 0.310974
0.504761 0.947479 0.342773
0.504761 0.947479 0.342773
0.515167 0.947784 0.328247
0.766663 0.947998 0.318329
0.946381 0.947998 0.318329
0.068695 0.244537 0.654144
0.181000 0.232544 0.648651
0.488464 0.169556 0.619141
0.764771 0.163147 0.585388
0.849884 0.169281 0.578247
0.074188 0.316772 0.643219
0.131317 0.286499 0.657593
0.482819 0.230042 0.625580
0.760162 0.217194 0.580566
0.855774 0.221710 0.570221
0.202148 0.528076 0.627930
0.202148 0.528076 0.627930
0.465607 0.524323 0.641998
0.752502 0.498291 0.594879
0.882080 0.490173 0.574799
0.369720 0.768616 0.608917
0.369720 0.768616 0.608917
0.463684 0.774017 0.592133
0.760986 0.775421 0.579590
0.935425 0.759308 0.570404
0.489258 0.946625 0.595856
0.489258 0.946625 0.595856
0.499481 0.946899 0.590912
0.743439 0.948425 0.554016
0.945801 0.948425 0.554016
0.097626 0.297577 0.832947
0.205872 0.283112 0.829498
0.503204 0.224182 0.815491
0.764282 0.170685 0.802307
0.849884 0.169281 0.796844
0.102844 0.364288 0.827606
0.149689 0.330200 0.834137
0.487274 0.273956 0.820221
0.759491 0.221283 0.802917
0.855652 0.219269 0.794006
0.226044 0.559357 0.819397
0.226044 0.559357 0.819397
0.429077 0.519958 0.834045
0.747986 0.484802 0.813965
0.880066 0.478333 0.795593
0.368134 0.771118 0.813477
0.368134 0.771118 0.813477
0.462311 0.776489 0.819305
0.763794 0.775085 0.803070
0.939209 0.768677 0.787689
0.489258 0.946625 0.805145
0.489258 0.946625 0.805145
0.499481 0.946899 0.803558
0.748901 0.950134 0.775940
0.948608 0.949982 0.776154
0.118103 0.337158 0.961151
0.223969 0.320923 0.960205
0.513794 0.264740 0.956909
0.769196 0.213745 0.953918
0.851501 0.196991 0.952820
0.123108 0.399719 0.959930
0.166168 0.365509 0.960968
0.493042 0.310028 0.957581
0.762085 0.259430 0.954468
0.856934 0.241119 0.952209
0.242889 0.582672 0.957855
0.242889 0.582672 0.957855
0.423401 0.532318 0.960571
0.737518 0.495544 0.957458
0.878632 0.477356 0.952179
0.381439 0.782623 0.956329
0.381439 0.782623 0.956329
0.460449 0.772919 0.957520
0.745514 0.767426 0.955566
0.935974 0.755981 0.948395
0.489014 0.946747 0.954529
0.489014 0.946747 0.954529
0.499268 0.947021 0.954620
0.748840 0.950195 0.954346
0.948212 0.948730 0.950287
