Game/Assets/LUTs/purple11-free-luts-pack/Serenity.CUBE
#Created by: Adobe Photoshop Export Color Lookup Plugin
#Copyright: (C) Copyright 2019 Purple11
TITLE "Serenity"
#LUT size
LUT_3D_SIZE 8
#data domain
#LUT data points
DOMAIN_MIN 0.000000 0.000000 0.000000
DOMAIN_MAX 0.903226 0.903226 0.903226
0.129028 0.184662 0.276703
0.137085 0.184448 0.278503
0.256744 0.159210 0.284302
0.401733 0.142944 0.303406
0.580231 0.150452 0.288239
0.731750 0.160828 0.267273
0.849884 0.169281 0.250244
0.849884 0.169281 0.250244
0.128052 0.190948 0.276794
0.138916 0.192566 0.276794
0.257050 0.163940 0.284302
0.401825 0.145844 0.303406
0.580292 0.152618 0.288239
0.731812 0.162689 0.267273
0.852936 0.171173 0.249786
0.853973 0.171234 0.249634
0.113129 0.291931 0.280151
0.119873 0.293060 0.280334
0.258453 0.293060 0.280334
0.401917 0.281189 0.303436
0.580383 0.286835 0.288208
0.731964 0.295288 0.267242
0.853058 0.302399 0.249756
0.863373 0.303040 0.248260
0.169647 0.436310 0.303375
0.169647 0.436310 0.303375
0.238159 0.436310 0.303375
0.401642 0.436310 0.303375
0.580353 0.441254 0.288239
0.732056 0.448090 0.267242
0.853271 0.453766 0.249725
0.880890 0.455109 0.245667
0.254700 0.566925 0.293304
0.239716 0.545410 0.296448
0.224609 0.523712 0.299591
0.277252 0.504730 0.302338
0.459991 0.491516 0.304260
0.669983 0.512299 0.275940
0.828522 0.536438 0.253357
0.897064 0.559448 0.243256
0.375641 0.742767 0.267242
0.375641 0.742767 0.267242
0.375641 0.742767 0.267242
0.425110 0.742767 0.267242
0.590088 0.742767 0.267242
0.732056 0.742767 0.267242
0.853271 0.745422 0.249725
0.934479 0.747284 0.237640
0.452850 0.857697 0.256378
0.452850 0.857697 0.256378
0.452850 0.857697 0.256378
0.452850 0.857697 0.256378
0.597717 0.857697 0.256348
0.737061 0.857697 0.256348
0.853119 0.857697 0.256348
0.946686 0.858887 0.242462
0.511322 0.947845 0.265015
0.511322 0.947845 0.265015
0.511322 0.947845 0.265015
0.511322 0.947845 0.265015
0.602661 0.947845 0.265015
0.740295 0.947845 0.265015
0.854919 0.947845 0.264984
0.946472 0.947845 0.264984
0.126770 0.186401 0.289703
0.136566 0.186157 0.287781
0.256592 0.159882 0.288055
0.401733 0.142944 0.304901
0.580231 0.150452 0.289154
0.731750 0.160828 0.267883
0.849884 0.169281 0.250732
0.849884 0.169281 0.250732
0.127655 0.192505 0.285461
0.135101 0.192291 0.287079
0.257935 0.158905 0.284302
0.402222 0.142914 0.303467
0.579926 0.150421 0.288300
0.730865 0.160767 0.267395
0.851562 0.169403 0.250000
0.852600 0.169464 0.249847
0.113129 0.291931 0.287415
0.115692 0.294281 0.283875
0.263092 0.297760 0.281097
0.403229 0.274658 0.303619
0.580444 0.275482 0.288208
0.731201 0.281891 0.267365
0.851837 0.288055 0.249939
0.862061 0.288605 0.248444
0.168488 0.435883 0.311707
0.168488 0.435883 0.311707
0.230682 0.440338 0.304016
0.405701 0.440338 0.304016
0.581329 0.437683 0.288086
0.731750 0.441742 0.267273
0.852295 0.446167 0.249878
0.879822 0.447266 0.245819
0.256409 0.569427 0.292938
0.242188 0.548981 0.295929
0.228119 0.528717 0.298889
0.286621 0.512085 0.301270
0.474548 0.504730 0.302338
0.674683 0.519440 0.275269
0.830017 0.541199 0.253143
0.897614 0.562439 0.243164
0.374725 0.742584 0.275909
0.374725 0.742584 0.275909
0.374725 0.742584 0.275909
0.422974 0.743347 0.267151
0.589661 0.743347 0.267151
0.732666 0.743347 0.267151
0.853302 0.744934 0.249725
0.934296 0.746307 0.237671
0.452637 0.857666 0.258606
0.452637 0.857666 0.258606
0.452637 0.857666 0.258606
0.452637 0.857666 0.258606
0.597504 0.857727 0.257782
0.736969 0.857727 0.257782
0.853088 0.857727 0.257782
0.946686 0.858826 0.243896
0.511322 0.947845 0.265015
0.511322 0.947845 0.265015
0.511322 0.947845 0.265015
0.511322 0.947845 0.265015
0.602661 0.947845 0.265015
0.740295 0.947845 0.265015
0.854919 0.947845 0.264984
0.946472 0.947845 0.264984
0.099915 0.206421 0.436188
0.104492 0.206421 0.436188
0.251526 0.184204 0.418762
0.401276 0.145721 0.416534
0.580231 0.150452 0.401001
0.731750 0.160828 0.382935
0.849884 0.169281 0.368408
0.849884 0.169281 0.368408
0.100800 0.212341 0.432739
0.099152 0.207001 0.440216
0.252289 0.184143 0.419556
0.401917 0.144348 0.409790
0.579895 0.150421 0.391693
0.730835 0.160767 0.371826
0.851532 0.169373 0.355835
0.852600 0.169464 0.355682
0.107574 0.310699 0.413147
0.110138 0.313110 0.416260
0.234070 0.306976 0.434174
0.390472 0.265320 0.425598
0.572845 0.250397 0.392090
0.725372 0.250732 0.364929
0.847137 0.253540 0.344513
0.857422 0.253876 0.342834
0.159485 0.432617 0.426086
0.159485 0.432617 0.426086
0.206940 0.436493 0.422668
0.399628 0.439423 0.407654
0.574829 0.426392 0.394836
0.726562 0.424988 0.367371
0.848022 0.426331 0.347015
0.875702 0.426849 0.342499
0.248352 0.572388 0.392487
0.238770 0.555450 0.373352
0.229401 0.539185 0.355927
0.298645 0.532562 0.314819
0.499176 0.527588 0.310791
0.685059 0.530945 0.291565
0.832397 0.544647 0.281860
0.896729 0.560303 0.290405
0.360840 0.739594 0.403961
0.360840 0.739594 0.403961
0.360840 0.739594 0.403961
0.400879 0.743591 0.373505
0.579254 0.744415 0.365845
0.731659 0.744415 0.365845
0.850891 0.739471 0.351044
0.931885 0.738556 0.342072
0.440247 0.855988 0.389313
0.440247 0.855988 0.389313
0.440247 0.855988 0.389313
0.440216 0.855988 0.389313
0.582977 0.858307 0.353424
0.730591 0.858307 0.353424
0.852570 0.858307 0.353424
0.945282 0.854980 0.340149
0.501770 0.947327 0.377625
0.501770 0.947327 0.377625
0.501770 0.947327 0.377625
0.501770 0.947327 0.377625
0.587952 0.948059 0.344940
0.732147 0.948059 0.344940
0.851440 0.948059 0.344940
0.946320 0.948059 0.344940
0.068420 0.229218 0.588959
0.070587 0.229218 0.588959
0.222137 0.209106 0.578247
0.396759 0.173187 0.558105
0.580231 0.150452 0.530640
0.731750 0.160828 0.516266
0.849884 0.169281 0.504730
0.849884 0.169281 0.504730
0.069122 0.234955 0.586853
0.067871 0.229675 0.592041
0.213135 0.211334 0.582306
0.397034 0.173187 0.558319
0.579865 0.150421 0.526825
0.730835 0.160767 0.510529
0.851532 0.169373 0.497650
0.852570 0.169464 0.497528
0.076172 0.329224 0.571777
0.076111 0.327698 0.573578
0.172821 0.302399 0.594574
0.386322 0.275665 0.571899
0.572845 0.245941 0.531036
0.725311 0.248718 0.510193
0.847076 0.252441 0.494293
0.857361 0.252808 0.492950
0.153656 0.449280 0.562500
0.153656 0.449280 0.562500
0.201111 0.454041 0.573883
0.367401 0.443604 0.587036
0.563019 0.414856 0.549774
0.718597 0.406769 0.521729
0.842010 0.402313 0.499756
0.870056 0.401611 0.494904
0.248627 0.579956 0.532043
0.239685 0.566193 0.518402
0.231262 0.553131 0.505829
0.294586 0.548767 0.490234
0.515289 0.547913 0.471588
0.689911 0.538055 0.462067
0.831635 0.542725 0.447937
0.893707 0.553528 0.453796
0.349609 0.737183 0.542358
0.349609 0.737183 0.542358
0.349609 0.737183 0.542358
0.383667 0.739685 0.534668
0.560516 0.744690 0.505066
0.728973 0.744690 0.505066
0.847107 0.732422 0.498932
0.928741 0.729095 0.490326
0.425629 0.854034 0.535675
0.425629 0.854034 0.535675
0.425629 0.854034 0.535675
0.425629 0.854034 0.535675
0.558289 0.858978 0.487640
0.719910 0.858978 0.487640
0.851624 0.858917 0.487640
0.943115 0.849030 0.476746
0.488556 0.946594 0.526459
0.488556 0.946594 0.526459
0.488556 0.946594 0.526459
0.488556 0.946594 0.526459
0.562805 0.948151 0.482483
0.716827 0.948364 0.475830
0.844879 0.948364 0.475830
0.946075 0.948364 0.475830
0.077820 0.260925 0.710052
0.079010 0.260925 0.710052
0.228607 0.240204 0.701904
0.401642 0.205292 0.688202
0.578094 0.168823 0.673309
0.731750 0.160828 0.655548
0.849884 0.169281 0.647156
0.849884 0.169281 0.647156
0.078217 0.266418 0.708832
0.078094 0.261383 0.711548
0.215607 0.243286 0.704468
0.398132 0.206482 0.690094
0.577637 0.168823 0.673035
0.730804 0.160767 0.652893
0.851501 0.169373 0.643066
0.852570 0.169464 0.642975
0.085083 0.356201 0.697937
0.084961 0.353485 0.698944
0.169678 0.321594 0.713135
0.378265 0.292419 0.700836
0.570251 0.257324 0.680481
0.725220 0.245514 0.654816
0.846985 0.250671 0.642273
0.857269 0.251129 0.641235
0.161621 0.470673 0.690857
0.161621 0.470673 0.690857
0.201721 0.465271 0.697632
0.338257 0.439453 0.713531
0.559418 0.415466 0.694763
0.718109 0.398926 0.662842
0.841522 0.397766 0.646667
0.869598 0.397552 0.643066
0.251099 0.598206 0.680176
0.244781 0.589050 0.673309
0.238617 0.580200 0.666687
0.316254 0.579742 0.674286
0.522705 0.569427 0.666748
0.701477 0.557159 0.641327
0.836121 0.556030 0.627380
0.895081 0.562622 0.626312
0.349609 0.737183 0.673676
0.349609 0.737183 0.673676
0.349609 0.737183 0.673676
0.383667 0.739685 0.673401
0.554901 0.746307 0.654602
0.730621 0.745636 0.651367
0.848572 0.734680 0.649323
0.928833 0.728516 0.636993
0.424011 0.853821 0.670105
0.424011 0.853821 0.670105
0.424011 0.853821 0.670105
0.424011 0.853821 0.670105
0.555359 0.859772 0.640900
0.714661 0.860535 0.631378
0.853363 0.860504 0.631378
0.942963 0.847717 0.628143
0.489258 0.946625 0.661774
0.489258 0.946625 0.661774
0.489258 0.946625 0.661774
0.489258 0.946625 0.661774
0.565033 0.948303 0.636322
0.706635 0.949127 0.617737
0.841278 0.949127 0.617737
0.946869 0.949127 0.617737
0.094025 0.290771 0.810394
0.094788 0.290771 0.810394
0.241760 0.268951 0.804565
0.411285 0.235321 0.795563
0.585083 0.200195 0.786163
0.731049 0.170013 0.777588
0.849884 0.169281 0.769501
0.849884 0.169281 0.769501
0.094421 0.296082 0.809662
0.094147 0.291046 0.811249
0.226868 0.272156 0.806213
0.404785 0.236908 0.796814
0.583466 0.200806 0.787201
0.730042 0.169983 0.776855
0.851501 0.169373 0.767120
0.852539 0.169464 0.767059
0.101044 0.381866 0.802429
0.100861 0.378693 0.803040
0.178406 0.344452 0.812012
0.379761 0.315277 0.803650
0.572723 0.280060 0.793549
0.724243 0.251678 0.780273
0.846863 0.248627 0.767059
0.857178 0.249176 0.766235
0.175995 0.491180 0.797455
0.175995 0.491180 0.797455
0.211761 0.481812 0.801636
0.333221 0.449036 0.812622
0.552155 0.422516 0.803589
0.716156 0.398682 0.787964
0.840942 0.392181 0.770081
0.869080 0.392731 0.767120
0.267670 0.618988 0.792999
0.265106 0.615356 0.791168
0.261597 0.610291 0.788605
0.339020 0.597809 0.795410
0.521881 0.581146 0.796509
0.710449 0.566803 0.783020
0.840149 0.563721 0.764771
0.896118 0.568207 0.761078
0.347687 0.740448 0.789368
0.347687 0.740448 0.789368
0.347687 0.740448 0.789368
0.381805 0.743042 0.793488
0.553711 0.749207 0.793976
0.729034 0.743896 0.779907
0.852234 0.739716 0.768768
0.931366 0.735321 0.759949
0.424011 0.853821 0.784363
0.424011 0.853821 0.784363
0.424011 0.853821 0.784363
0.424011 0.853821 0.784363
0.555359 0.859772 0.773499
0.719879 0.862152 0.760437
0.856293 0.861481 0.759949
0.945465 0.854004 0.760223
0.489258 0.946625 0.778931
0.489258 0.946625 0.778931
0.489258 0.946625 0.778931
0.489258 0.946625 0.778931
0.565033 0.948303 0.765625
0.712433 0.949951 0.746735
0.844208 0.949890 0.745544
0.948364 0.949890 0.745544
0.107422 0.316345 0.894348
0.107971 0.316345 0.894348
0.252930 0.293579 0.890839
0.419556 0.260986 0.885803
0.590607 0.226929 0.880554
0.734924 0.197662 0.876038
0.849792 0.173920 0.871857
0.849792 0.173920 0.871887
0.107819 0.321472 0.893982
0.107483 0.316437 0.894714
0.237183 0.296753 0.891663
0.411713 0.262634 0.886414
0.587036 0.227753 0.881042
0.733826 0.197998 0.876434
0.851318 0.173248 0.870636
0.852356 0.173126 0.870575
0.114258 0.403809 0.889862
0.114044 0.400482 0.890167
0.187500 0.365479 0.894867
0.384094 0.336029 0.889954
0.572479 0.302094 0.884338
0.727173 0.273682 0.879639
0.846497 0.250916 0.871002
0.856964 0.249481 0.869965
0.187897 0.508728 0.886932
0.187897 0.508728 0.886932
0.221344 0.497589 0.889099
0.334229 0.461548 0.895020
0.546143 0.435242 0.889893
0.715210 0.409973 0.884949
0.840057 0.391083 0.873505
0.868469 0.387634 0.869781
0.277985 0.631683 0.884308
0.277985 0.631683 0.884308
0.277985 0.631683 0.884308
0.357941 0.614075 0.888824
0.527374 0.594635 0.890076
0.708740 0.578552 0.885651
0.841370 0.566559 0.874237
0.895325 0.563995 0.866730
0.356689 0.748871 0.882080
0.356689 0.748871 0.882080
0.356689 0.748871 0.882080
0.386902 0.746521 0.884247
0.542236 0.739929 0.885803
0.715942 0.738678 0.881073
0.850220 0.730591 0.873138
0.929626 0.727753 0.863251
0.423126 0.854767 0.880341
0.423126 0.854767 0.880341
0.423126 0.854767 0.880341
0.423126 0.854767 0.880341
0.554779 0.860535 0.881714
0.719635 0.862701 0.878235
0.854767 0.858978 0.870270
0.946930 0.857239 0.865265
0.489258 0.946625 0.876495
0.489258 0.946625 0.876495
0.489258 0.946625 0.876495
0.489258 0.946625 0.876495
0.565033 0.948303 0.871307
0.712433 0.949951 0.863312
0.848663 0.950134 0.859924
0.948853 0.949799 0.860657
0.118103 0.337158 0.961151
0.118591 0.337158 0.961151
0.261841 0.313690 0.959778
0.426331 0.281860 0.957916
0.595123 0.248657 0.955963
0.737671 0.220123 0.954285
0.851501 0.196991 0.952820
0.851501 0.196991 0.952820
0.118500 0.342194 0.961029
0.118103 0.337158 0.961151
0.245789 0.316742 0.959930
0.417694 0.283569 0.958008
0.590546 0.249573 0.955994
0.735260 0.220612 0.954315
0.852997 0.196594 0.952393
0.854065 0.196350 0.952362
0.124817 0.421692 0.959534
0.124542 0.418335 0.959564
0.195404 0.383148 0.960938
0.388763 0.353516 0.959076
0.573853 0.320465 0.956970
0.725952 0.292816 0.955231
0.848236 0.270233 0.952789
0.858276 0.268372 0.952209
0.197357 0.523010 0.958435
0.197357 0.523010 0.958435
0.229340 0.511017 0.958984
0.336975 0.473419 0.960632
0.544342 0.447174 0.958679
0.709686 0.422607 0.956848
0.841339 0.402740 0.954895
0.868866 0.398712 0.952148
0.286194 0.642029 0.957367
0.286194 0.642029 0.957367
0.286194 0.642029 0.957367
0.363281 0.621796 0.958740
0.524384 0.599945 0.959137
0.699677 0.583282 0.957428
0.838135 0.568146 0.955872
0.894012 0.562592 0.950714
0.363892 0.755737 0.956512
0.363892 0.755737 0.956512
0.363892 0.755737 0.956512
0.391815 0.750824 0.957153
0.537048 0.737152 0.957550
0.705963 0.735291 0.956238
0.842010 0.726471 0.954803
0.927643 0.720459 0.948639
0.429443 0.858643 0.955811
0.429443 0.858643 0.955811
0.429443 0.858643 0.955811
0.429443 0.858643 0.955811
0.551025 0.854156 0.956268
0.708801 0.852417 0.955322
0.848297 0.855682 0.953491
0.945618 0.851868 0.949829
0.489014 0.946747 0.954529
0.489014 0.946747 0.954529
0.489014 0.946747 0.954529
0.489014 0.946747 0.954529
0.564880 0.948395 0.955017
0.712372 0.950012 0.954620
0.848633 0.950165 0.953003
0.948212 0.948730 0.950287
