Game/Assets/LUTs/purple11-free-luts-pack/Serenity.CUBE
#Created by: Adobe Photoshop Export Color Lookup Plugin
#Copyright: (C) Copyright 2019 Purple11
TITLE "Serenity"
#LUT size
LUT_3D_SIZE 32
#data domain
DOMAIN_MIN 0.0 0.0 0.0
DOMAIN_MAX 1.0 1.0 1.0
#LUT data points
0.129028 0.184662 0.276703
0.129028 0.184662 0.276703
0.129028 0.184662 0.276703
0.129028 0.184662 0.276703
0.137085 0.184448 0.278503
0.163696 0.182281 0.283020
0.193085 0.175049 0.283447
0.224060 0.167328 0.283844
0.256744 0.159210 0.284302
0.290955 0.151733 0.285675
0.326019 0.148895 0.291382
0.362885 0.145996 0.297272
0.401733 0.142944 0.303406
0.444550 0.141541 0.306274
0.491974 0.144623 0.300049
0.537201 0.147583 0.294037
0.580231 0.150452 0.288239
0.621094 0.153198 0.282684
0.660004 0.155853 0.277313
0.696838 0.158417 0.272186
0.731750 0.160828 0.267273
0.764771 0.163147 0.262573
0.795898 0.165375 0.258087
0.825256 0.167480 0.253845
0.849884 0.169281 0.250244
0.849884 0.169281 0.250244
0.849884 0.169281 0.250244
0.849884 0.169281 0.250244
0.849884 0.169281 0.250244
0.849884 0.169281 0.250244
0.849884 0.169281 0.250244
0.849884 0.169281 0.250244
0.129028 0.184662 0.276703
0.129028 0.184662 0.276703
0.129028 0.184662 0.276703
0.129028 0.184662 0.276703
0.137238 0.184448 0.278534
0.163879 0.182220 0.283020
0.193207 0.174988 0.283417
0.224121 0.167328 0.283875
0.256805 0.159210 0.284271
0.290955 0.151733 0.285675
0.326050 0.148895 0.291382
0.362915 0.145996 0.297272
0.401764 0.142944 0.303406
0.444550 0.141541 0.306274
0.492035 0.144623 0.300049
0.537231 0.147583 0.294037
0.580231 0.150452 0.288239
0.621155 0.153198 0.282684
0.660065 0.155853 0.277313
0.696838 0.158417 0.272186
0.731750 0.160828 0.267273
0.764771 0.163147 0.262573
0.795898 0.165375 0.258087
0.825256 0.167480 0.253845
0.850555 0.169312 0.250153
0.850555 0.169312 0.250153
0.850555 0.169312 0.250153
0.850555 0.169312 0.250153
0.850555 0.169312 0.250153
0.850555 0.169312 0.250153
0.850555 0.169312 0.250153
0.850555 0.169312 0.250153
0.129028 0.184662 0.276703
0.129028 0.184662 0.276703
0.129028 0.184662 0.276703
0.129028 0.184662 0.276703
0.137482 0.184418 0.278595
0.164093 0.182190 0.283020
0.193298 0.174988 0.283447
0.224243 0.167297 0.283844
0.256866 0.159180 0.284302
0.291046 0.151703 0.285706
0.326080 0.148895 0.291382
0.362946 0.145996 0.297272
0.401764 0.142944 0.303406
0.444580 0.141541 0.306274
0.492035 0.144623 0.300049
0.537231 0.147583 0.294037
0.580261 0.150452 0.288239
0.621155 0.153198 0.282684
0.660065 0.155853 0.277313
0.696899 0.158417 0.272186
0.731781 0.160828 0.267273
0.764801 0.163147 0.262573
0.795929 0.165375 0.258087
0.825287 0.167480 0.253845
0.851440 0.169373 0.250000
0.851440 0.169373 0.250000
0.851440 0.169373 0.250000
0.851440 0.169373 0.250000
0.851440 0.169373 0.250000
0.851440 0.169373 0.250000
0.851440 0.169373 0.250000
0.851440 0.169373 0.250000
0.129028 0.184662 0.276703
0.129028 0.184662 0.276703
0.129028 0.184662 0.276703
0.129028 0.184662 0.276703
0.137787 0.184418 0.278656
0.164307 0.182129 0.283020
0.193512 0.174927 0.283447
0.224335 0.167297 0.283875
0.256927 0.159180 0.284302
0.291077 0.151703 0.285706
0.326111 0.148895 0.291382
0.362976 0.145966 0.297272
0.401794 0.142944 0.303406
0.444611 0.141541 0.306274
0.492065 0.144623 0.300049
0.537262 0.147583 0.294037
0.580261 0.150452 0.288239
0.621185 0.153229 0.282654
0.660065 0.155853 0.277313
0.696899 0.158417 0.272186
0.731781 0.160828 0.267273
0.764801 0.163147 0.262573
0.795929 0.165375 0.258087
0.825287 0.167480 0.253845
0.852539 0.169464 0.249847
0.852539 0.169464 0.249847
0.852539 0.169464 0.249847
0.852539 0.169464 0.249847
0.852539 0.169464 0.249847
0.852539 0.169464 0.249847
0.852539 0.169464 0.249847
0.852539 0.169464 0.249847
0.128052 0.190948 0.276794
0.127930 0.191833 0.276794
0.127808 0.192566 0.276794
0.127808 0.192566 0.276794
0.138916 0.192566 0.276794
0.164703 0.190155 0.282837
0.193695 0.181702 0.283447
0.224487 0.172913 0.283875
0.257050 0.163940 0.284302
0.291138 0.155853 0.285706
0.326172 0.152527 0.291382
0.363007 0.149231 0.297302
0.401825 0.145844 0.303406
0.444611 0.144196 0.306274
0.492065 0.147095 0.300049
0.537262 0.149902 0.294037
0.580292 0.152618 0.288239
0.621185 0.155304 0.282654
0.660095 0.157867 0.277313
0.696930 0.160339 0.272186
0.731812 0.162689 0.267273
0.764832 0.164978 0.262573
0.795959 0.167145 0.258087
0.825317 0.169220 0.253845
0.852936 0.171173 0.249786
0.853973 0.171265 0.249634
0.853973 0.171265 0.249634
0.853973 0.171234 0.249634
0.853973 0.171234 0.249634
0.853973 0.171234 0.249634
0.853973 0.171234 0.249634
0.853973 0.171234 0.249634
0.124695 0.213287 0.277039
0.124695 0.213287 0.277039
0.124451 0.214966 0.277039
0.124451 0.214966 0.277039
0.133789 0.214966 0.277039
0.166779 0.214966 0.277039
0.194092 0.212585 0.283356
0.224640 0.204132 0.283905
0.257141 0.195435 0.284271
0.291229 0.187622 0.285736
0.326202 0.184357 0.291412
0.363037 0.181152 0.297302
0.401855 0.177917 0.303406
0.444641 0.176270 0.306274
0.492096 0.179047 0.300018
0.537292 0.181732 0.294037
0.580292 0.184387 0.288239
0.621216 0.186951 0.282654
0.660126 0.189392 0.277313
0.696960 0.191772 0.272156
0.731842 0.194031 0.267273
0.764862 0.196228 0.262573
0.796021 0.198334 0.258087
0.825348 0.200317 0.253815
0.852936 0.202209 0.249786
0.855713 0.202423 0.249390
0.855713 0.202423 0.249390
0.855713 0.202423 0.249390
0.855713 0.202393 0.249390
0.855713 0.202393 0.249390
0.855713 0.202393 0.249390
0.855713 0.202393 0.249390
0.121185 0.237152 0.277344
0.121185 0.237152 0.277344
0.121124 0.237457 0.277313
0.120941 0.238708 0.277344
0.128845 0.238708 0.277344
0.161743 0.238708 0.277344
0.196014 0.238708 0.277344
0.224915 0.236542 0.283844
0.257233 0.228149 0.284302
0.291290 0.220581 0.285736
0.326263 0.217377 0.291412
0.363068 0.214294 0.297302
0.401886 0.211121 0.303406
0.444702 0.209564 0.306274
0.492126 0.212219 0.300018
0.537354 0.214813 0.294006
0.580322 0.217316 0.288239
0.621246 0.219757 0.282654
0.660156 0.222137 0.277313
0.696991 0.224396 0.272156
0.731873 0.226593 0.267242
0.764893 0.228699 0.262543
0.796051 0.230682 0.258087
0.825378 0.232605 0.253815
0.852997 0.234406 0.249786
0.857849 0.234741 0.249054
0.857849 0.234741 0.249054
0.857849 0.234741 0.249054
0.857849 0.234741 0.249054
0.857849 0.234741 0.249054
0.857849 0.234741 0.249054
0.857849 0.234741 0.249054
0.117523 0.262665 0.277649
0.117523 0.262665 0.277649
0.117523 0.262665 0.277649
0.117340 0.263885 0.277679
0.124451 0.263947 0.277649
0.157135 0.263947 0.277649
0.191254 0.263947 0.277649
0.226715 0.263947 0.277649
0.257385 0.261902 0.284302
0.291351 0.254608 0.285736
0.326294 0.251556 0.291412
0.363098 0.248535 0.297302
0.401917 0.245544 0.303436
0.444733 0.244019 0.306244
0.492126 0.246552 0.300018
0.537354 0.248993 0.294006
0.580353 0.251434 0.288239
0.621277 0.253754 0.282654
0.660156 0.256042 0.277313
0.696991 0.258209 0.272156
0.731903 0.260284 0.267242
0.764923 0.262329 0.262543
0.796082 0.264252 0.258087
0.825439 0.266052 0.253815
0.853027 0.267792 0.249786
0.860382 0.268250 0.248688
0.860382 0.268250 0.248688
0.860382 0.268250 0.248688
0.860382 0.268250 0.248688
0.860382 0.268250 0.248688
0.860382 0.268250 0.248688
0.860382 0.268250 0.248688
0.113129 0.291931 0.280151
0.113129 0.291931 0.280151
0.113129 0.291931 0.280151
0.113129 0.291931 0.280151
0.119873 0.293060 0.280334
0.152405 0.293060 0.280334
0.186310 0.293060 0.280334
0.221680 0.293060 0.280334
0.258453 0.293060 0.280334
0.291412 0.289886 0.285767
0.326324 0.286926 0.291412
0.363129 0.284088 0.297302
0.401917 0.281189 0.303436
0.444733 0.279785 0.306244
0.492188 0.282196 0.300018
0.537384 0.284546 0.294006
0.580383 0.286835 0.288208
0.621277 0.289062 0.282654
0.660187 0.291199 0.277283
0.697021 0.293304 0.272156
0.731964 0.295288 0.267242
0.764954 0.297211 0.262543
0.796112 0.299011 0.258087
0.825500 0.300751 0.253815
0.853058 0.302399 0.249756
0.863373 0.303040 0.248260
0.863373 0.303040 0.248260
0.863373 0.303040 0.248260
0.863373 0.303040 0.248260
0.863373 0.303040 0.248260
0.863373 0.303040 0.248260
0.863373 0.303040 0.248260
0.116394 0.325623 0.285645
0.116394 0.325623 0.285645
0.116394 0.325623 0.285645
0.116394 0.325623 0.285645
0.116638 0.325653 0.285645
0.147186 0.326385 0.285767
0.181061 0.326385 0.285767
0.216370 0.326385 0.285767
0.253113 0.326385 0.285767
0.291382 0.326385 0.285767
0.326294 0.323578 0.291412
0.363098 0.320831 0.297302
0.401886 0.318146 0.303406
0.444733 0.316833 0.306244
0.492188 0.319122 0.300018
0.537384 0.321350 0.294006
0.580383 0.323547 0.288208
0.621338 0.325684 0.282654
0.660217 0.327728 0.277283
0.697052 0.329712 0.272156
0.731995 0.331573 0.267242
0.764984 0.333405 0.262543
0.796173 0.335175 0.258057
0.825531 0.336823 0.253815
0.853149 0.338379 0.249756
0.866852 0.339172 0.247742
0.866852 0.339172 0.247742
0.866852 0.339172 0.247742
0.866852 0.339172 0.247742
0.866852 0.339172 0.247742
0.866852 0.339172 0.247742
0.866852 0.339172 0.247742
0.133240 0.360901 0.291321
0.133240 0.360901 0.291321
0.133240 0.360901 0.291321
0.133240 0.360901 0.291321
0.133240 0.360901 0.291321
0.142181 0.361328 0.291382
0.175995 0.361328 0.291382
0.211243 0.361328 0.291382
0.248047 0.361328 0.291382
0.286346 0.361328 0.291382
0.326172 0.361328 0.291382
0.363007 0.358856 0.297302
0.401825 0.356323 0.303406
0.444641 0.355164 0.306274
0.492126 0.357330 0.300018
0.537384 0.359497 0.294006
0.580383 0.361603 0.288208
0.621338 0.363617 0.282654
0.660248 0.365570 0.277283
0.697113 0.367462 0.272156
0.732025 0.369263 0.267242
0.765076 0.371002 0.262543
0.796204 0.372620 0.258057
0.825592 0.374207 0.253784
0.853210 0.375702 0.249756
0.870941 0.376678 0.247131
0.870941 0.376678 0.247131
0.870941 0.376678 0.247131
0.870941 0.376678 0.247131
0.870941 0.376678 0.247131
0.870941 0.376678 0.247131
0.870941 0.376678 0.247131
0.150970 0.397797 0.297241
0.150970 0.397797 0.297241
0.150970 0.397797 0.297241
0.150970 0.397797 0.297241
0.150970 0.397797 0.297241
0.150970 0.397797 0.297241
0.171112 0.397858 0.297241
0.206360 0.397858 0.297241
0.243164 0.397858 0.297241
0.281525 0.397858 0.297241
0.321411 0.397858 0.297241
0.362793 0.397858 0.297241
0.401703 0.395691 0.303375
0.444550 0.394653 0.306274
0.492065 0.396790 0.300049
0.537292 0.398865 0.294037
0.580353 0.400879 0.288239
0.621338 0.402802 0.282654
0.660248 0.404663 0.277283
0.697144 0.406464 0.272156
0.732056 0.408173 0.267242
0.765106 0.409821 0.262543
0.796265 0.411346 0.258057
0.825653 0.412842 0.253784
0.853271 0.414246 0.249725
0.875610 0.415405 0.246429
0.875610 0.415405 0.246429
0.875610 0.415405 0.246429
0.875610 0.415405 0.246429
0.875610 0.415405 0.246429
0.875610 0.415405 0.246429
0.875610 0.415405 0.246429
0.169647 0.436310 0.303375
0.169647 0.436310 0.303375
0.169647 0.436310 0.303375
0.169647 0.436310 0.303375
0.169647 0.436310 0.303375
0.169647 0.436310 0.303375
0.169647 0.436310 0.303375
0.201141 0.436310 0.303375
0.238159 0.436310 0.303375
0.276733 0.436310 0.303375
0.316833 0.436310 0.303375
0.358459 0.436310 0.303375
0.401642 0.436310 0.303375
0.444519 0.435364 0.306274
0.492035 0.437378 0.300049
0.537292 0.439362 0.294037
0.580353 0.441254 0.288239
0.621338 0.443054 0.282654
0.660248 0.444794 0.277283
0.697144 0.446472 0.272156
0.732056 0.448090 0.267242
0.765106 0.449615 0.262543
0.796265 0.451080 0.258057
0.825653 0.452454 0.253784
0.853271 0.453766 0.249725
0.879120 0.455017 0.245911
0.880890 0.455109 0.245667
0.880890 0.455109 0.245667
0.880890 0.455109 0.245667
0.880890 0.455109 0.245667
0.880890 0.455109 0.245667
0.880890 0.455109 0.245667
0.192322 0.477478 0.306274
0.192322 0.477478 0.306274
0.192322 0.477478 0.306274
0.192322 0.477478 0.306274
0.192322 0.477478 0.306274
0.192322 0.477478 0.306274
0.192322 0.477478 0.306274
0.198639 0.477478 0.306274
0.235748 0.477478 0.306274
0.274445 0.477478 0.306274
0.314697 0.477478 0.306274
0.356445 0.477478 0.306274
0.399750 0.477478 0.306274
0.444519 0.477478 0.306274
0.492035 0.479370 0.300049
0.537292 0.481171 0.294037
0.580353 0.482941 0.288239
0.621338 0.484619 0.282654
0.660248 0.486237 0.277283
0.697144 0.487762 0.272156
0.732056 0.489258 0.267242
0.765106 0.490662 0.262543
0.796265 0.492004 0.258057
0.825653 0.493286 0.253784
0.853271 0.494507 0.249725
0.879120 0.495667 0.245911
0.886841 0.496002 0.244781
0.886841 0.496002 0.244781
0.886841 0.496002 0.244781
0.886841 0.496002 0.244781
0.886841 0.496002 0.244781
0.886841 0.496002 0.244781
0.222504 0.520660 0.300049
0.222504 0.520660 0.300049
0.222504 0.520660 0.300049
0.222504 0.520660 0.300049
0.222504 0.520660 0.300049
0.222504 0.520660 0.300049
0.222504 0.520660 0.300049
0.222504 0.520660 0.300049
0.240906 0.520660 0.300049
0.279327 0.520660 0.300049
0.319305 0.520660 0.300049
0.360779 0.520660 0.300049
0.403809 0.520660 0.300049
0.448273 0.520660 0.300049
0.492035 0.520660 0.300049
0.537292 0.522339 0.294037
0.580353 0.523956 0.288239
0.621338 0.525482 0.282654
0.660248 0.526978 0.277283
0.697144 0.528412 0.272156
0.732056 0.529785 0.267242
0.765106 0.531067 0.262543
0.796265 0.532318 0.258057
0.825653 0.533508 0.253784
0.853271 0.534607 0.249725
0.879120 0.535675 0.245911
0.893188 0.536255 0.243835
0.893188 0.536255 0.243835
0.893188 0.536255 0.243835
0.893188 0.536255 0.243835
0.893188 0.536255 0.243835
0.893188 0.536255 0.243835
0.251312 0.562042 0.294037
0.251312 0.562042 0.294037
0.251312 0.562042 0.294037
0.251312 0.562042 0.294037
0.251312 0.562042 0.294037
0.251312 0.562042 0.294037
0.251312 0.562042 0.294037
0.251312 0.562042 0.294037
0.251312 0.562042 0.294037
0.284058 0.562042 0.294037
0.323792 0.562042 0.294037
0.364990 0.562042 0.294037
0.407715 0.562042 0.294037
0.451874 0.562042 0.294037
0.495361 0.562042 0.294037
0.537292 0.562042 0.294037
0.580353 0.563507 0.288239
0.621338 0.564941 0.282654
0.660248 0.566284 0.277283
0.697144 0.567596 0.272156
0.732056 0.568848 0.267242
0.765106 0.570038 0.262543
0.796265 0.571198 0.258057
0.825653 0.572266 0.253784
0.853271 0.573303 0.249725
0.879120 0.574280 0.245911
0.899811 0.575043 0.242828
0.899811 0.575043 0.242828
0.899811 0.575043 0.242828
0.899811 0.575043 0.242828
0.899811 0.575043 0.242828
0.899811 0.575043 0.242828
0.254700 0.566925 0.293304
0.251099 0.561737 0.294067
0.247345 0.556335 0.294861
0.243561 0.550903 0.295654
0.239716 0.545410 0.296448
0.235901 0.539886 0.297241
0.232056 0.534424 0.298035
0.228302 0.529022 0.298828
0.224609 0.523712 0.299591
0.221069 0.518616 0.300323
0.217682 0.513763 0.301056
0.238342 0.509094 0.301727
0.277252 0.504730 0.302338
0.318817 0.500824 0.302917
0.363129 0.497284 0.303436
0.410370 0.494110 0.303894
0.459991 0.491516 0.304260
0.517456 0.496216 0.296661
0.571533 0.501343 0.289429
0.622406 0.506714 0.282501
0.669983 0.512299 0.275940
0.714294 0.518158 0.269745
0.755463 0.524200 0.263916
0.793488 0.530304 0.258453
0.828522 0.536438 0.253357
0.860626 0.542694 0.248657
0.890015 0.548920 0.244293
0.896179 0.554260 0.243378
0.897064 0.559448 0.243256
0.897949 0.564575 0.243103
0.898865 0.569702 0.242981
0.899750 0.574768 0.242859
0.304871 0.639435 0.282654
0.304871 0.639435 0.282654
0.304871 0.639435 0.282654
0.304871 0.639435 0.282654
0.304871 0.639435 0.282654
0.304871 0.639435 0.282654
0.304871 0.639435 0.282654
0.304871 0.639435 0.282654
0.304871 0.639435 0.282654
0.304871 0.639435 0.282654
0.332214 0.639435 0.282654
0.372894 0.639435 0.282654
0.415100 0.639435 0.282654
0.458710 0.639435 0.282654
0.501648 0.639435 0.282654
0.543060 0.639435 0.282654
0.582947 0.639435 0.282654
0.621338 0.639435 0.282654
0.660248 0.640564 0.277283
0.697144 0.641663 0.272156
0.732056 0.642700 0.267242
0.765106 0.643677 0.262543
0.796265 0.644623 0.258057
0.825653 0.645538 0.253784
0.853271 0.646393 0.249725
0.879120 0.647186 0.245911
0.903290 0.647949 0.242310
0.913513 0.648254 0.240784
0.913513 0.648254 0.240784
0.913513 0.648254 0.240784
0.913513 0.648254 0.240784
0.913513 0.648254 0.240784
0.329712 0.675598 0.277283
0.329712 0.675598 0.277283
0.329712 0.675598 0.277283
0.329712 0.675598 0.277283
0.329712 0.675598 0.277283
0.329712 0.675598 0.277283
0.329712 0.675598 0.277283
0.329712 0.675598 0.277283
0.329712 0.675598 0.277283
0.329712 0.675598 0.277283
0.336182 0.675598 0.277283
0.376617 0.675598 0.277283
0.418579 0.675598 0.277283
0.461945 0.675598 0.277283
0.504608 0.675598 0.277283
0.545776 0.675598 0.277283
0.585419 0.675598 0.277283
0.623566 0.675598 0.277283
0.660248 0.675598 0.277283
0.697144 0.676575 0.272156
0.732056 0.677521 0.267242
0.765106 0.678406 0.262543
0.796265 0.679260 0.258057
0.825653 0.680054 0.253784
0.853271 0.680847 0.249725
0.879120 0.681549 0.245911
0.903290 0.682251 0.242310
0.920471 0.682739 0.239746
0.920471 0.682739 0.239746
0.920471 0.682739 0.239746
0.920471 0.682739 0.239746
0.920471 0.682739 0.239746
0.353302 0.710022 0.272156
0.353302 0.710022 0.272156
0.353302 0.710022 0.272156
0.353302 0.710022 0.272156
0.353302 0.710022 0.272156
0.353302 0.710022 0.272156
0.353302 0.710022 0.272156
0.353302 0.710022 0.272156
0.353302 0.710022 0.272156
0.353302 0.710022 0.272156
0.353302 0.710022 0.272156
0.380188 0.710022 0.272156
0.421906 0.710022 0.272156
0.465027 0.710022 0.272156
0.507446 0.710022 0.272156
0.548370 0.710022 0.272156
0.587799 0.710022 0.272156
0.625732 0.710022 0.272156
0.662201 0.710022 0.272156
0.697144 0.710022 0.272156
0.732056 0.710846 0.267242
0.765106 0.711639 0.262543
0.796265 0.712433 0.258057
0.825653 0.713135 0.253784
0.853271 0.713837 0.249725
0.879120 0.714478 0.245911
0.903290 0.715088 0.242310
0.925812 0.715668 0.238922
0.927490 0.715729 0.238678
0.927490 0.715729 0.238678
0.927490 0.715729 0.238678
0.927490 0.715729 0.238678
0.375641 0.742767 0.267242
0.375641 0.742767 0.267242
0.375641 0.742767 0.267242
0.375641 0.742767 0.267242
0.375641 0.742767 0.267242
0.375641 0.742767 0.267242
0.375641 0.742767 0.267242
0.375641 0.742767 0.267242
0.375641 0.742767 0.267242
0.375641 0.742767 0.267242
0.375641 0.742767 0.267242
0.383606 0.742767 0.267242
0.425110 0.742767 0.267242
0.467957 0.742767 0.267242
0.510162 0.742767 0.267242
0.550873 0.742767 0.267242
0.590088 0.742767 0.267242
0.627808 0.742767 0.267242
0.664062 0.742767 0.267242
0.698792 0.742767 0.267242
0.732056 0.742767 0.267242
0.765106 0.743500 0.262543
0.796265 0.744171 0.258057
0.825653 0.744812 0.253784
0.853271 0.745422 0.249725
0.879120 0.746002 0.245911
0.903290 0.746552 0.242310
0.925812 0.747070 0.238922
0.934479 0.747284 0.237640
0.934479 0.747284 0.237640
0.934479 0.747284 0.237640
0.934479 0.747284 0.237640
0.396820 0.773926 0.262543
0.396820 0.773926 0.262543
0.396820 0.773926 0.262543
0.396820 0.773926 0.262543
0.396820 0.773926 0.262543
0.396820 0.773926 0.262543
0.396820 0.773926 0.262543
0.396820 0.773926 0.262543
0.396820 0.773926 0.262543
0.396820 0.773926 0.262543
0.396820 0.773926 0.262543
0.396820 0.773926 0.262543
0.428131 0.773926 0.262543
0.470795 0.773926 0.262543
0.512787 0.773926 0.262543
0.553253 0.773926 0.262543
0.592255 0.773926 0.262543
0.629761 0.773926 0.262543
0.665863 0.773926 0.262543
0.700409 0.773926 0.262543
0.733490 0.773926 0.262543
0.765106 0.773926 0.262543
0.796265 0.774506 0.258057
0.825653 0.775085 0.253784
0.853271 0.775635 0.249725
0.879120 0.776123 0.245911
0.903290 0.776611 0.242310
0.925812 0.777069 0.238922
0.941406 0.777374 0.236572
0.941406 0.777374 0.236572
0.941406 0.777374 0.236572
0.941406 0.777374 0.236572
0.416840 0.803436 0.258057
0.416840 0.803436 0.258057
0.416840 0.803436 0.258057
0.416840 0.803436 0.258057
0.416840 0.803436 0.258057
0.416840 0.803436 0.258057
0.416840 0.803436 0.258057
0.416840 0.803436 0.258057
0.416840 0.803436 0.258057
0.416840 0.803436 0.258057
0.416840 0.803436 0.258057
0.416840 0.803436 0.258057
0.431061 0.803436 0.258057
0.473480 0.803436 0.258057
0.515259 0.803436 0.258057
0.555542 0.803436 0.258057
0.594330 0.803436 0.258057
0.631653 0.803436 0.258057
0.667542 0.803436 0.258057
0.701935 0.803436 0.258057
0.734833 0.803436 0.258057
0.766296 0.803436 0.258057
0.796265 0.803436 0.258057
0.825653 0.803955 0.253784
0.853271 0.804413 0.249725
0.879120 0.804871 0.245911
0.903290 0.805267 0.242310
0.925812 0.805664 0.238922
0.946747 0.806030 0.235779
0.948273 0.806061 0.235535
0.948273 0.806061 0.235535
0.948273 0.806061 0.235535
0.435699 0.831390 0.253998
0.435699 0.831390 0.253998
0.435699 0.831390 0.253998
0.435699 0.831390 0.253998
0.435699 0.831390 0.253998
0.435699 0.831390 0.253998
0.435699 0.831390 0.253998
0.435699 0.831390 0.253998
0.435699 0.831390 0.253998
0.435699 0.831390 0.253998
0.435699 0.831390 0.253998
0.435699 0.831390 0.253998
0.435699 0.831390 0.253998
0.476013 0.831390 0.253998
0.517578 0.831390 0.253937
0.557678 0.831390 0.253937
0.596283 0.831390 0.253937
0.633423 0.831390 0.253937
0.669159 0.831390 0.253937
0.703369 0.831390 0.253937
0.736115 0.831390 0.253937
0.767426 0.831390 0.253937
0.797272 0.831390 0.253937
0.825653 0.831390 0.253937
0.853271 0.831818 0.249908
0.879089 0.832184 0.246094
0.903290 0.832550 0.242493
0.925812 0.832886 0.239075
0.946747 0.833221 0.235901
0.954926 0.833344 0.234650
0.954926 0.833344 0.234650
0.954926 0.833344 0.234650
0.452850 0.857697 0.256378
0.452850 0.857697 0.256378
0.452850 0.857697 0.256378
0.452850 0.857697 0.256378
0.452850 0.857697 0.256378
0.452850 0.857697 0.256378
0.452850 0.857697 0.256378
0.452850 0.857697 0.256378
0.452850 0.857697 0.256378
0.452850 0.857697 0.256378
0.452850 0.857697 0.256378
0.452850 0.857697 0.256378
0.452850 0.857697 0.256378
0.477875 0.857697 0.256378
0.519287 0.857697 0.256378
0.559235 0.857697 0.256378
0.597717 0.857697 0.256348
0.634735 0.857697 0.256348
0.670319 0.857697 0.256348
0.704407 0.857697 0.256348
0.737061 0.857697 0.256348
0.768250 0.857697 0.256348
0.797974 0.857697 0.256348
0.826263 0.857697 0.256348
0.853119 0.857697 0.256348
0.878967 0.858032 0.252563
0.903168 0.858337 0.248962
0.925751 0.858612 0.245605
0.946686 0.858887 0.242462
0.961426 0.859070 0.240234
0.961426 0.859070 0.240234
0.961426 0.859070 0.240234
0.468933 0.882446 0.258667
0.468933 0.882446 0.258667
0.468933 0.882446 0.258667
0.468933 0.882446 0.258667
0.468933 0.882446 0.258667
0.468933 0.882446 0.258667
0.468933 0.882446 0.258667
0.468933 0.882446 0.258667
0.468933 0.882446 0.258667
0.468933 0.882446 0.258667
0.468933 0.882446 0.258667
0.468933 0.882446 0.258667
0.468933 0.882446 0.258667
0.479645 0.882446 0.258667
0.520905 0.882446 0.258667
0.560730 0.882446 0.258667
0.599060 0.882446 0.258667
0.635956 0.882446 0.258667
0.671448 0.882446 0.258667
0.705414 0.882446 0.258667
0.737946 0.882446 0.258667
0.769012 0.882446 0.258636
0.798645 0.882446 0.258636
0.826843 0.882446 0.258636
0.853607 0.882446 0.258636
0.878845 0.882446 0.258636
0.903076 0.882690 0.255096
0.925659 0.882935 0.251740
0.946625 0.883148 0.248627
0.965973 0.883362 0.245728
0.967743 0.883392 0.245483
0.967743 0.883392 0.245483
0.484070 0.905731 0.260895
0.484070 0.905731 0.260895
0.484070 0.905731 0.260895
0.484070 0.905731 0.260895
0.484070 0.905731 0.260895
0.484070 0.905731 0.260895
0.484070 0.905731 0.260895
0.484070 0.905731 0.260895
0.484070 0.905731 0.260895
0.484070 0.905731 0.260895
0.484070 0.905731 0.260895
0.484070 0.905731 0.260895
0.484070 0.905731 0.260895
0.484070 0.905731 0.260895
0.522430 0.905731 0.260895
0.562134 0.905731 0.260895
0.600342 0.905731 0.260895
0.637115 0.905731 0.260895
0.672485 0.905731 0.260895
0.706360 0.905731 0.260895
0.738770 0.905731 0.260895
0.769775 0.905731 0.260895
0.799286 0.905731 0.260864
0.827393 0.905731 0.260864
0.854065 0.905731 0.260864
0.879242 0.905731 0.260864
0.902985 0.905731 0.260864
0.925598 0.905914 0.257538
0.946594 0.906097 0.254425
0.965912 0.906250 0.251556
0.973785 0.906311 0.250397
0.973785 0.906311 0.250397
0.498199 0.927521 0.263000
0.498199 0.927521 0.263000
0.498199 0.927521 0.263000
0.498199 0.927521 0.263000
0.498199 0.927521 0.263000
0.498199 0.927521 0.263000
0.498199 0.927521 0.263000
0.498199 0.927521 0.263000
0.498199 0.927521 0.263000
0.498199 0.927521 0.263000
0.498199 0.927521 0.263000
0.498199 0.927521 0.263000
0.498199 0.927521 0.263000
0.498199 0.927521 0.263000
0.523865 0.927521 0.263000
0.563446 0.927521 0.263000
