Game/Assets/LUTs/purple11-free-luts-pack/smooth-sailing.CUBE
#Created by: Adobe Photoshop Export Color Lookup Plugin
#Copyright: (C) Copyright 2019 Purple11
TITLE "Smooth Sailing"
#LUT size
LUT_3D_SIZE 32
#data domain
DOMAIN_MIN 0.0 0.0 0.0
DOMAIN_MAX 1.0 1.0 1.0
#LUT data points
0.232025 0.266510 0.259613
0.232025 0.266510 0.259613
0.232025 0.266510 0.259613
0.232025 0.266510 0.259613
0.236969 0.266510 0.259613
0.253967 0.266510 0.259613
0.273529 0.266510 0.259613
0.294678 0.266510 0.259613
0.317322 0.266510 0.259613
0.341003 0.266510 0.259613
0.365906 0.266510 0.259613
0.391754 0.266510 0.259613
0.418488 0.266510 0.259613
0.445801 0.266510 0.259613
0.473846 0.266510 0.259613
0.502167 0.266510 0.259613
0.531067 0.266510 0.259613
0.560059 0.266510 0.259613
0.589325 0.266510 0.259613
0.618500 0.266510 0.259613
0.647675 0.266510 0.259613
0.676422 0.266510 0.259613
0.705261 0.266510 0.259613
0.733765 0.266510 0.259613
0.762054 0.266510 0.259613
0.790314 0.266510 0.259613
0.818329 0.266510 0.259613
0.846466 0.266510 0.259613
0.874390 0.266510 0.259613
0.902527 0.266510 0.259613
0.930542 0.266510 0.259613
0.958649 0.266510 0.259613
0.232025 0.266510 0.259613
0.232025 0.266510 0.259613
0.232025 0.266510 0.259613
0.232025 0.266510 0.259613
0.236969 0.266510 0.259613
0.253967 0.266510 0.259613
0.273529 0.266510 0.259613
0.294678 0.266510 0.259613
0.317322 0.266510 0.259613
0.341003 0.266510 0.259613
0.365906 0.266510 0.259613
0.391754 0.266510 0.259613
0.418488 0.266510 0.259613
0.445801 0.266510 0.259613
0.473846 0.266510 0.259613
0.502167 0.266510 0.259613
0.531067 0.266510 0.259613
0.560059 0.266510 0.259613
0.589325 0.266510 0.259613
0.618500 0.266510 0.259613
0.647675 0.266510 0.259613
0.676422 0.266510 0.259613
0.705261 0.266510 0.259613
0.733765 0.266510 0.259613
0.762054 0.266510 0.259613
0.790314 0.266510 0.259613
0.818329 0.266510 0.259613
0.846466 0.266510 0.259613
0.874390 0.266510 0.259613
0.902527 0.266510 0.259613
0.930542 0.266510 0.259613
0.958649 0.266510 0.259613
0.232025 0.266510 0.259613
0.232025 0.266510 0.259613
0.232025 0.266510 0.259613
0.232025 0.266510 0.259613
0.236969 0.266510 0.259613
0.253967 0.266510 0.259613
0.273529 0.266510 0.259613
0.294678 0.266510 0.259613
0.317322 0.266510 0.259613
0.341003 0.266510 0.259613
0.365906 0.266510 0.259613
0.391754 0.266510 0.259613
0.418488 0.266510 0.259613
0.445801 0.266510 0.259613
0.473846 0.266510 0.259613
0.502167 0.266510 0.259613
0.531067 0.266510 0.259613
0.560059 0.266510 0.259613
0.589325 0.266510 0.259613
0.618500 0.266510 0.259613
0.647675 0.266510 0.259613
0.676422 0.266510 0.259613
0.705261 0.266510 0.259613
0.733765 0.266510 0.259613
0.762054 0.266510 0.259613
0.790314 0.266510 0.259613
0.818329 0.266510 0.259613
0.846466 0.266510 0.259613
0.874390 0.266510 0.259613
0.902527 0.266510 0.259613
0.930542 0.266510 0.259613
0.958649 0.266510 0.259613
0.232025 0.266510 0.259613
0.232025 0.266510 0.259613
0.232025 0.266510 0.259613
0.232025 0.266510 0.259613
0.236969 0.266510 0.259613
0.253967 0.266510 0.259613
0.273529 0.266510 0.259613
0.294678 0.266510 0.259613
0.317322 0.266510 0.259613
0.341003 0.266510 0.259613
0.365906 0.266510 0.259613
0.391754 0.266510 0.259613
0.418488 0.266510 0.259613
0.445801 0.266510 0.259613
0.473846 0.266510 0.259613
0.502167 0.266510 0.259613
0.531067 0.266510 0.259613
0.560059 0.266510 0.259613
0.589325 0.266510 0.259613
0.618500 0.266510 0.259613
0.647675 0.266510 0.259613
0.676422 0.266510 0.259613
0.705261 0.266510 0.259613
0.733765 0.266510 0.259613
0.762054 0.266510 0.259613
0.790314 0.266510 0.259613
0.818329 0.266510 0.259613
0.846466 0.266510 0.259613
0.874390 0.266510 0.259613
0.902527 0.266510 0.259613
0.930542 0.266510 0.259613
0.958649 0.266510 0.259613
0.232025 0.270813 0.259613
0.232025 0.270813 0.259613
0.232025 0.270813 0.259613
0.232025 0.270813 0.259613
0.236969 0.270813 0.259613
0.253967 0.270813 0.259613
0.273529 0.270813 0.259613
0.294678 0.270813 0.259613
0.317322 0.270813 0.259613
0.341003 0.270813 0.259613
0.365906 0.270813 0.259613
0.391754 0.270813 0.259613
0.418488 0.270813 0.259613
0.445801 0.270813 0.259613
0.473846 0.270813 0.259613
0.502167 0.270813 0.259613
0.531067 0.270813 0.259613
0.560059 0.270813 0.259613
0.589325 0.270813 0.259613
0.618500 0.270813 0.259613
0.647675 0.270813 0.259613
0.676422 0.270813 0.259613
0.705261 0.270844 0.259613
0.733765 0.270813 0.259613
0.762054 0.270844 0.259613
0.790314 0.270813 0.259613
0.818329 0.270813 0.259613
0.846466 0.270813 0.259613
0.874390 0.270813 0.259613
0.902527 0.270813 0.259613
0.930542 0.270813 0.259613
0.958649 0.270874 0.259613
0.232025 0.285675 0.259613
0.232025 0.285675 0.259613
0.232025 0.285675 0.259613
0.232025 0.285675 0.259613
0.236969 0.285675 0.259613
0.253967 0.285675 0.259613
0.273529 0.285645 0.259613
0.294678 0.285706 0.259613
0.317322 0.285675 0.259613
0.341003 0.285706 0.259613
0.365906 0.285675 0.259613
0.391754 0.285706 0.259613
0.418488 0.285706 0.259613
0.445801 0.285645 0.259613
0.473846 0.285706 0.259613
0.502167 0.285645 0.259613
0.531067 0.285675 0.259613
0.560059 0.285706 0.259613
0.589325 0.285706 0.259613
0.618500 0.285706 0.259613
0.647675 0.285675 0.259613
0.676422 0.285645 0.259613
0.705261 0.285706 0.259613
0.733765 0.285614 0.259613
0.762054 0.285614 0.259613
0.790314 0.285645 0.259613
0.818329 0.285706 0.259613
0.846466 0.285614 0.259613
0.874390 0.285614 0.259613
0.902527 0.285645 0.259613
0.930542 0.285767 0.259613
0.958649 0.285767 0.259613
0.232025 0.302673 0.259613
0.232025 0.302673 0.259613
0.232025 0.302673 0.259613
0.232025 0.302673 0.259613
0.236969 0.302673 0.259613
0.253937 0.302673 0.259613
0.273529 0.302673 0.259613
0.294678 0.302673 0.259613
0.317322 0.302673 0.259613
0.341003 0.302704 0.259613
0.365906 0.302704 0.259613
0.391754 0.302673 0.259613
0.418488 0.302673 0.259613
0.445801 0.302643 0.259613
0.473846 0.302643 0.259613
0.502167 0.302643 0.259613
0.531067 0.302673 0.259613
0.560059 0.302704 0.259613
0.589325 0.302673 0.259613
0.618500 0.302643 0.259613
0.647675 0.302704 0.259613
0.676422 0.302673 0.259613
0.705261 0.302673 0.259613
0.733765 0.302643 0.259613
0.762054 0.302673 0.259613
0.790314 0.302673 0.259613
0.818329 0.302673 0.259613
0.846466 0.302673 0.259613
0.874390 0.302704 0.259613
0.902527 0.302643 0.259613
0.930542 0.302673 0.259613
0.958649 0.302704 0.259613
0.232025 0.321106 0.259613
0.232025 0.321106 0.259613
0.232025 0.321106 0.259613
0.232025 0.321106 0.259613
0.236969 0.321106 0.259613
0.253998 0.321106 0.259613
0.273529 0.321106 0.259613
0.294678 0.321106 0.259613
0.317322 0.321106 0.259613
0.341003 0.321136 0.259613
0.365906 0.321106 0.259613
0.391754 0.321136 0.259613
0.418488 0.321106 0.259613
0.445801 0.321136 0.259613
0.473846 0.321106 0.259613
0.502167 0.321075 0.259613
0.531067 0.321106 0.259613
0.560059 0.321075 0.259613
0.589325 0.321136 0.259613
0.618500 0.321106 0.259613
0.647675 0.321136 0.259613
0.676422 0.321106 0.259613
0.705261 0.321106 0.259613
0.733765 0.321167 0.259613
0.762054 0.321136 0.259613
0.790314 0.321136 0.259613
0.818329 0.321136 0.259613
0.846466 0.321136 0.259613
0.874390 0.321106 0.259613
0.902527 0.321167 0.259613
0.930542 0.321136 0.259613
0.958649 0.321136 0.259613
0.232025 0.340820 0.259613
0.232025 0.340820 0.259613
0.232025 0.340820 0.259613
0.232025 0.340820 0.259613
0.236969 0.340820 0.259613
0.253967 0.340820 0.259613
0.273529 0.340820 0.259613
0.294678 0.340820 0.259613
0.317322 0.340820 0.259613
0.341003 0.340820 0.259613
0.365906 0.340851 0.259613
0.391754 0.340820 0.259613
0.418488 0.340851 0.259613
0.445801 0.340851 0.259613
0.473846 0.340881 0.259613
0.502167 0.340881 0.259613
0.531067 0.340851 0.259613
0.560059 0.340790 0.259613
0.589325 0.340790 0.259613
0.618500 0.340881 0.259613
0.647675 0.340790 0.259613
0.676422 0.340790 0.259613
0.705261 0.340790 0.259613
0.733765 0.340881 0.259613
0.762054 0.340790 0.259613
0.790314 0.340881 0.259613
0.818329 0.340790 0.259613
0.846466 0.340881 0.259613
0.874390 0.340790 0.259613
0.902527 0.340851 0.259613
0.930542 0.340790 0.259613
0.958649 0.340820 0.259613
0.232025 0.361481 0.259613
0.232025 0.361481 0.259613
0.232025 0.361481 0.259613
0.232025 0.361481 0.259613
0.236969 0.361481 0.259613
0.253998 0.361481 0.259613
0.273560 0.361481 0.259613
0.294708 0.361481 0.259613
0.317322 0.361481 0.259613
0.341003 0.361481 0.259613
0.365906 0.361420 0.259613
0.391754 0.361420 0.259613
0.418488 0.361481 0.259613
0.445801 0.361511 0.259613
0.473846 0.361420 0.259613
0.502167 0.361542 0.259613
0.531067 0.361511 0.259613
0.560059 0.361389 0.259613
0.589325 0.361511 0.259613
0.618500 0.361420 0.259613
0.647675 0.361420 0.259613
0.676422 0.361389 0.259613
0.705261 0.361542 0.259613
0.733765 0.361542 0.259613
0.762054 0.361481 0.259613
0.790314 0.361633 0.259613
0.818329 0.361511 0.259613
0.846466 0.361389 0.259613
0.874390 0.361633 0.259613
0.902527 0.361420 0.259613
0.930542 0.361542 0.259613
0.958649 0.361420 0.259613
0.232025 0.383179 0.259613
0.232025 0.383179 0.259613
0.232025 0.383179 0.259613
0.232025 0.383179 0.259613
0.236969 0.383179 0.259613
0.253967 0.383179 0.259613
0.273560 0.383179 0.259613
0.294678 0.383179 0.259613
0.317352 0.383179 0.259613
0.340942 0.383179 0.259613
0.365906 0.383179 0.259613
0.391754 0.383209 0.259613
0.418488 0.383148 0.259613
0.445801 0.383209 0.259613
0.473846 0.383209 0.259613
0.502167 0.383209 0.259613
0.531067 0.383209 0.259613
0.560059 0.383148 0.259613
0.589325 0.383118 0.259613
0.618500 0.383240 0.259613
0.647675 0.383209 0.259613
0.676422 0.383118 0.259613
0.705261 0.383209 0.259613
0.733765 0.383209 0.259613
0.762054 0.383240 0.259613
0.790314 0.383118 0.259613
0.818329 0.383118 0.259613
0.846466 0.383179 0.259613
0.874390 0.383209 0.259613
0.902527 0.383118 0.259613
0.930542 0.383118 0.259613
0.958649 0.383118 0.259613
0.232025 0.405670 0.259613
0.232025 0.405670 0.259613
0.232025 0.405670 0.259613
0.232025 0.405670 0.259613
0.236969 0.405670 0.259613
0.253998 0.405670 0.259613
0.273529 0.405670 0.259613
0.294708 0.405670 0.259613
0.317322 0.405670 0.259613
0.340942 0.405670 0.259613
0.365936 0.405670 0.259613
0.391754 0.405670 0.259613
0.418488 0.405731 0.259613
0.445801 0.405731 0.259613
0.473846 0.405670 0.259613
0.502167 0.405731 0.259613
0.531067 0.405731 0.259613
0.560059 0.405670 0.259613
0.589325 0.405670 0.259613
0.618500 0.405670 0.259613
0.647675 0.405762 0.259613
0.676422 0.405609 0.259613
0.705261 0.405731 0.259613
0.733765 0.405731 0.259613
0.762054 0.405609 0.259613
0.790314 0.405670 0.259613
0.818329 0.405731 0.259613
0.846466 0.405762 0.259613
0.874390 0.405670 0.259613
0.902527 0.405792 0.259613
0.930542 0.405731 0.259613
0.958649 0.405579 0.259613
0.232025 0.428986 0.259613
0.232025 0.428986 0.259613
0.232025 0.428986 0.259613
0.232025 0.428986 0.259613
0.236969 0.428986 0.259613
0.253998 0.428986 0.259613
0.273529 0.428986 0.259613
0.294678 0.428986 0.259613
0.317352 0.428986 0.259613
0.341003 0.428986 0.259613
0.365875 0.428986 0.259613
0.391815 0.428986 0.259613
0.418488 0.428986 0.259613
0.445801 0.428986 0.259613
0.473846 0.428986 0.259613
0.502167 0.428986 0.259613
0.531067 0.428986 0.259613
0.560059 0.428955 0.259613
0.589325 0.429016 0.259613
0.618500 0.428986 0.259613
0.647675 0.428955 0.259613
0.676422 0.428955 0.259613
0.705261 0.428986 0.259613
0.733765 0.428986 0.259613
0.762054 0.428986 0.259613
0.790314 0.428986 0.259613
0.818329 0.428955 0.259613
0.846466 0.428955 0.259613
0.874390 0.428955 0.259613
0.902527 0.428986 0.259613
0.930542 0.428955 0.259613
0.958649 0.429077 0.259613
0.232025 0.452789 0.259613
0.232025 0.452789 0.259613
0.232025 0.452789 0.259613
0.232025 0.452789 0.259613
0.236969 0.452789 0.259613
0.253937 0.452789 0.259613
0.273499 0.452789 0.259613
0.294708 0.452789 0.259613
0.317352 0.452789 0.259613
0.341034 0.452789 0.259613
0.365936 0.452789 0.259613
0.391815 0.452789 0.259613
0.418488 0.452789 0.259613
0.445801 0.452789 0.259613
0.473846 0.452759 0.259613
0.502167 0.452820 0.259613
0.531067 0.452820 0.259613
0.560059 0.452789 0.259613
0.589325 0.452789 0.259613
0.618500 0.452759 0.259613
0.647675 0.452789 0.259613
0.676422 0.452881 0.259613
0.705261 0.452789 0.259613
0.733765 0.452789 0.259613
0.762054 0.452881 0.259613
0.790314 0.452820 0.259613
0.818329 0.452820 0.259613
0.846466 0.452789 0.259613
0.874390 0.452881 0.259613
0.902527 0.452789 0.259613
0.930542 0.452820 0.259613
0.958649 0.452881 0.259613
0.232025 0.477234 0.259613
0.232025 0.477234 0.259613
0.232025 0.477234 0.259613
0.232025 0.477234 0.259613
0.236969 0.477234 0.259613
0.253998 0.477234 0.259613
0.273499 0.477234 0.259613
0.294678 0.477234 0.259613
0.317383 0.477234 0.259613
0.340942 0.477234 0.259613
0.365936 0.477234 0.259613
0.391724 0.477234 0.259613
0.418488 0.477234 0.259613
0.445770 0.477234 0.259613
0.473846 0.477234 0.259613
0.502167 0.477234 0.259613
0.531067 0.477234 0.259613
0.560059 0.477234 0.259613
0.589325 0.477264 0.259613
0.618500 0.477234 0.259613
0.647675 0.477234 0.259613
0.676422 0.477264 0.259613
0.705261 0.477173 0.259613
0.733765 0.477203 0.259613
0.762054 0.477203 0.259613
0.790314 0.477264 0.259613
0.818329 0.477142 0.259613
0.846466 0.477264 0.259613
0.874390 0.477234 0.259613
0.902527 0.477173 0.259613
0.930542 0.477142 0.259613
0.958649 0.477264 0.259613
0.232025 0.501892 0.259613
0.232025 0.501892 0.259613
0.232025 0.501892 0.259613
0.232025 0.501892 0.259613
0.236969 0.501892 0.259613
0.253937 0.501892 0.259613
0.273499 0.501892 0.259613
0.294647 0.501892 0.259613
0.317383 0.501892 0.259613
0.341095 0.501892 0.259613
0.365936 0.501892 0.259613
0.391815 0.501892 0.259613
0.418488 0.501892 0.259613
0.445831 0.501892 0.259613
0.473846 0.501892 0.259613
0.502167 0.501892 0.259613
0.531067 0.501923 0.259613
0.560059 0.501892 0.259613
0.589325 0.501892 0.259613
0.618500 0.501953 0.259613
0.647675 0.501923 0.259613
0.676422 0.501953 0.259613
0.705261 0.501953 0.259613
0.733765 0.501892 0.259613
0.762054 0.501923 0.259613
0.790314 0.501984 0.259613
0.818329 0.501892 0.259613
0.846466 0.501831 0.259613
0.874390 0.501862 0.259613
0.902527 0.501984 0.259613
0.930542 0.501923 0.259613
0.958649 0.501923 0.259613
0.232025 0.527069 0.259613
0.232025 0.527069 0.259613
0.232025 0.527069 0.259613
0.232025 0.527069 0.259613
0.236969 0.527069 0.259613
0.253967 0.527069 0.259613
0.273529 0.527069 0.259613
0.294678 0.527069 0.259613
0.317352 0.527069 0.259613
0.341034 0.527069 0.259613
0.365936 0.527069 0.259613
0.391815 0.527069 0.259613
0.418488 0.527069 0.259613
0.445831 0.527069 0.259613
0.473846 0.527069 0.259613
0.502197 0.527069 0.259613
0.531067 0.527069 0.259613
0.560059 0.527069 0.259613
0.589325 0.527069 0.259613
0.618500 0.527039 0.259613
0.647675 0.527100 0.259613
0.676422 0.527100 0.259613
0.705261 0.527069 0.259613
0.733765 0.527008 0.259613
0.762054 0.527130 0.259613
0.790314 0.527008 0.259613
0.818329 0.527130 0.259613
0.846466 0.527039 0.259613
0.874390 0.527130 0.259613
0.902527 0.527100 0.259613
0.930542 0.527130 0.259613
0.958649 0.527039 0.259613
0.232025 0.552307 0.259613
0.232025 0.552307 0.259613
0.232025 0.552307 0.259613
0.232025 0.552307 0.259613
0.236969 0.552307 0.259613
0.254028 0.552307 0.259613
0.273560 0.552307 0.259613
0.294647 0.552307 0.259613
0.317291 0.552307 0.259613
0.340942 0.552307 0.259613
0.365875 0.552307 0.259613
0.391724 0.552307 0.259613
0.418457 0.552307 0.259613
0.445801 0.552307 0.259613
0.473846 0.552307 0.259613
0.502167 0.552307 0.259613
0.531067 0.552307 0.259613
0.560059 0.552307 0.259613
0.589325 0.552246 0.259613
0.618500 0.552338 0.259613
0.647675 0.552368 0.259613
0.676422 0.552338 0.259613
0.705261 0.552277 0.259613
0.733765 0.552368 0.259613
0.762054 0.552246 0.259613
0.790314 0.552246 0.259613
0.818329 0.552277 0.259613
0.846466 0.552307 0.259613
0.874390 0.552338 0.259613
0.902527 0.552277 0.259613
0.930542 0.552277 0.259613
0.958649 0.552246 0.259613
0.232025 0.577850 0.259613
0.232025 0.577850 0.259613
0.232025 0.577850 0.259613
0.232025 0.577850 0.259613
0.236969 0.577850 0.259613
0.253998 0.577850 0.259613
0.273529 0.577850 0.259613
0.294708 0.577850 0.259613
0.317291 0.577850 0.259613
0.341034 0.577850 0.259613
0.365845 0.577850 0.259613
0.391754 0.577850 0.259613
0.418518 0.577850 0.259613
0.445801 0.577850 0.259613
0.473877 0.577850 0.259613
0.502136 0.577850 0.259613
0.531067 0.577850 0.259613
0.559998 0.577850 0.259613
0.589325 0.577850 0.259613
0.618500 0.577789 0.259613
0.647675 0.577789 0.259613
0.676422 0.577881 0.259613
0.705261 0.577789 0.259613
0.733765 0.577881 0.259613
0.762054 0.577850 0.259613
0.790314 0.577820 0.259613
0.818329 0.577881 0.259613
0.846466 0.577881 0.259613
0.874390 0.577820 0.259613
0.902527 0.577789 0.259613
0.930542 0.577911 0.259613
0.958649 0.577789 0.259613
0.232025 0.603241 0.259613
0.232025 0.603241 0.259613
0.232025 0.603241 0.259613
0.232025 0.603241 0.259613
0.236969 0.603241 0.259613
0.253998 0.603241 0.259613
0.273499 0.603241 0.259613
0.294678 0.603241 0.259613
0.317383 0.603241 0.259613
0.340942 0.603241 0.259613
0.365967 0.603241 0.259613
0.391724 0.603241 0.259613
0.418488 0.603241 0.259613
0.445770 0.603241 0.259613
0.473846 0.603241 0.259613
0.502228 0.603241 0.259613
0.531036 0.603241 0.259613
0.560089 0.603241 0.259613
0.589264 0.603241 0.259613
0.618500 0.603241 0.259613
0.647675 0.603241 0.259613
0.676422 0.603241 0.259613
0.705261 0.603210 0.259613
0.733765 0.603302 0.259613
0.762054 0.603302 0.259613
0.790314 0.603241 0.259613
0.818329 0.603241 0.259613
0.846466 0.603210 0.259613
0.874390 0.603210 0.259613
0.902527 0.603333 0.259613
0.930542 0.603241 0.259613
0.958649 0.603363 0.259613
0.232025 0.628662 0.259613
0.232025 0.628662 0.259613
0.232025 0.628662 0.259613
0.232025 0.628662 0.259613
0.236969 0.628662 0.259613
0.253967 0.628662 0.259613
0.273560 0.628662 0.259613
0.294708 0.628662 0.259613
0.317291 0.628662 0.259613
0.340942 0.628662 0.259613
0.365936 0.628662 0.259613
0.391846 0.628662 0.259613
0.418427 0.628662 0.259613
0.445801 0.628662 0.259613
0.473846 0.628662 0.259613
0.502197 0.628662 0.259613
0.531097 0.628662 0.259613
0.560120 0.628662 0.259613
0.589264 0.628662 0.259613
0.618469 0.628662 0.259613
0.647675 0.628662 0.259613
0.676422 0.628662 0.259613
0.705261 0.628693 0.259613
0.733765 0.628693 0.259613
0.762054 0.628601 0.259613
0.790314 0.628693 0.259613
0.818329 0.628693 0.259613
0.846466 0.628632 0.259613
0.874390 0.628693 0.259613
0.902527 0.628693 0.259613
0.930542 0.628693 0.259613
0.958649 0.628723 0.259613
0.232025 0.653717 0.259613
0.232025 0.653717 0.259613
0.232025 0.653717 0.259613
0.232025 0.653717 0.259613
0.236969 0.653717 0.259613
0.253937 0.653717 0.259613
0.273529 0.653717 0.259613
0.294678 0.653717 0.259613
0.317291 0.653717 0.259613
0.340942 0.653717 0.259613
0.365845 0.653717 0.259613
0.391663 0.653717 0.259613
0.418427 0.653717 0.259613
0.445892 0.653717 0.259613
0.473877 0.653717 0.259613
0.502228 0.653717 0.259613
0.531097 0.653717 0.259613
0.560089 0.653717 0.259613
0.589355 0.653717 0.259613
0.618500 0.653717 0.259613
0.647675 0.653717 0.259613
0.676422 0.653717 0.259613
0.705261 0.653717 0.259613
0.733765 0.653717 0.259613
0.762054 0.653717 0.259613
0.790314 0.653748 0.259613
0.818329 0.653687 0.259613
0.846466 0.653717 0.259613
0.874390 0.653717 0.259613
0.902527 0.653717 0.259613
0.930542 0.653687 0.259613
0.958649 0.653748 0.259613
0.232025 0.678833 0.259613
0.232025 0.678833 0.259613
0.232025 0.678833 0.259613
0.232025 0.678833 0.259613
0.237000 0.678833 0.259613
0.253998 0.678833 0.259613
0.273529 0.678833 0.259613
0.294678 0.678833 0.259613
0.317291 0.678833 0.259613
0.341095 0.678833 0.259613
0.365936 0.678833 0.259613
0.391815 0.678833 0.259613
0.418488 0.678833 0.259613
0.445801 0.678833 0.259613
0.473816 0.678833 0.259613
0.502228 0.678833 0.259613
0.531067 0.678833 0.259613
0.560028 0.678833 0.259613
0.589264 0.678833 0.259613
0.618439 0.678833 0.259613
0.647705 0.678833 0.259613
0.676422 0.678833 0.259613
0.705261 0.678833 0.259613
0.733765 0.678833 0.259613
0.762054 0.678864 0.259613
0.790314 0.678772 0.259613
0.818329 0.678833 0.259613
0.846466 0.678894 0.259613
0.874390 0.678802 0.259613
0.902527 0.678772 0.259613
0.930542 0.678864 0.259613
0.958649 0.678833 0.259613
0.232025 0.703644 0.259613
0.232025 0.703644 0.259613
0.232025 0.703644 0.259613
0.232025 0.703644 0.259613
0.236969 0.703644 0.259613
0.253937 0.703644 0.259613
0.273499 0.703644 0.259613
0.294708 0.703644 0.259613
0.317383 0.703644 0.259613
0.341095 0.703644 0.259613
0.365936 0.703644 0.259613
0.391815 0.703644 0.259613
0.418488 0.703644 0.259613
0.445801 0.703644 0.259613
0.473846 0.703644 0.259613
0.502136 0.703644 0.259613
0.531006 0.703644 0.259613
0.560120 0.703644 0.259613
0.589386 0.703644 0.259613
0.618561 0.703644 0.259613
0.647705 0.703644 0.259613
0.676422 0.703644 0.259613
0.705261 0.703644 0.259613
0.733765 0.703644 0.259613
0.762054 0.703613 0.259613
0.790314 0.703613 0.259613
0.818329 0.703583 0.259613
0.846466 0.703613 0.259613
0.874390 0.703705 0.259613
0.902527 0.703705 0.259613
0.930542 0.703613 0.259613
0.958649 0.703644 0.259613
0.232025 0.728333 0.259613
0.232025 0.728333 0.259613
0.232025 0.728333 0.259613
0.232025 0.728333 0.259613
0.237000 0.728333 0.259613
0.253937 0.728333 0.259613
0.273529 0.728333 0.259613
0.294708 0.728333 0.259613
0.317291 0.728333 0.259613
0.341003 0.728333 0.259613
0.365967 0.728333 0.259613
0.391663 0.728333 0.259613
0.418488 0.728333 0.259613
0.445892 0.728333 0.259613
0.473846 0.728333 0.259613
0.502197 0.728333 0.259613
0.531128 0.728333 0.259613
0.559998 0.728333 0.259613
0.589325 0.728333 0.259613
0.618561 0.728333 0.259613
0.647583 0.728333 0.259613
0.676422 0.728333 0.259613
0.705292 0.728333 0.259613
0.733734 0.728333 0.259613
0.762054 0.728333 0.259613
0.790314 0.728333 0.259613
0.818329 0.728333 0.259613
0.846466 0.728363 0.259613
0.874390 0.728363 0.259613
0.902527 0.728363 0.259613
0.930542 0.728363 0.259613
0.958649 0.728333 0.259613
0.232025 0.752960 0.259613
0.232025 0.752960 0.259613
0.232025 0.752960 0.259613
0.232025 0.752960 0.259613
0.236969 0.752960 0.259613
0.253937 0.752960 0.259613
0.273529 0.752960 0.259613
0.294708 0.752960 0.259613
0.317383 0.752960 0.259613
0.341187 0.752960 0.259613
0.365845 0.752960 0.259613
0.391724 0.752960 0.259613
0.418488 0.752960 0.259613
0.445831 0.752960 0.259613
0.473877 0.752960 0.259613
0.502258 0.752960 0.259613
0.531006 0.752960 0.259613
0.559998 0.752960 0.259613
0.589294 0.752960 0.259613
0.618500 0.752960 0.259613
0.647705 0.752960 0.259613
0.676453 0.752960 0.259613
0.705200 0.752960 0.259613
0.733734 0.752960 0.259613
0.762024 0.752960 0.259613
0.790314 0.752960 0.259613
0.818329 0.752899 0.259613
0.846466 0.753021 0.259613
0.874390 0.752930 0.259613
0.902527 0.752960 0.259613
0.930542 0.752899 0.259613
0.958649 0.752899 0.259613
0.232025 0.777344 0.259613
0.232025 0.777344 0.259613
0.232025 0.777344 0.259613
0.232025 0.777344 0.259613
0.236969 0.777344 0.259613
0.254028 0.777344 0.259613
0.273529 0.777344 0.259613
0.294708 0.777344 0.259613
0.317291 0.777344 0.259613
0.341034 0.777344 0.259613
0.365845 0.777344 0.259613
0.391815 0.777344 0.259613
0.418427 0.777344 0.259613
0.445831 0.777344 0.259613
0.473785 0.777344 0.259613
0.502167 0.777344 0.259613
0.531128 0.777344 0.259613
0.560028 0.777344 0.259613
0.589386 0.777344 0.259613
0.618469 0.777344 0.259613
0.647705 0.777344 0.259613
0.676392 0.777344 0.259613
0.705292 0.777344 0.259613
0.733704 0.777344 0.259613
0.762054 0.777344 0.259613
0.790253 0.777344 0.259613
0.818329 0.777344 0.259613
0.846466 0.777283 0.259613
0.874390 0.777252 0.259613
0.902527 0.777283 0.259613
0.930542 0.777344 0.259613
0.958649 0.777252 0.259613
0.232025 0.801849 0.259613
0.232025 0.801849 0.259613
0.232025 0.801849 0.259613
0.232025 0.801849 0.259613
0.236969 0.801849 0.259613
0.253937 0.801849 0.259613
0.273529 0.801849 0.259613
0.294708 0.801849 0.259613
0.317383 0.801849 0.259613
0.340942 0.801849 0.259613
0.365906 0.801849 0.259613
0.391846 0.801849 0.259613
0.418427 0.801849 0.259613
0.445801 0.801849 0.259613
0.473877 0.801849 0.259613
0.502075 0.801849 0.259613
