Game/Assets/LUTs/purple11-free-luts-pack/smooth-sailing.CUBE
#Created by: Adobe Photoshop Export Color Lookup Plugin
#Copyright: (C) Copyright 2019 Purple11
TITLE "Smooth Sailing"
#LUT size
LUT_3D_SIZE 8
#data domain
#LUT data points
DOMAIN_MIN 0.000000 0.000000 0.000000
DOMAIN_MAX 0.903226 0.903226 0.903226
0.232025 0.266510 0.259613
0.236969 0.266510 0.259613
0.317322 0.266510 0.259613
0.418488 0.266510 0.259613
0.531067 0.266510 0.259613
0.647675 0.266510 0.259613
0.762054 0.266510 0.259613
0.874390 0.266510 0.259613
0.232025 0.270813 0.259613
0.236969 0.270813 0.259613
0.317322 0.270813 0.259613
0.418488 0.270813 0.259613
0.531067 0.270813 0.259613
0.647675 0.270813 0.259613
0.762054 0.270844 0.259613
0.874390 0.270813 0.259613
0.232025 0.340820 0.259613
0.236969 0.340820 0.259613
0.317322 0.340820 0.259613
0.418488 0.340851 0.259613
0.531067 0.340851 0.259613
0.647675 0.340790 0.259613
0.762054 0.340790 0.259613
0.874390 0.340790 0.259613
0.232025 0.428986 0.259613
0.236969 0.428986 0.259613
0.317352 0.428986 0.259613
0.418488 0.428986 0.259613
0.531067 0.428986 0.259613
0.647675 0.428955 0.259613
0.762054 0.428986 0.259613
0.874390 0.428955 0.259613
0.232025 0.527069 0.259613
0.236969 0.527069 0.259613
0.317352 0.527069 0.259613
0.418488 0.527069 0.259613
0.531067 0.527069 0.259613
0.647675 0.527100 0.259613
0.762054 0.527130 0.259613
0.874390 0.527130 0.259613
0.232025 0.628662 0.259613
0.236969 0.628662 0.259613
0.317291 0.628662 0.259613
0.418427 0.628662 0.259613
0.531097 0.628662 0.259613
0.647675 0.628662 0.259613
0.762054 0.628601 0.259613
0.874390 0.628693 0.259613
0.232025 0.728333 0.259613
0.237000 0.728333 0.259613
0.317291 0.728333 0.259613
0.418488 0.728333 0.259613
0.531128 0.728333 0.259613
0.647583 0.728333 0.259613
0.762054 0.728333 0.259613
0.874390 0.728363 0.259613
0.232025 0.826202 0.259613
0.236969 0.826202 0.259613
0.317291 0.826202 0.259613
0.418427 0.826202 0.259613
0.531158 0.826202 0.259613
0.647705 0.826202 0.259613
0.762085 0.826202 0.259613
0.874390 0.826202 0.259613
0.232025 0.266510 0.295258
0.236969 0.266510 0.295258
0.317322 0.266510 0.295258
0.418488 0.266510 0.295227
0.531067 0.266510 0.295258
0.647675 0.266510 0.295227
0.762054 0.266510 0.295258
0.874390 0.266510 0.295227
0.232025 0.270813 0.295258
0.236969 0.270813 0.295258
0.390350 0.266510 0.259613
0.531036 0.266510 0.259613
0.647675 0.266510 0.259613
0.762054 0.266510 0.259613
0.874390 0.266510 0.259613
0.958649 0.266510 0.259613
0.232025 0.340820 0.295258
0.232025 0.404449 0.259613
0.390350 0.404449 0.259613
0.531036 0.340820 0.259613
0.647675 0.314819 0.259613
0.762054 0.302673 0.259613
0.874390 0.295715 0.259613
0.958649 0.302734 0.259613
0.232025 0.428986 0.295227
0.232025 0.527039 0.259613
0.317322 0.527039 0.259613
0.531036 0.527039 0.259613
0.647675 0.460815 0.259613
0.762054 0.428986 0.259613
0.874390 0.410278 0.259613
0.958649 0.405609 0.259613
0.232025 0.527069 0.295258
0.232025 0.628662 0.259613
0.287476 0.628662 0.259613
0.455048 0.628662 0.259613
0.647675 0.628662 0.259613
0.762054 0.577850 0.259613
0.874390 0.547363 0.259613
0.958649 0.527069 0.259613
0.232025 0.628662 0.295227
0.232025 0.728333 0.259613
0.273529 0.728333 0.259613
0.418488 0.728333 0.259613
0.589325 0.728333 0.259613
0.762054 0.728333 0.259613
0.874390 0.688721 0.259613
0.958649 0.653748 0.259613
0.232025 0.728333 0.295258
0.232025 0.826202 0.259613
0.265503 0.826202 0.259613
0.397034 0.826202 0.259613
0.554382 0.826202 0.259613
0.716614 0.826202 0.259613
0.874390 0.826202 0.259613
0.958649 0.777252 0.259613
0.232025 0.826202 0.295227
0.232025 0.899597 0.259613
0.273590 0.899597 0.259613
0.391663 0.899597 0.259613
0.531067 0.899597 0.259613
0.676453 0.899597 0.259613
0.818237 0.899597 0.259613
0.958649 0.899597 0.259613
0.232025 0.266510 0.361816
0.236969 0.266510 0.361816
0.317322 0.266510 0.361816
0.418488 0.266510 0.361847
0.531067 0.266510 0.361847
0.647675 0.266510 0.361786
0.762054 0.266510 0.361786
0.874390 0.266510 0.361786
0.232025 0.270813 0.361816
0.232025 0.266510 0.418488
0.390350 0.266510 0.418488
0.531036 0.266510 0.361816
0.647675 0.266510 0.338104
0.762054 0.266510 0.326843
0.874390 0.266510 0.320282
0.958649 0.266510 0.326874
0.232025 0.340820 0.361816
0.232025 0.404449 0.418488
0.317322 0.340820 0.361816
0.500610 0.286560 0.311554
0.702118 0.266510 0.268982
0.874390 0.266510 0.259613
0.958649 0.266510 0.259613
0.958649 0.285675 0.310638
0.232025 0.428986 0.361847
0.232025 0.527039 0.361816
0.255005 0.500549 0.311554
0.500610 0.500549 0.311554
0.702118 0.428986 0.268982
0.874390 0.368591 0.259613
0.958649 0.351044 0.259613
0.958649 0.387665 0.310638
0.232025 0.527069 0.361847
0.232025 0.628662 0.338104
0.232025 0.676086 0.268982
0.418488 0.676086 0.268982
0.702118 0.676086 0.268982
0.874390 0.594818 0.259613
0.958649 0.527069 0.259613
0.958649 0.512024 0.310638
0.232025 0.628662 0.361786
0.232025 0.728333 0.326843
0.232025 0.826202 0.259613
0.349182 0.826202 0.259613
0.608795 0.826202 0.259613
0.874390 0.826202 0.259613
0.958649 0.716003 0.259613
0.958649 0.643829 0.310638
0.232025 0.728333 0.361786
0.232025 0.826202 0.320282
0.232025 0.899597 0.259613
0.329010 0.899597 0.259613
0.531067 0.899597 0.259613
0.747925 0.899597 0.259613
0.958649 0.899597 0.259613
0.958649 0.772461 0.310638
0.232025 0.826202 0.361786
0.232025 0.899597 0.326874
0.253967 0.899597 0.310638
0.371063 0.899597 0.310638
0.513763 0.899597 0.310638
0.665100 0.899597 0.310638
0.812744 0.899597 0.310638
0.958649 0.899597 0.310638
0.232025 0.266510 0.439941
0.236969 0.266510 0.439941
0.317352 0.266510 0.439941
0.418488 0.266510 0.439941
0.531067 0.266510 0.439941
0.647675 0.266510 0.439880
0.762054 0.266510 0.439941
0.874390 0.266510 0.439880
0.232025 0.270813 0.439941
0.232025 0.266510 0.525330
0.317322 0.266510 0.525330
0.531036 0.266510 0.525330
0.647675 0.266510 0.467834
0.762054 0.266510 0.439941
0.874390 0.266510 0.423462
0.958649 0.266510 0.419525
0.232025 0.340851 0.439941
0.232025 0.340820 0.525330
0.255005 0.286560 0.502472
0.500610 0.286560 0.502472
0.702118 0.266510 0.439941
0.874390 0.266510 0.386627
0.958649 0.266510 0.371063
0.958649 0.285675 0.403564
0.232025 0.428986 0.439941
0.232025 0.527039 0.525330
0.255005 0.500549 0.502472
0.418488 0.428986 0.439941
0.616913 0.362610 0.381470
0.815399 0.304657 0.328735
0.958649 0.285675 0.310638
0.958649 0.361481 0.380402
0.232025 0.527069 0.439941
0.232025 0.628662 0.467834
0.232025 0.676086 0.439941
0.342316 0.601898 0.381470
0.616913 0.601898 0.381470
0.815399 0.527069 0.328735
0.958649 0.469086 0.310638
0.958649 0.489563 0.380402
0.232025 0.628662 0.439880
0.232025 0.728333 0.439941
0.232025 0.826202 0.386627
0.275787 0.774780 0.328735
0.531067 0.774780 0.328735
0.815399 0.774780 0.328735
0.958649 0.687134 0.310638
0.958649 0.628662 0.380402
0.232025 0.728333 0.439941
0.232025 0.826202 0.423462
0.232025 0.899597 0.371063
0.253967 0.899597 0.310638
0.464539 0.899597 0.310638
0.714783 0.899597 0.310638
0.958649 0.899597 0.310638
0.958649 0.765259 0.380402
0.232025 0.826202 0.439880
0.232025 0.899597 0.419525
0.253967 0.899597 0.403564
0.341003 0.899597 0.380402
0.488037 0.899597 0.380402
0.647675 0.899597 0.380402
0.804443 0.899597 0.380402
0.958649 0.899597 0.380402
0.232025 0.266510 0.525330
0.236969 0.266510 0.525330
0.317352 0.266510 0.525330
0.418488 0.266510 0.525330
0.531067 0.266510 0.525330
0.647675 0.266510 0.525360
0.762054 0.266510 0.525391
0.874390 0.266510 0.525421
0.232025 0.270813 0.525330
0.232025 0.266510 0.613098
0.287476 0.266510 0.613098
0.455048 0.266510 0.613098
0.647675 0.266510 0.613098
0.762054 0.266510 0.569244
0.874390 0.266510 0.542969
0.958649 0.266510 0.525330
0.232025 0.340851 0.525330
0.232025 0.314819 0.613098
0.232025 0.266510 0.654114
0.418488 0.266510 0.654114
0.702118 0.266510 0.654114
0.874390 0.266510 0.583954
0.958649 0.266510 0.525330
0.958649 0.285675 0.512329
0.232025 0.428986 0.525330
0.232025 0.460815 0.613098
0.232025 0.428986 0.654114
0.342316 0.362610 0.590057
0.616913 0.362610 0.590057
0.815399 0.304657 0.525330
0.958649 0.285675 0.475037
0.958649 0.361481 0.492798
0.232025 0.527069 0.525330
0.232025 0.628662 0.613098
0.232025 0.676086 0.654114
0.342316 0.601898 0.590057
0.531067 0.527069 0.525330
0.732147 0.454132 0.462067
0.927399 0.385620 0.401825
0.958649 0.452820 0.460876
0.232025 0.628662 0.525360
0.232025 0.728333 0.569244
0.232025 0.826202 0.583954
0.275787 0.774780 0.525330
0.447357 0.702271 0.462067
0.732147 0.702271 0.462067
0.927399 0.628662 0.401825
0.958649 0.603241 0.460876
0.232025 0.728333 0.525391
0.232025 0.826202 0.542969
0.232025 0.899597 0.525330
0.253967 0.899597 0.475037
0.368713 0.872345 0.401825
0.647675 0.872345 0.401825
0.927399 0.872345 0.401825
0.958649 0.752991 0.460876
0.232025 0.826202 0.525421
0.232025 0.899597 0.525330
0.253967 0.899597 0.512329
0.341003 0.899597 0.492798
0.445831 0.899597 0.460876
0.618469 0.899597 0.460876
0.790375 0.899597 0.460876
0.958649 0.899597 0.460876
0.232025 0.266510 0.613098
0.236969 0.266510 0.613098
0.317291 0.266510 0.613098
0.418427 0.266510 0.613098
0.531097 0.266510 0.613098
0.647675 0.266510 0.613098
0.762054 0.266510 0.613068
0.874390 0.266510 0.613129
0.232025 0.270813 0.613098
0.232025 0.266510 0.698914
0.273529 0.266510 0.698914
0.418488 0.266510 0.698914
0.589325 0.266510 0.698914
0.762054 0.266510 0.698914
0.874390 0.266510 0.665039
0.958649 0.266510 0.634857
0.232025 0.340790 0.613098
0.232025 0.302673 0.698914
0.232025 0.266510 0.783020
0.349182 0.266510 0.783020
0.608795 0.266510 0.783020
0.874390 0.266510 0.783020
0.958649 0.266510 0.688446
0.958649 0.285675 0.626282
0.232025 0.428955 0.613098
0.232025 0.428986 0.698914
0.232025 0.368591 0.783020
0.275787 0.304657 0.738800
0.531067 0.304657 0.738800
0.815399 0.304657 0.738800
0.958649 0.285675 0.663635
0.958649 0.361481 0.613098
0.232025 0.527100 0.613098
0.232025 0.577850 0.698914
0.232025 0.594818 0.783020
0.275787 0.527069 0.738800
0.447357 0.454132 0.676605
0.732147 0.454132 0.676605
0.927399 0.385620 0.613098
0.958649 0.452820 0.591248
0.232025 0.628662 0.613098
0.232025 0.728333 0.698914
0.232025 0.826202 0.783020
0.275787 0.774780 0.738800
0.447357 0.702271 0.676605
0.647675 0.628662 0.613098
0.844910 0.553711 0.548553
0.958649 0.552307 0.547333
0.232025 0.728333 0.613068
0.232025 0.826202 0.665039
0.232025 0.899597 0.688446
0.253967 0.899597 0.663635
0.368713 0.872345 0.613098
0.561646 0.800476 0.548553
0.844910 0.800476 0.548553
0.958649 0.728333 0.547333
0.232025 0.826202 0.613129
0.232025 0.899597 0.634857
0.253967 0.899597 0.626282
0.341003 0.899597 0.613098
0.445831 0.899597 0.591248
0.560059 0.899597 0.547333
0.762054 0.899597 0.547333
0.958649 0.899597 0.547333
0.232025 0.266510 0.698914
0.237000 0.266510 0.698914
0.317291 0.266510 0.698914
0.418488 0.266510 0.698914
0.531128 0.266510 0.698914
0.647583 0.266510 0.698914
0.762054 0.266510 0.698914
0.874390 0.266510 0.698944
0.232025 0.270844 0.698914
0.232025 0.266510 0.783020
0.265503 0.266510 0.783020
0.397034 0.266510 0.783020
0.554382 0.266510 0.783020
0.716614 0.266510 0.783020
0.874390 0.266510 0.783020
0.958649 0.266510 0.741089
0.232025 0.340790 0.698914
0.232025 0.295715 0.783020
0.232025 0.266510 0.845764
0.329010 0.266510 0.845764
0.531067 0.266510 0.845764
0.747925 0.266510 0.845764
0.958649 0.266510 0.845764
0.958649 0.285675 0.736908
0.232025 0.428986 0.698914
0.232025 0.410278 0.783020
0.232025 0.351044 0.845764
0.253967 0.285675 0.845764
0.464539 0.285675 0.845764
0.714783 0.285675 0.845764
0.958649 0.285675 0.845764
0.958649 0.361481 0.730560
0.232025 0.527130 0.698914
0.232025 0.547363 0.783020
0.232025 0.527069 0.845764
0.253967 0.469086 0.845764
0.368713 0.385620 0.822571
0.647675 0.385620 0.822571
0.927399 0.385620 0.822571
0.958649 0.452820 0.720184
0.232025 0.628601 0.698914
0.232025 0.688721 0.783020
0.232025 0.716003 0.845764
0.253967 0.687134 0.845764
0.368713 0.628662 0.822571
0.561646 0.553711 0.760895
0.844910 0.553711 0.760895
0.958649 0.552307 0.698914
0.232025 0.728333 0.698914
0.232025 0.826202 0.783020
0.232025 0.899597 0.845764
0.253967 0.899597 0.845764
0.368713 0.872345 0.822571
0.561646 0.800476 0.760895
0.762054 0.728333 0.698914
0.957062 0.655121 0.636017
0.232025 0.826202 0.698944
0.232025 0.899597 0.741089
0.253967 0.899597 0.736908
0.341003 0.899597 0.730560
0.445831 0.899597 0.720184
0.560059 0.899597 0.698914
0.678040 0.898193 0.636017
0.957062 0.898193 0.636017
0.232025 0.266510 0.783020
0.236969 0.266510 0.783020
0.317291 0.266510 0.783020
0.418427 0.266510 0.783020
0.531158 0.266510 0.783020
0.647705 0.266510 0.783020
0.762085 0.266510 0.783020
0.874390 0.266510 0.783020
0.232025 0.270813 0.783020
0.232025 0.266510 0.845764
0.273590 0.266510 0.845764
0.391663 0.266510 0.845764
0.531067 0.266510 0.845764
0.676453 0.266510 0.845764
0.818237 0.266510 0.845764
0.958649 0.266510 0.845764
0.232025 0.340790 0.783020
0.232025 0.302734 0.845764
0.253967 0.285675 0.845764
0.371063 0.285675 0.845764
0.513763 0.285675 0.845764
0.665100 0.285675 0.845764
0.812744 0.285675 0.845764
0.958649 0.285675 0.845764
0.232025 0.428955 0.783020
0.232025 0.405609 0.845764
0.253967 0.387665 0.845764
0.341003 0.361481 0.845764
0.488037 0.361481 0.845764
0.647675 0.361481 0.845764
0.804443 0.361481 0.845764
0.958649 0.361481 0.845764
0.232025 0.527130 0.783020
0.232025 0.527069 0.845764
0.253967 0.512024 0.845764
0.341003 0.489563 0.845764
0.445831 0.452820 0.845764
0.618469 0.452820 0.845764
0.790375 0.452820 0.845764
0.958649 0.452820 0.845764
0.232025 0.628693 0.783020
0.232025 0.653748 0.845764
0.253967 0.643829 0.845764
0.341003 0.628662 0.845764
0.445831 0.603241 0.845764
0.560059 0.552307 0.845764
0.762054 0.552307 0.845764
0.958649 0.552307 0.845764
0.232025 0.728363 0.783020
0.232025 0.777252 0.845764
0.253967 0.772461 0.845764
0.341003 0.765259 0.845764
0.445831 0.752991 0.845764
0.560059 0.728333 0.845764
0.678040 0.655121 0.844757
0.957062 0.655121 0.844757
0.232025 0.826202 0.783020
0.232025 0.899597 0.845764
0.253967 0.899597 0.845764
0.341003 0.899597 0.845764
0.445831 0.899597 0.845764
0.560059 0.899597 0.845764
0.678040 0.898193 0.844757
0.874390 0.826202 0.783020
