Game/Assets/LUTs/purple11-free-luts-pack/smooth-sailing.CUBE
#Created by: Adobe Photoshop Export Color Lookup Plugin
#Copyright: (C) Copyright 2019 Purple11
TITLE "Smooth Sailing"
#LUT size
LUT_3D_SIZE 5
#data domain
#LUT data points
DOMAIN_MIN 0.000000 0.000000 0.000000
DOMAIN_MAX 0.903226 0.903226 0.903226
0.232025 0.266510 0.259613
0.294678 0.266510 0.259613
0.473846 0.266510 0.259613
0.676422 0.266510 0.259613
0.874390 0.266510 0.259613
0.232025 0.321106 0.259613
0.294678 0.321106 0.259613
0.473846 0.321106 0.259613
0.676422 0.321106 0.259613
0.874390 0.321106 0.259613
0.232025 0.477234 0.259613
0.294678 0.477234 0.259613
0.473846 0.477234 0.259613
0.676422 0.477264 0.259613
0.874390 0.477234 0.259613
0.232025 0.653717 0.259613
0.294678 0.653717 0.259613
0.473877 0.653717 0.259613
0.676422 0.653717 0.259613
0.874390 0.653717 0.259613
0.232025 0.826202 0.259613
0.294678 0.826202 0.259613
0.473846 0.826202 0.259613
0.676422 0.826202 0.259613
0.874390 0.826202 0.259613
0.232025 0.266510 0.343994
0.294678 0.266510 0.343994
0.473846 0.266510 0.343994
0.676422 0.266510 0.343964
0.874390 0.266510 0.343994
0.232025 0.321106 0.343994
0.294678 0.321106 0.343994
0.622894 0.266510 0.265869
0.874390 0.266510 0.259613
0.958649 0.270813 0.295258
0.232025 0.477234 0.343994
0.232025 0.607086 0.265869
0.622894 0.607086 0.265869
0.874390 0.477234 0.259613
0.958649 0.452759 0.295258
0.232025 0.653717 0.343964
0.232025 0.826202 0.259613
0.473846 0.826202 0.259613
0.874390 0.826202 0.259613
0.958649 0.678864 0.295258
0.232025 0.826202 0.343994
0.236969 0.899597 0.295258
0.445770 0.899597 0.295258
0.705292 0.899597 0.295258
0.958649 0.899597 0.295258
0.232025 0.266510 0.482086
0.294678 0.266510 0.482086
0.473846 0.266510 0.482086
0.676422 0.266510 0.482147
0.874390 0.266510 0.482117
0.232025 0.321106 0.482086
0.232025 0.266510 0.594604
0.622894 0.266510 0.594604
0.874390 0.266510 0.482117
0.958649 0.270813 0.460815
0.232025 0.477234 0.482086
0.232025 0.607086 0.594604
0.473846 0.477234 0.482086
0.822784 0.358307 0.377502
0.958649 0.405670 0.419586
0.232025 0.653717 0.482147
0.232025 0.826202 0.482117
0.337341 0.781219 0.377502
0.822784 0.781219 0.377502
0.958649 0.653717 0.419586
0.232025 0.826202 0.482117
0.236969 0.899597 0.460815
0.391754 0.899597 0.419586
0.676422 0.899597 0.419586
0.958649 0.899597 0.419586
0.232025 0.266510 0.634796
0.294678 0.266510 0.634796
0.473877 0.266510 0.634796
0.676422 0.266510 0.634796
0.874390 0.266510 0.634796
0.232025 0.321106 0.634796
0.232025 0.266510 0.783020
0.473846 0.266510 0.783020
0.874390 0.266510 0.783020
0.958649 0.270813 0.656372
0.232025 0.477264 0.634796
0.232025 0.477234 0.783020
0.337341 0.358307 0.744385
0.822784 0.358307 0.744385
0.958649 0.405670 0.634796
0.232025 0.653717 0.634796
0.232025 0.826202 0.783020
0.337341 0.781219 0.744385
0.676422 0.653717 0.634796
0.958649 0.577850 0.569244
0.232025 0.826202 0.634796
0.236969 0.899597 0.656372
0.391754 0.899597 0.634796
0.589325 0.899597 0.569244
0.958649 0.899597 0.569244
0.232025 0.266510 0.783020
0.294678 0.266510 0.783020
0.473846 0.266510 0.783020
0.676422 0.266510 0.783020
0.874390 0.266510 0.783020
0.232025 0.321106 0.783020
0.236969 0.270813 0.845764
0.445770 0.270813 0.845764
0.705292 0.270813 0.845764
0.958649 0.270813 0.845764
0.232025 0.477234 0.783020
0.236969 0.452759 0.845764
0.391754 0.405670 0.845764
0.676422 0.405670 0.845764
0.958649 0.405670 0.845764
0.232025 0.653717 0.783020
0.236969 0.678864 0.845764
0.391754 0.653717 0.845764
0.589325 0.577850 0.845764
0.958649 0.577850 0.845764
0.232025 0.826202 0.783020
0.236969 0.899597 0.845764
0.391754 0.899597 0.845764
0.589325 0.899597 0.845764
0.874390 0.826202 0.783020
