Game/Assets/LUTs/purple11-free-luts-pack/Undeniable 2.CUBE
#Created by: Adobe Photoshop Export Color Lookup Plugin
#Copyright: (C) Copyright 2019 Purple11
TITLE "Undeniable 2"
#LUT size
LUT_3D_SIZE 5
#data domain
#LUT data points
DOMAIN_MIN 0.000000 0.000000 0.000000
DOMAIN_MAX 0.903226 0.903226 0.903226
0.000000 0.000000 0.000000
0.000000 0.000000 0.000000
0.001892 0.001892 0.001892
0.070465 0.070465 0.070465
0.165070 0.165070 0.165070
0.000183 0.000183 0.000183
0.067780 0.067780 0.067780
0.161682 0.161682 0.161682
0.274292 0.274292 0.274292
0.399567 0.399567 0.399567
0.157928 0.157928 0.157928
0.270416 0.270416 0.270416
0.394928 0.394928 0.394928
0.525452 0.525452 0.525452
0.654175 0.654175 0.654175
0.390747 0.390747 0.390747
0.521210 0.521210 0.521210
0.650085 0.650085 0.650085
0.771393 0.771393 0.771393
0.877411 0.877411 0.877411
0.645966 0.645966 0.645966
0.767242 0.767242 0.767242
0.874268 0.874268 0.874268
0.959412 0.959412 0.959412
1.000000 1.000000 1.000000
0.000000 0.000000 0.000000
0.000000 0.000000 0.000000
0.023712 0.023712 0.023712
0.102539 0.102539 0.102539
0.204895 0.204895 0.204895
0.021393 0.021393 0.021393
0.099579 0.099579 0.099579
0.200897 0.200897 0.200897
0.319214 0.319214 0.319214
0.446747 0.446747 0.446747
0.197296 0.197296 0.197296
0.315186 0.315186 0.315186
0.442535 0.442535 0.442535
0.573364 0.573364 0.573364
0.699860 0.699860 0.699860
0.438324 0.438324 0.438324
0.568665 0.568665 0.568665
0.695892 0.695892 0.695892
0.812134 0.812134 0.812134
0.911346 0.911346 0.911346
0.691895 0.691895 0.691895
0.808594 0.808594 0.808594
0.908478 0.908478 0.908478
0.983978 0.983978 0.983978
1.000000 1.000000 1.000000
0.000000 0.000000 0.000000
0.000000 0.000000 0.000000
0.049347 0.049347 0.049347
0.137756 0.137756 0.137756
0.246521 0.246521 0.246521
0.046906 0.046906 0.046906
0.134521 0.134521 0.134521
0.242737 0.242737 0.242737
0.365417 0.365417 0.365417
0.494781 0.494781 0.494781
0.238983 0.238983 0.238983
0.360840 0.360840 0.360840
0.490540 0.490540 0.490540
0.620300 0.620300 0.620300
0.744110 0.744110 0.744110
0.486298 0.486298 0.486298
0.616150 0.616150 0.616150
0.740265 0.740265 0.740265
0.850922 0.850922 0.850922
0.941711 0.941711 0.941711
0.735992 0.735992 0.735992
0.847595 0.847595 0.847595
0.939148 0.939148 0.939148
1.000000 1.000000 1.000000
1.000000 1.000000 1.000000
0.000000 0.000000 0.000000
0.007446 0.007446 0.007446
0.078918 0.078918 0.078918
0.175781 0.175781 0.175781
0.290405 0.290405 0.290405
0.076172 0.076172 0.076172
0.171936 0.171936 0.171936
0.286469 0.286469 0.286469
0.412109 0.412109 0.412109
0.542847 0.542847 0.542847
0.282562 0.282562 0.282562
0.407928 0.407928 0.407928
0.538147 0.538147 0.538147
0.666840 0.666840 0.666840
0.786163 0.786163 0.786163
0.533905 0.533905 0.533905
0.662750 0.662750 0.662750
0.782501 0.782501 0.782501
0.887054 0.887054 0.887054
0.968781 0.968781 0.968781
0.778809 0.778809 0.778809
0.883972 0.883972 0.883972
0.966553 0.966553 0.966553
1.000000 1.000000 1.000000
1.000000 1.000000 1.000000
0.000000 0.000000 0.000000
0.030182 0.030182 0.030182
0.111908 0.111908 0.111908
0.215851 0.215851 0.215851
0.335815 0.335815 0.335815
0.108856 0.108856 0.108856
0.212189 0.212189 0.212189
0.331757 0.331757 0.331757
0.459900 0.459900 0.459900
0.590179 0.590179 0.590179
0.327271 0.327271 0.327271
0.455688 0.455688 0.455688
0.585968 0.585968 0.585968
0.712158 0.712158 0.712158
0.826477 0.826477 0.826477
0.581757 0.581757 0.581757
0.708221 0.708221 0.708221
0.823029 0.823029 0.823029
0.919800 0.919800 0.919800
0.991882 0.991882 0.991882
0.819550 0.819550 0.819550
0.916992 0.916992 0.916992
0.990021 0.990021 0.990021
1.000000 1.000000 1.000000
1.000000 1.000000 1.000000
