Game/Assets/LUTs/purple11-free-luts-pack/Undeniable.CUBE
#Created by: Adobe Photoshop Export Color Lookup Plugin
#Copyright: (C) Copyright 2019 Purple11
TITLE "Undeniable"
#LUT size
LUT_3D_SIZE 8
#data domain
#LUT data points
DOMAIN_MIN 0.000000 0.000000 0.000000
DOMAIN_MAX 0.903226 0.903226 0.903226
0.039215 0.039215 0.039215
0.039215 0.039215 0.039215
0.039215 0.039215 0.039215
0.039215 0.039215 0.039215
0.061340 0.039215 0.039215
0.196869 0.039215 0.039215
0.360596 0.039215 0.039215
0.550201 0.039215 0.039215
0.039215 0.039215 0.039215
0.039215 0.039215 0.039215
0.039215 0.039215 0.039215
0.115417 0.039215 0.039215
0.238037 0.059448 0.039215
0.390320 0.078003 0.039215
0.566528 0.094360 0.039215
0.763733 0.109039 0.039215
0.039215 0.039215 0.039215
0.039215 0.075531 0.039215
0.117737 0.117737 0.039215
0.232025 0.154663 0.039215
0.375793 0.187866 0.039215
0.542664 0.217041 0.039215
0.729248 0.243042 0.039215
0.915985 0.270752 0.039215
0.039215 0.174255 0.039215
0.076782 0.230469 0.039215
0.186890 0.280365 0.039215
0.324280 0.324280 0.039215
0.484680 0.363464 0.039215
0.656342 0.398224 0.039215
0.821533 0.434387 0.047272
0.986115 0.469910 0.082794
0.039215 0.371307 0.039215
0.107635 0.430725 0.039215
0.241272 0.482605 0.039215
0.397186 0.526276 0.039215
0.562378 0.562378 0.046173
0.726959 0.597931 0.081726
0.890656 0.632568 0.116364
1.000000 0.673401 0.237885
0.039215 0.601440 0.039215
0.138031 0.654236 0.039215
0.302734 0.689880 0.044647
0.467773 0.725891 0.080658
0.631134 0.760162 0.114929
0.792236 0.792236 0.147003
0.949463 0.820404 0.175171
1.000000 0.845642 0.459564
0.043579 0.817841 0.043579
0.208679 0.853912 0.079620
0.372040 0.888245 0.113953
0.533295 0.920441 0.146149
0.690247 0.948334 0.174042
0.842438 0.971466 0.197174
0.987823 0.987823 0.213562
1.000000 0.963501 0.744415
0.136383 1.000000 0.136383
0.338135 1.000000 0.227814
0.523560 1.000000 0.332977
0.686798 1.000000 0.451904
0.822205 1.000000 0.585114
0.925537 1.000000 0.739258
0.988464 1.000000 0.919373
1.000000 1.000000 1.000000
0.039215 0.039215 0.039215
0.039215 0.039215 0.039215
0.039215 0.039215 0.039215
0.039215 0.039215 0.039215
0.098114 0.039215 0.039215
0.236511 0.039215 0.047241
0.402527 0.039215 0.067047
0.593689 0.039215 0.084747
0.039215 0.039215 0.039215
0.039215 0.039215 0.039215
0.102997 0.039215 0.039215
0.248840 0.039215 0.039215
0.397308 0.039215 0.039215
0.546753 0.039215 0.039215
0.701508 0.056274 0.056274
0.861176 0.086884 0.086884
0.039215 0.045959 0.039215
0.039215 0.123352 0.039215
0.138733 0.138733 0.039215
0.287598 0.158539 0.039215
0.442596 0.184479 0.055450
0.602142 0.214996 0.085938
0.764343 0.248169 0.119110
0.929016 0.283783 0.154724
0.039215 0.196014 0.065308
0.039215 0.286926 0.039215
0.183624 0.312683 0.054596
0.342621 0.342621 0.084534
0.505219 0.376160 0.118073
0.669403 0.411285 0.153198
0.834686 0.447540 0.189453
0.998871 0.482666 0.224609
0.039215 0.394409 0.098541
0.083588 0.470734 0.083588
0.246124 0.504211 0.117065
0.410217 0.539307 0.152130
0.575531 0.575531 0.188354
0.739777 0.610748 0.223602
0.902618 0.644531 0.257385
1.000000 0.689331 0.378601
0.039215 0.623291 0.124603
0.151062 0.667267 0.151062
0.315887 0.703033 0.186829
0.480591 0.738708 0.222534
0.643616 0.772644 0.256470
0.802979 0.802979 0.286804
0.958435 0.829376 0.313202
1.000000 0.859131 0.577332
0.056732 0.830994 0.185760
0.221527 0.866760 0.221527
0.384064 0.900269 0.255035
0.544067 0.931213 0.285980
0.699280 0.957367 0.312134
0.849274 0.978302 0.333069
0.991974 0.991974 0.346741
1.000000 0.972443 0.834625
0.168610 1.000000 0.287415
0.370605 1.000000 0.370605
0.553223 1.000000 0.463837
0.713654 1.000000 0.570465
0.845184 1.000000 0.690308
0.943359 1.000000 0.829956
0.999390 1.000000 0.996216
1.000000 1.000000 1.000000
0.039215 0.039215 0.039215
0.039215 0.039215 0.039215
0.039215 0.039215 0.039215
0.039215 0.039215 0.039215
0.132812 0.039215 0.066345
0.274261 0.039215 0.109619
0.443695 0.039215 0.147858
0.635254 0.039215 0.181427
0.039215 0.039215 0.039215
0.039215 0.039215 0.075104
0.111725 0.039215 0.111725
0.259125 0.039215 0.130066
0.403931 0.039215 0.145813
0.555603 0.039398 0.168427
0.712158 0.066925 0.195953
0.873108 0.098816 0.227875
0.039215 0.063477 0.063477
0.039215 0.129456 0.129456
0.145264 0.145264 0.145264
0.296783 0.167725 0.167725
0.453156 0.195038 0.195038
0.614044 0.226898 0.226898
0.777130 0.260956 0.260956
0.942169 0.296936 0.296936
0.039215 0.216309 0.144135
0.039215 0.295654 0.166595
0.194183 0.323242 0.194183
0.354492 0.354492 0.225464
0.517975 0.388916 0.259888
0.682526 0.424408 0.295380
0.847778 0.460602 0.331573
1.000000 0.500153 0.375183
0.039215 0.415833 0.207886
0.095398 0.482544 0.224457
0.258850 0.516937 0.258850
0.423340 0.552429 0.294312
0.588593 0.588593 0.330475
0.752319 0.623291 0.365173
0.914154 0.656067 0.397949
1.000000 0.705963 0.509888
0.039215 0.644073 0.257599
0.164185 0.680389 0.293243
0.329437 0.716583 0.329437
0.493164 0.751282 0.364136
0.655182 0.784210 0.397064
0.813110 0.813110 0.425964
0.966644 0.837585 0.450439
1.000000 0.873322 0.683228
0.069824 0.844116 0.327911
0.234100 0.879333 0.363129
0.395721 0.911926 0.395721
0.554260 0.941406 0.425201
0.707947 0.966034 0.449829
0.855194 0.984222 0.468018
0.995331 0.995331 0.479126
1.000000 0.982025 0.910095
0.202423 1.000000 0.430298
0.403564 1.000000 0.502960
0.584259 1.000000 0.584259
0.741821 1.000000 0.677277
0.869324 1.000000 0.782135
0.962341 1.000000 0.905823
1.000000 1.000000 1.000000
1.000000 1.000000 1.000000
0.039215 0.039215 0.039215
0.039215 0.039215 0.039215
0.039215 0.039215 0.039215
0.053741 0.039215 0.053741
0.166412 0.039215 0.124786
0.310394 0.039215 0.186157
0.482178 0.039215 0.241058
0.675140 0.039215 0.289307
0.039215 0.039215 0.039215
0.039215 0.039215 0.190247
0.119080 0.039215 0.238281
0.264099 0.039215 0.264099
0.411438 0.039215 0.282379
0.565186 0.048981 0.307068
0.723755 0.078522 0.336609
0.885437 0.111145 0.369232
0.039215 0.080078 0.120148
0.039215 0.134644 0.263702
0.152679 0.152679 0.281738
0.306305 0.177246 0.306305
0.464294 0.206207 0.335236
0.626312 0.239166 0.368195
0.790070 0.273895 0.402924
0.955322 0.310089 0.439117
0.039215 0.235748 0.235748
0.047028 0.305115 0.305115
0.205292 0.334320 0.334320
0.367188 0.367188 0.367188
0.530945 0.401855 0.401855
0.696167 0.438049 0.438049
0.860687 0.473511 0.473511
1.000000 0.518188 0.518188
0.039215 0.436340 0.327240
0.107605 0.494751 0.365692
0.271790 0.529907 0.400818
0.436523 0.565613 0.436523
0.601532 0.601532 0.472443
0.765015 0.635986 0.506897
0.925232 0.667145 0.538086
1.000000 0.723938 0.631897
0.039215 0.657867 0.399750
0.177338 0.693542 0.435425
0.342346 0.729492 0.471375
0.505432 0.763550 0.505432
0.666260 0.795288 0.537201
0.822601 0.822601 0.564514
0.974030 0.845001 0.586884
1.000000 0.888214 0.776337
0.082794 0.857086 0.469910
0.246399 0.891632 0.504456
0.407288 0.923492 0.536346
0.563812 0.950958 0.563812
0.715393 0.973480 0.586334
0.860107 0.989136 0.601990
0.997223 0.997223 0.610077
1.000000 0.992340 0.969330
0.237885 1.000000 0.564514
0.438049 1.000000 0.625397
0.616699 1.000000 0.693359
0.771332 1.000000 0.771332
0.894867 1.000000 0.859802
0.982849 1.000000 0.965637
1.000000 1.000000 1.000000
1.000000 1.000000 1.000000
0.039215 0.039215 0.039215
0.039215 0.039215 0.039215
0.039215 0.039215 0.039215
0.080872 0.039215 0.107880
0.197693 0.039215 0.197693
0.344879 0.039215 0.275879
0.518860 0.039215 0.345886
0.713287 0.039215 0.407562
0.039215 0.039215 0.039215
0.039215 0.039215 0.317413
0.125641 0.039215 0.377167
0.270020 0.039215 0.399078
0.420105 0.039215 0.420105
0.575378 0.059174 0.446320
0.735413 0.090179 0.477325
0.898010 0.123718 0.510864
0.039215 0.095825 0.191772
0.039215 0.140472 0.398590
0.160919 0.160919 0.419037
0.316467 0.187408 0.445526
0.475891 0.217804 0.475891
0.638885 0.251740 0.509827
0.803162 0.286987 0.545105
0.968445 0.323212 0.581329
0.039215 0.254364 0.339203
0.057526 0.315613 0.444672
0.216858 0.345886 0.474945
0.379730 0.379730 0.508789
0.544037 0.414948 0.544037
0.709290 0.451172 0.580261
0.873413 0.486237 0.615326
1.000000 0.537231 0.652924
0.039215 0.455963 0.455963
0.120117 0.507263 0.507263
0.284851 0.542969 0.542969
0.450104 0.579193 0.579193
0.614258 0.614258 0.614258
0.776855 0.647827 0.647827
0.935760 0.677673 0.677673
1.000000 0.742218 0.742218
0.039215 0.670898 0.541870
0.190491 0.706696 0.577667
0.355103 0.742249 0.613220
0.517365 0.775482 0.646454
0.676819 0.805847 0.676819
0.831360 0.831360 0.702332
0.980530 0.851501 0.722443
1.000000 0.904266 0.856384
0.096008 0.870300 0.612213
0.258331 0.903564 0.645477
0.417908 0.934113 0.676025
0.572601 0.959747 0.701660
0.721985 0.980072 0.721985
0.863953 0.992981 0.734894
0.997894 0.997894 0.739807
1.000000 1.000000 1.000000
0.275024 1.000000 0.689331
0.473969 1.000000 0.737000
0.650696 1.000000 0.790436
0.802277 1.000000 0.851746
0.922699 1.000000 0.922699
1.000000 1.000000 1.000000
1.000000 1.000000 1.000000
1.000000 1.000000 1.000000
0.039215 0.039215 0.039215
0.039215 0.039215 0.039215
0.039215 0.039215 0.055115
0.106567 0.039215 0.177673
0.227570 0.039215 0.284454
0.377869 0.039215 0.377869
0.554199 0.039215 0.461792
0.749786 0.039215 0.535553
0.039215 0.039215 0.049957
0.039215 0.039215 0.455872
0.131378 0.039215 0.518524
0.276917 0.039215 0.535034
0.429169 0.042023 0.558228
0.586182 0.069977 0.586182
0.747467 0.102234 0.618439
0.910828 0.136536 0.652740
0.039215 0.110870 0.277374
0.039215 0.147278 0.534454
0.169922 0.169922 0.557098
0.327179 0.198120 0.585297
0.488373 0.230286 0.617432
0.651703 0.264557 0.651703
0.816772 0.300598 0.687744
0.981476 0.336243 0.723389
0.039215 0.272186 0.453705
0.068237 0.326324 0.584442
0.228821 0.357849 0.615967
0.392548 0.392548 0.650665
0.557190 0.428101 0.686218
0.722321 0.464203 0.722321
0.885834 0.498657 0.756775
1.000000 0.557159 0.778564
0.039215 0.474640 0.593323
0.133392 0.520569 0.649597
0.298004 0.556122 0.685150
0.463165 0.592255 0.721283
0.626740 0.626740 0.755768
0.788269 0.659241 0.788269
0.945648 0.687561 0.816589
1.000000 0.761292 0.840881
0.039215 0.684052 0.684052
0.203583 0.719757 0.719757
0.367615 0.754761 0.754761
0.529266 0.787354 0.787354
0.686798 0.815826 0.815826
0.839752 0.839752 0.839752
0.986115 0.857086 0.857086
1.000000 0.920776 0.920776
0.108521 0.882812 0.753754
0.269836 0.915070 0.786011
0.427948 0.944153 0.815094
0.580688 0.967834 0.838776
0.727631 0.985718 0.856689
0.866699 0.995728 0.866699
0.997284 0.997284 0.868256
1.000000 1.000000 1.000000
0.315155 1.000000 0.804321
0.511688 1.000000 0.837219
0.687256 1.000000 0.874939
0.835022 1.000000 0.917542
0.951813 1.000000 0.967865
1.000000 1.000000 1.000000
1.000000 1.000000 1.000000
1.000000 1.000000 1.000000
0.039215 0.039215 0.039215
0.039215 0.039215 0.039215
0.040955 0.039215 0.123016
0.130859 0.039215 0.261841
0.256042 0.039215 0.384094
0.410400 0.039215 0.492493
0.587921 0.039215 0.587921
0.785858 0.039215 0.673584
0.039215 0.039215 0.118286
0.039215 0.039215 0.605743
0.136627 0.039215 0.652832
0.284607 0.039215 0.671753
0.438934 0.051788 0.697021
0.597473 0.081268 0.726501
0.759857 0.114624 0.759857
0.923828 0.149536 0.794769
0.039215 0.125244 0.375946
0.039215 0.154938 0.671143
0.180023 0.180023 0.696228
0.338440 0.209412 0.725586
0.500732 0.242645 0.758820
0.664673 0.277527 0.793701
0.829956 0.313782 0.829956
0.994324 0.349091 0.865295
0.039215 0.289307 0.578705
0.079437 0.337524 0.724670
0.241180 0.370209 0.757355
0.405518 0.405518 0.792664
0.570343 0.441254 0.828400
0.735199 0.477081 0.864258
0.898376 0.511200 0.898376
1.000000 0.578003 0.894501
0.039215 0.492462 0.738770
0.146362 0.533539 0.791595
0.311157 0.569275 0.827332
0.476044 0.605133 0.863220
0.638855 0.638855 0.896942
0.799194 0.670166 0.928253
0.954895 0.696808 0.954895
1.000000 0.781250 0.927094
0.051971 0.697205 0.826233
0.216949 0.733124 0.862183
0.379791 0.766937 0.895996
0.540253 0.798340 0.927399
0.696106 0.825134 0.954193
0.846924 0.846924 0.975952
0.990662 0.861633 0.990662
1.000000 0.938293 0.969116
0.120697 0.894989 0.894989
0.280853 0.926086 0.926086
0.437286 0.953491 0.953491
0.587921 0.975067 0.975067
0.732269 0.990356 0.990356
0.868561 0.997589 0.997589
0.995331 0.995331 0.995331
1.000000 1.000000 1.000000
0.355804 1.000000 0.907990
0.551208 1.000000 0.925201
0.724670 1.000000 0.944946
0.869659 1.000000 0.967407
0.983154 1.000000 0.994385
1.000000 1.000000 1.000000
1.000000 1.000000 1.000000
1.000000 1.000000 1.000000
0.039215 0.039215 0.039215
0.039215 0.039215 0.039215
0.058716 0.039215 0.205780
0.154572 0.039215 0.360840
0.283325 0.039215 0.495850
0.440735 0.039215 0.617096
0.620270 0.039215 0.723663
0.819092 0.039215 0.819092
0.039215 0.039215 0.200531
0.039215 0.039215 0.765564
0.142822 0.039215 0.788055
0.293121 0.039215 0.809296
0.449310 0.062164 0.836426
0.609253 0.093048 0.867340
0.772522 0.127289 0.901581
0.937439 0.163147 0.937439
0.039215 0.139343 0.487976
0.039215 0.163391 0.808624
0.190338 0.190338 0.835571
0.350159 0.221130 0.866364
0.513397 0.255310 0.900543
0.677795 0.290649 0.935883
0.843079 0.326874 0.972107
1.000000 0.366577 1.000000
0.039215 0.305634 0.713287
0.091125 0.349213 0.865417
0.253784 0.382812 0.899017
0.418640 0.418640 0.934845
0.583923 0.454834 0.971039
0.745911 0.491821 1.000000
0.885681 0.542694 1.000000
1.000000 0.599884 1.000000
0.039215 0.509399 0.891571
0.159454 0.546631 0.933746
0.324280 0.582397 0.969513
0.490448 0.617889 1.000000
0.655823 0.655823 1.000000
0.799011 0.698547 1.000000
0.915802 0.747406 1.000000
1.000000 0.802216 1.000000
0.065094 0.710327 0.968414
0.233582 0.744507 1.000000
0.423462 0.769379 1.000000
0.596191 0.798065 1.000000
0.745270 0.830139 1.000000
0.866943 0.866943 1.000000
0.954163 0.908356 1.000000
1.000000 0.956940 1.000000
0.190033 0.884308 1.000000
0.390411 0.898407 1.000000
0.572906 0.914581 1.000000
0.731506 0.932892 1.000000
0.860504 0.953491 1.000000
0.955292 0.977631 1.000000
1.000000 1.000000 1.000000
1.000000 1.000000 1.000000
0.398468 1.000000 1.000000
0.592438 1.000000 1.000000
0.763977 1.000000 1.000000
0.906555 1.000000 1.000000
1.000000 1.000000 1.000000
1.000000 1.000000 1.000000
1.000000 1.000000 1.000000
1.000000 1.000000 1.000000
