Game/Assets/LUTs/purple11-free-luts-pack/Undeniable 2.CUBE
#Created by: Adobe Photoshop Export Color Lookup Plugin
#Copyright: (C) Copyright 2019 Purple11
TITLE "Undeniable 2"
#LUT size
LUT_3D_SIZE 8
#data domain
#LUT data points
DOMAIN_MIN 0.000000 0.000000 0.000000
DOMAIN_MAX 0.903226 0.903226 0.903226
0.000000 0.000000 0.000000
0.000000 0.000000 0.000000
0.000000 0.000000 0.000000
0.000000 0.000000 0.000000
0.018433 0.018433 0.018433
0.059082 0.059082 0.059082
0.108185 0.108185 0.108185
0.165070 0.165070 0.165070
0.000000 0.000000 0.000000
0.000000 0.000000 0.000000
0.017303 0.017303 0.017303
0.057373 0.057373 0.057373
0.106537 0.106537 0.106537
0.163177 0.163177 0.163177
0.225677 0.225677 0.225677
0.293488 0.293488 0.293488
0.016205 0.016205 0.016205
0.055969 0.055969 0.055969
0.104858 0.104858 0.104858
0.160919 0.160919 0.160919
0.223633 0.223633 0.223633
0.290863 0.290863 0.290863
0.362213 0.362213 0.362213
0.435974 0.435974 0.435974
0.102875 0.102875 0.102875
0.159058 0.159058 0.159058
0.221558 0.221558 0.221558
0.288666 0.288666 0.288666
0.359924 0.359924 0.359924
0.433136 0.433136 0.433136
0.507996 0.507996 0.507996
0.582245 0.582245 0.582245
0.219116 0.219116 0.219116
0.286469 0.286469 0.286469
0.357178 0.357178 0.357178
0.430817 0.430817 0.430817
0.505646 0.505646 0.505646
0.579895 0.579895 0.579895
0.653259 0.653259 0.653259
0.723480 0.723480 0.723480
0.354889 0.354889 0.354889
0.428467 0.428467 0.428467
0.502808 0.502808 0.502808
0.577545 0.577545 0.577545
0.650513 0.650513 0.650513
0.721313 0.721313 0.721313
0.788177 0.788177 0.788177
0.849457 0.849457 0.849457
0.500458 0.500458 0.500458
0.575226 0.575226 0.575226
0.648254 0.648254 0.648254
0.719147 0.719147 0.719147
0.785767 0.785767 0.785767
0.847595 0.847595 0.847595
0.902679 0.902679 0.902679
0.950348 0.950348 0.950348
0.645966 0.645966 0.645966
0.716522 0.716522 0.716522
0.783722 0.783722 0.783722
0.845764 0.845764 0.845764
0.901031 0.901031 0.901031
0.948975 0.948975 0.948975
0.987671 0.987671 0.987671
1.000000 1.000000 1.000000
0.000000 0.000000 0.000000
0.000000 0.000000 0.000000
0.000000 0.000000 0.000000
0.000000 0.000000 0.000000
0.032166 0.032166 0.032166
0.076172 0.076172 0.076172
0.128143 0.128143 0.128143
0.187439 0.187439 0.187439
0.000000 0.000000 0.000000
0.000000 0.000000 0.000000
0.030914 0.030914 0.030914
0.074677 0.074677 0.074677
0.126373 0.126373 0.126373
0.185486 0.185486 0.185486
0.249908 0.249908 0.249908
0.319214 0.319214 0.319214
0.029694 0.029694 0.029694
0.072845 0.072845 0.072845
0.124634 0.124634 0.124634
0.183136 0.183136 0.183136
0.247803 0.247803 0.247803
0.316986 0.316986 0.316986
0.388885 0.388885 0.388885
0.463196 0.463196 0.463196
0.122894 0.122894 0.122894
0.181183 0.181183 0.181183
0.245667 0.245667 0.245667
0.314301 0.314301 0.314301
0.386566 0.386566 0.386566
0.460388 0.460388 0.460388
0.535339 0.535339 0.535339
0.609192 0.609192 0.609192
0.243591 0.243591 0.243591
0.312073 0.312073 0.312073
0.384277 0.384277 0.384277
0.458038 0.458038 0.458038
0.532990 0.532990 0.532990
0.606903 0.606903 0.606903
0.679413 0.679413 0.679413
0.748352 0.748352 0.748352
0.381500 0.381500 0.381500
0.455688 0.455688 0.455688
0.530151 0.530151 0.530151
0.604553 0.604553 0.604553
0.677185 0.677185 0.677185
0.746246 0.746246 0.746246
0.811340 0.811340 0.811340
0.870392 0.870392 0.870392
0.527802 0.527802 0.527802
0.602264 0.602264 0.602264
0.674469 0.674469 0.674469
0.744110 0.744110 0.744110
0.808990 0.808990 0.808990
0.868622 0.868622 0.868622
0.921021 0.921021 0.921021
0.965546 0.965546 0.965546
0.672241 0.672241 0.672241
0.741974 0.741974 0.741974
0.807007 0.807007 0.807007
0.866852 0.866852 0.866852
0.919495 0.919495 0.919495
0.964294 0.964294 0.964294
0.999390 0.999390 0.999390
1.000000 1.000000 1.000000
0.000000 0.000000 0.000000
0.000000 0.000000 0.000000
0.000000 0.000000 0.000000
0.009308 0.009308 0.009308
0.047180 0.047180 0.047180
0.094360 0.094360 0.094360
0.149384 0.149384 0.149384
0.210541 0.210541 0.210541
0.000000 0.000000 0.000000
0.008270 0.008270 0.008270
0.045837 0.045837 0.045837
0.092743 0.092743 0.092743
0.147186 0.147186 0.147186
0.208527 0.208527 0.208527
0.274750 0.274750 0.274750
0.345337 0.345337 0.345337
0.044495 0.044495 0.044495
0.090851 0.090851 0.090851
0.145355 0.145355 0.145355
0.206512 0.206512 0.206512
0.272552 0.272552 0.272552
0.343079 0.343079 0.343079
0.415863 0.415863 0.415863
0.490540 0.490540 0.490540
0.143524 0.143524 0.143524
0.204102 0.204102 0.204102
0.270416 0.270416 0.270416
0.340363 0.340363 0.340363
0.413513 0.413513 0.413513
0.487701 0.487701 0.487701
0.562592 0.562592 0.562592
0.636383 0.636383 0.636383
0.268250 0.268250 0.268250
0.338104 0.338104 0.338104
0.411194 0.411194 0.411194
0.485352 0.485352 0.485352
0.560242 0.560242 0.560242
0.633636 0.633636 0.633636
0.705139 0.705139 0.705139
0.772614 0.772614 0.772614
0.408386 0.408386 0.408386
0.483002 0.483002 0.483002
0.557892 0.557892 0.557892
0.631317 0.631317 0.631317
0.702942 0.702942 0.702942
0.770569 0.770569 0.770569
0.833740 0.833740 0.833740
0.890411 0.890411 0.890411
0.555084 0.555084 0.555084
0.629028 0.629028 0.629028
0.700317 0.700317 0.700317
0.768494 0.768494 0.768494
0.831848 0.831848 0.831848
0.888733 0.888733 0.888733
0.938568 0.938568 0.938568
0.979492 0.979492 0.979492
0.698090 0.698090 0.698090
0.766418 0.766418 0.766418
0.829559 0.829559 0.829559
0.887054 0.887054 0.887054
0.936829 0.936829 0.936829
0.978333 0.978333 0.978333
1.000000 1.000000 1.000000
1.000000 1.000000 1.000000
0.000000 0.000000 0.000000
0.000000 0.000000 0.000000
0.000000 0.000000 0.000000
0.022064 0.022064 0.022064
0.063690 0.063690 0.063690
0.113617 0.113617 0.113617
0.171173 0.171173 0.171173
0.234375 0.234375 0.234375
0.000000 0.000000 0.000000
0.020935 0.020935 0.020935
0.061951 0.061951 0.061951
0.111908 0.111908 0.111908
0.168884 0.168884 0.168884
0.232300 0.232300 0.232300
0.300537 0.300537 0.300537
0.371857 0.371857 0.371857
0.060516 0.060516 0.060516
0.110229 0.110229 0.110229
0.166962 0.166962 0.166962
0.230225 0.230225 0.230225
0.297882 0.297882 0.297882
0.369537 0.369537 0.369537
0.442993 0.442993 0.442993
0.517883 0.517883 0.517883
0.165070 0.165070 0.165070
0.227753 0.227753 0.227753
0.295685 0.295685 0.295685
0.367249 0.367249 0.367249
0.440643 0.440643 0.440643
0.515533 0.515533 0.515533
0.589691 0.589691 0.589691
0.662750 0.662750 0.662750
0.293488 0.293488 0.293488
0.364502 0.364502 0.364502
0.438324 0.438324 0.438324
0.512726 0.512726 0.512726
0.587372 0.587372 0.587372
0.660522 0.660522 0.660522
0.730408 0.730408 0.730408
0.796631 0.796631 0.796631
0.435974 0.435974 0.435974
0.510345 0.510345 0.510345
0.585022 0.585022 0.585022
0.657776 0.657776 0.657776
0.728241 0.728241 0.728241
0.794250 0.794250 0.794250
0.855316 0.855316 0.855316
0.909424 0.909424 0.909424
0.582245 0.582245 0.582245
0.655518 0.655518 0.655518
0.726074 0.726074 0.726074
0.792236 0.792236 0.792236
0.853485 0.853485 0.853485
0.907837 0.907837 0.907837
0.954651 0.954651 0.954651
0.992096 0.992096 0.992096
0.723480 0.723480 0.723480
0.790222 0.790222 0.790222
0.851288 0.851288 0.851288
0.906250 0.906250 0.906250
0.953033 0.953033 0.953033
0.991058 0.991058 0.991058
1.000000 1.000000 1.000000
1.000000 1.000000 1.000000
0.000000 0.000000 0.000000
0.000000 0.000000 0.000000
0.000916 0.000916 0.000916
0.036163 0.036163 0.036163
0.081085 0.081085 0.081085
0.133820 0.133820 0.133820
0.193726 0.193726 0.193726
0.258820 0.258820 0.258820
0.000000 0.000000 0.000000
0.034912 0.034912 0.034912
0.079224 0.079224 0.079224
0.132019 0.132019 0.132019
0.191772 0.191772 0.191772
0.256683 0.256683 0.256683
0.326385 0.326385 0.326385
0.398651 0.398651 0.398651
0.077698 0.077698 0.077698
0.130249 0.130249 0.130249
0.189392 0.189392 0.189392
0.254578 0.254578 0.254578
0.323669 0.323669 0.323669
0.396301 0.396301 0.396301
0.470276 0.470276 0.470276
0.545197 0.545197 0.545197
0.187439 0.187439 0.187439
0.252441 0.252441 0.252441
0.321442 0.321442 0.321442
0.393982 0.393982 0.393982
0.467926 0.467926 0.467926
0.542847 0.542847 0.542847
0.616608 0.616608 0.616608
0.688782 0.688782 0.688782
0.319214 0.319214 0.319214
0.391205 0.391205 0.391205
0.465576 0.465576 0.465576
0.540497 0.540497 0.540497
0.614288 0.614288 0.614288
0.686554 0.686554 0.686554
0.755127 0.755127 0.755127
0.819550 0.819550 0.819550
0.463196 0.463196 0.463196
0.537689 0.537689 0.537689
0.611969 0.611969 0.611969
0.683899 0.683899 0.683899
0.752991 0.752991 0.752991
0.817200 0.817200 0.817200
0.876007 0.876007 0.876007
0.927704 0.927704 0.927704
0.609680 0.609680 0.609680
0.681641 0.681641 0.681641
0.750885 0.750885 0.750885
0.815247 0.815247 0.815247
0.874268 0.874268 0.874268
0.925903 0.925903 0.925903
0.969513 0.969513 0.969513
1.000000 1.000000 1.000000
0.748352 0.748352 0.748352
0.813293 0.813293 0.813293
0.872162 0.872162 0.872162
0.924377 0.924377 0.924377
0.968292 0.968292 0.968292
1.000000 1.000000 1.000000
1.000000 1.000000 1.000000
1.000000 1.000000 1.000000
0.000000 0.000000 0.000000
0.000000 0.000000 0.000000
0.012695 0.012695 0.012695
0.051544 0.051544 0.051544
0.099579 0.099579 0.099579
0.154938 0.154938 0.154938
0.217072 0.217072 0.217072
0.283844 0.283844 0.283844
0.011414 0.011414 0.011414
0.050140 0.050140 0.050140
0.097931 0.097931 0.097931
0.153107 0.153107 0.153107
0.215027 0.215027 0.215027
0.281677 0.281677 0.281677
0.352631 0.352631 0.352631
0.425659 0.425659 0.425659
0.095978 0.095978 0.095978
0.151245 0.151245 0.151245
0.212585 0.212585 0.212585
0.279510 0.279510 0.279510
0.350342 0.350342 0.350342
0.423340 0.423340 0.423340
0.498077 0.498077 0.498077
0.572418 0.572418 0.572418
0.210541 0.210541 0.210541
0.277344 0.277344 0.277344
0.347595 0.347595 0.347595
0.420990 0.420990 0.420990
0.495270 0.495270 0.495270
0.570068 0.570068 0.570068
0.643219 0.643219 0.643219
0.714355 0.714355 0.714355
0.345337 0.345337 0.345337
0.418671 0.418671 0.418671
0.492920 0.492920 0.492920
0.567749 0.567749 0.567749
0.640961 0.640961 0.640961
0.712158 0.712158 0.712158
0.779205 0.779205 0.779205
0.841644 0.841644 0.841644
0.490540 0.490540 0.490540
0.564941 0.564941 0.564941
0.638672 0.638672 0.638672
0.709961 0.709961 0.709961
0.777161 0.777161 0.777161
0.839783 0.839783 0.839783
0.895782 0.895782 0.895782
0.944519 0.944519 0.944519
0.636383 0.636383 0.636383
0.707336 0.707336 0.707336
0.775116 0.775116 0.775116
0.837524 0.837524 0.837524
0.894104 0.894104 0.894104
0.942841 0.942841 0.942841
0.983093 0.983093 0.983093
1.000000 1.000000 1.000000
0.773041 0.773041 0.773041
0.835632 0.835632 0.835632
0.892426 0.892426 0.892426
0.941437 0.941437 0.941437
0.981995 0.981995 0.981995
1.000000 1.000000 1.000000
1.000000 1.000000 1.000000
1.000000 1.000000 1.000000
0.000000 0.000000 0.000000
0.000000 0.000000 0.000000
0.025848 0.025848 0.025848
0.068085 0.068085 0.068085
0.119080 0.119080 0.119080
0.177307 0.177307 0.177307
0.241058 0.241058 0.241058
0.309845 0.309845 0.309845
0.024658 0.024658 0.024658
0.066620 0.066620 0.066620
0.117371 0.117371 0.117371
0.174988 0.174988 0.174988
0.238983 0.238983 0.238983
0.307159 0.307159 0.307159
0.379211 0.379211 0.379211
0.452850 0.452850 0.452850
0.115295 0.115295 0.115295
0.173096 0.173096 0.173096
0.236877 0.236877 0.236877
0.304962 0.304962 0.304962
0.376892 0.376892 0.376892
0.450500 0.450500 0.450500
0.525452 0.525452 0.525452
0.599457 0.599457 0.599457
0.234375 0.234375 0.234375
0.302734 0.302734 0.302734
0.374146 0.374146 0.374146
0.448151 0.448151 0.448151
0.522614 0.522614 0.522614
0.597137 0.597137 0.597137
0.669983 0.669983 0.669983
0.739410 0.739410 0.739410
0.371857 0.371857 0.371857
0.445831 0.445831 0.445831
0.520264 0.520264 0.520264
0.594818 0.594818 0.594818
0.667267 0.667267 0.667267
0.737274 0.737274 0.737274
0.802643 0.802643 0.802643
0.862915 0.862915 0.862915
0.517883 0.517883 0.517883
0.592499 0.592499 0.592499
0.665039 0.665039 0.665039
0.735138 0.735138 0.735138
0.800659 0.800659 0.800659
0.861115 0.861115 0.861115
0.914520 0.914520 0.914520
0.960175 0.960175 0.960175
0.662750 0.662750 0.662750
0.732544 0.732544 0.732544
0.798645 0.798645 0.798645
0.858948 0.858948 0.858948
0.912933 0.912933 0.912933
0.958893 0.958893 0.958893
0.995331 0.995331 0.995331
1.000000 1.000000 1.000000
0.796631 0.796631 0.796631
0.857147 0.857147 0.857147
0.911346 0.911346 0.911346
0.957306 0.957306 0.957306
0.994324 0.994324 0.994324
1.000000 1.000000 1.000000
1.000000 1.000000 1.000000
1.000000 1.000000 1.000000
0.000000 0.000000 0.000000
0.003815 0.003815 0.003815
0.040283 0.040283 0.040283
0.086090 0.086090 0.086090
0.139557 0.139557 0.139557
0.200104 0.200104 0.200104
0.265686 0.265686 0.265686
0.335815 0.335815 0.335815
0.038971 0.038971 0.038971
0.084198 0.084198 0.084198
0.137756 0.137756 0.137756
0.197693 0.197693 0.197693
0.263550 0.263550 0.263550
0.333130 0.333130 0.333130
0.406067 0.406067 0.406067
0.480652 0.480652 0.480652
0.135956 0.135956 0.135956
0.195740 0.195740 0.195740
0.261383 0.261383 0.261383
0.330872 0.330872 0.330872
0.403748 0.403748 0.403748
0.477814 0.477814 0.477814
0.552734 0.552734 0.552734
0.626282 0.626282 0.626282
0.258820 0.258820 0.258820
0.328613 0.328613 0.328613
0.400940 0.400940 0.400940
0.475464 0.475464 0.475464
0.550385 0.550385 0.550385
0.623962 0.623962 0.623962
0.695892 0.695892 0.695892
0.763916 0.763916 0.763916
0.398651 0.398651 0.398651
0.473114 0.473114 0.473114
0.547577 0.547577 0.547577
0.621674 0.621674 0.621674
0.693665 0.693665 0.693665
0.761841 0.761841 0.761841
0.825714 0.825714 0.825714
0.883301 0.883301 0.883301
0.545197 0.545197 0.545197
0.619354 0.619354 0.619354
0.691010 0.691010 0.691010
0.759735 0.759735 0.759735
0.823395 0.823395 0.823395
0.881561 0.881561 0.881561
0.932159 0.932159 0.932159
0.974579 0.974579 0.974579
0.688782 0.688782 0.688782
0.757202 0.757202 0.757202
0.821472 0.821472 0.821472
0.879852 0.879852 0.879852
0.930695 0.930695 0.930695
0.973389 0.973389 0.973389
1.000000 1.000000 1.000000
1.000000 1.000000 1.000000
0.819550 0.819550 0.819550
0.877747 0.877747 0.877747
0.929199 0.929199 0.929199
0.971954 0.971954 0.971954
1.000000 1.000000 1.000000
1.000000 1.000000 1.000000
1.000000 1.000000 1.000000
1.000000 1.000000 1.000000
