Game/Assets/LUTs/purple11-free-luts-pack/Undeniable.CUBE
#Created by: Adobe Photoshop Export Color Lookup Plugin
#Copyright: (C) Copyright 2019 Purple11
TITLE "Undeniable"
#LUT size
LUT_3D_SIZE 32
#data domain
DOMAIN_MIN 0.0 0.0 0.0
DOMAIN_MAX 1.0 1.0 1.0
#LUT data points
0.039215 0.039215 0.039215
0.039215 0.039215 0.039215
0.039215 0.039215 0.039215
0.039215 0.039215 0.039215
0.039215 0.039215 0.039215
0.039215 0.039215 0.039215
0.039215 0.039215 0.039215
0.039215 0.039215 0.039215
0.039215 0.039215 0.039215
0.039215 0.039215 0.039215
0.039215 0.039215 0.039215
0.039215 0.039215 0.039215
0.039215 0.039215 0.039215
0.039215 0.039215 0.039215
0.039215 0.039215 0.039215
0.039215 0.039215 0.039215
0.061340 0.039215 0.039215
0.092468 0.039215 0.039215
0.124725 0.039215 0.039215
0.159821 0.039215 0.039215
0.196869 0.039215 0.039215
0.234833 0.039215 0.039215
0.275421 0.039215 0.039215
0.317749 0.039215 0.039215
0.360596 0.039215 0.039215
0.406158 0.039215 0.039215
0.453125 0.039215 0.039215
0.500427 0.039215 0.039215
0.550201 0.039215 0.039215
0.600067 0.039215 0.039215
0.652466 0.039215 0.039215
0.705872 0.039215 0.039215
0.039215 0.039215 0.039215
0.039215 0.039215 0.039215
0.039215 0.039215 0.039215
0.039215 0.039215 0.039215
0.039215 0.039215 0.039215
0.039215 0.039215 0.039215
0.039215 0.039215 0.039215
0.039215 0.039215 0.039215
0.039215 0.039215 0.039215
0.039215 0.039215 0.039215
0.039215 0.039215 0.039215
0.039215 0.039215 0.039215
0.039215 0.039215 0.039215
0.039215 0.039215 0.039215
0.053070 0.039215 0.039215
0.080231 0.039215 0.039215
0.110352 0.039215 0.039215
0.142426 0.039215 0.039215
0.175690 0.039215 0.039215
0.211853 0.039215 0.039215
0.249817 0.039215 0.039215
0.288574 0.039215 0.039215
0.329956 0.039215 0.039215
0.373108 0.039215 0.039215
0.416656 0.039215 0.039215
0.462830 0.039215 0.039215
0.510376 0.039215 0.039215
0.558105 0.039215 0.039215
0.608429 0.039215 0.039215
0.658600 0.039215 0.039215
0.711090 0.039215 0.039215
0.764740 0.039215 0.039215
0.039215 0.039215 0.039215
0.039215 0.039215 0.039215
0.039215 0.039215 0.039215
0.039215 0.039215 0.039215
0.039215 0.039215 0.039215
0.039215 0.039215 0.039215
0.039215 0.039215 0.039215
0.039215 0.039215 0.039215
0.039215 0.039215 0.039215
0.039215 0.039215 0.039215
0.039215 0.039215 0.039215
0.039215 0.039215 0.039215
0.045044 0.039215 0.039215
0.069122 0.039215 0.039215
0.096008 0.039215 0.039215
0.124512 0.039215 0.039215
0.155701 0.039215 0.039215
0.189026 0.039215 0.039215
0.223450 0.039215 0.039215
0.260559 0.039215 0.039215
0.299438 0.039215 0.039215
0.339081 0.039215 0.039215
0.381348 0.039215 0.039215
0.425171 0.039215 0.039215
0.469452 0.039215 0.039215
0.516174 0.041229 0.039215
0.563171 0.043274 0.039215
0.612549 0.045319 0.039215
0.663239 0.047302 0.039215
0.713745 0.049164 0.039215
0.766510 0.051056 0.039215
0.820404 0.052856 0.039215
0.039215 0.039215 0.039215
0.039215 0.039215 0.039215
0.039215 0.039215 0.039215
0.039215 0.039215 0.039215
0.039215 0.039215 0.039215
0.039215 0.039215 0.039215
0.039215 0.039215 0.039215
0.039215 0.039215 0.039215
0.039215 0.039215 0.039215
0.039215 0.039215 0.039215
0.039215 0.039215 0.039215
0.058044 0.039215 0.039215
0.081879 0.039215 0.039215
0.107452 0.039215 0.039215
0.135803 0.039215 0.039215
0.165588 0.039215 0.039215
0.198120 0.039215 0.039215
0.232666 0.041016 0.039215
0.268158 0.044647 0.039215
0.306305 0.048309 0.039215
0.346222 0.051880 0.039215
0.386780 0.055206 0.039215
0.429840 0.058563 0.039215
0.474457 0.061829 0.039215
0.519379 0.064850 0.039215
0.566742 0.067963 0.039215
0.614166 0.070801 0.039215
0.664001 0.073730 0.039215
0.714905 0.076538 0.039215
0.765717 0.079163 0.039215
0.818787 0.081818 0.039215
0.872650 0.084381 0.039215
0.039215 0.039215 0.039215
0.039215 0.039215 0.039215
0.039215 0.039215 0.039215
0.039215 0.039215 0.039215
0.039215 0.039215 0.039215
0.039215 0.039215 0.039215
0.039215 0.039215 0.039215
0.039215 0.039215 0.039215
0.039215 0.039215 0.039215
0.047150 0.039215 0.039215
0.067383 0.039215 0.039215
0.090515 0.039215 0.039215
0.115417 0.039215 0.039215
0.143127 0.044006 0.039215
0.172943 0.049377 0.039215
0.204132 0.054382 0.039215
0.238037 0.059448 0.039215
0.273682 0.064362 0.039215
0.310333 0.068909 0.039215
0.349487 0.073517 0.039215
0.390320 0.078003 0.039215
0.431763 0.082184 0.039215
0.475616 0.086426 0.039215
0.519958 0.090363 0.039215
0.566528 0.094360 0.039215
0.614441 0.098267 0.039215
0.662323 0.101837 0.039215
0.712524 0.105499 0.039215
0.763733 0.109039 0.039215
0.814789 0.112335 0.039215
0.867798 0.115631 0.039215
0.921783 0.118866 0.039215
0.039215 0.039215 0.039215
0.039215 0.039215 0.039215
0.039215 0.039215 0.039215
0.039215 0.039215 0.039215
0.039215 0.039215 0.039215
0.039215 0.039215 0.039215
0.039215 0.039215 0.039215
0.039215 0.039215 0.039215
0.053619 0.039215 0.039215
0.073761 0.040955 0.039215
0.095886 0.047913 0.039215
0.120758 0.054871 0.039215
0.147339 0.061371 0.039215
0.176575 0.067871 0.039215
0.207886 0.074188 0.039215
0.240356 0.080078 0.039215
0.275452 0.086029 0.039215
0.312317 0.091827 0.039215
0.350067 0.097198 0.039215
0.390289 0.102661 0.039215
0.431976 0.107941 0.039215
0.474274 0.112885 0.039215
0.518829 0.117859 0.039215
0.563843 0.122528 0.039215
0.611023 0.127228 0.039215
0.659302 0.131805 0.039215
0.707672 0.136017 0.039215
0.758118 0.140320 0.039215
0.809601 0.144501 0.039215
0.860809 0.148346 0.039215
0.913971 0.152252 0.039215
0.967804 0.156036 0.039215
0.039215 0.039215 0.039215
0.039215 0.039215 0.039215
0.039215 0.039215 0.039215
0.039215 0.039215 0.039215
0.039215 0.039215 0.039215
0.039215 0.039215 0.039215
0.040009 0.040009 0.039215
0.056793 0.048676 0.039215
0.076447 0.057312 0.039215
0.098114 0.065399 0.039215
0.122498 0.073486 0.039215
0.149048 0.081299 0.039215
0.177277 0.088623 0.039215
0.208008 0.095978 0.039215
0.240723 0.103119 0.039215
0.274536 0.109772 0.039215
0.310822 0.116516 0.039215
0.348816 0.123047 0.039215
0.387665 0.129181 0.039215
0.428741 0.135345 0.039215
0.470459 0.141083 0.039215
0.514404 0.146912 0.039215
0.559753 0.152588 0.039215
0.605286 0.157837 0.039215
0.652924 0.163177 0.039215
0.701660 0.168335 0.039215
0.750305 0.173096 0.039215
0.800995 0.177948 0.039215
0.852631 0.182648 0.039215
0.903900 0.186951 0.039215
0.957001 0.191345 0.039215
1.000000 0.198975 0.039215
0.039215 0.039215 0.039215
0.039215 0.039215 0.039215
0.039215 0.039215 0.039215
0.039215 0.039215 0.039215
0.039215 0.046082 0.039215
0.040405 0.056549 0.039215
0.057129 0.066650 0.039215
0.076080 0.076080 0.039215
0.097748 0.085510 0.039215
0.121277 0.094299 0.039215
0.147461 0.103210 0.039215
0.175690 0.111816 0.039215
0.205444 0.119812 0.039215
0.237610 0.127930 0.039215
0.271667 0.135803 0.039215
0.306793 0.143127 0.039215
0.344269 0.150574 0.039215
0.383301 0.157776 0.039215
0.423096 0.164490 0.039215
0.465027 0.171295 0.039215
0.507568 0.177582 0.039215
0.552246 0.184021 0.039215
0.598083 0.190247 0.039215
0.644226 0.196014 0.039215
0.692261 0.201874 0.039215
0.741364 0.207550 0.039215
0.790405 0.212769 0.039215
0.841248 0.218079 0.039215
0.892944 0.223206 0.039215
0.939362 0.229614 0.039215
0.980621 0.238617 0.039215
1.000000 0.255157 0.039215
0.039215 0.039215 0.039215
0.039215 0.039948 0.039215
0.039215 0.052399 0.039215
0.039215 0.064362 0.039215
0.039215 0.075531 0.039215
0.054199 0.086731 0.039215
0.072845 0.097107 0.039215
0.094116 0.107574 0.039215
0.117737 0.117737 0.039215
0.143097 0.127167 0.039215
0.170929 0.136719 0.039215
0.200806 0.146027 0.039215
0.232025 0.154663 0.039215
0.265594 0.163422 0.039215
0.300934 0.171936 0.039215
0.337250 0.179840 0.039215
0.375793 0.187866 0.039215
0.415833 0.195648 0.039215
0.456512 0.202881 0.039215
0.499329 0.210236 0.039215
0.542664 0.217041 0.039215
0.587891 0.223938 0.039215
0.634338 0.230621 0.039215
0.680847 0.236786 0.039215
0.729248 0.243042 0.039215
0.778595 0.249115 0.039215
0.827850 0.254700 0.039215
0.874664 0.261688 0.039215
0.915985 0.270752 0.039215
0.956879 0.279388 0.039215
0.998291 0.288544 0.039215
1.000000 0.311188 0.071594
0.039215 0.058624 0.039215
0.039215 0.071716 0.039215
0.039215 0.084717 0.039215
0.039215 0.097290 0.039215
0.048431 0.109009 0.039215
0.067078 0.120789 0.039215
0.087860 0.131805 0.039215
0.111115 0.142853 0.039215
0.136536 0.153625 0.039215
0.163635 0.163635 0.039215
0.193115 0.173798 0.039215
0.224518 0.183655 0.039215
0.257141 0.192810 0.039215
0.291992 0.202148 0.039215
0.328522 0.211212 0.039215
0.365967 0.219574 0.039215
0.405487 0.228088 0.039215
0.445770 0.235992 0.039215
0.488007 0.243988 0.039215
0.531555 0.251770 0.039215
0.575531 0.258972 0.039215
0.621307 0.266235 0.039215
0.668213 0.273346 0.039215
0.715179 0.279816 0.039215
0.763855 0.286407 0.039215
0.809998 0.293823 0.039215
0.850861 0.302399 0.039215
0.892181 0.311462 0.039215
0.933105 0.320129 0.039215
0.974548 0.329315 0.039215
1.000000 0.343994 0.062836
1.000000 0.366760 0.107697
0.039215 0.093842 0.039215
0.039215 0.107361 0.039215
0.039215 0.120850 0.039215
0.040009 0.133514 0.039215
0.058441 0.146179 0.039215
0.079254 0.158508 0.039215
0.101990 0.170013 0.039215
0.127136 0.181610 0.039215
0.154327 0.192902 0.039215
0.183044 0.203430 0.039215
0.214081 0.214081 0.039215
0.246826 0.224396 0.039215
0.280823 0.234009 0.039215
0.316956 0.243805 0.039215
0.354004 0.252869 0.039215
0.393036 0.262024 0.039215
0.433563 0.270966 0.039215
0.474670 0.279205 0.039215
0.517731 0.287628 0.039215
0.561890 0.295715 0.039215
0.606415 0.303192 0.039215
0.652710 0.310791 0.039215
0.699921 0.318115 0.039215
0.744873 0.325470 0.039215
0.786163 0.334503 0.039215
0.827515 0.343597 0.039215
0.868469 0.352264 0.039215
0.909912 0.361450 0.039215
0.950897 0.370178 0.047577
0.992340 0.379364 0.056763
1.000000 0.399506 0.099243
1.000000 0.421722 0.146332
0.039215 0.132629 0.039215
0.039215 0.146545 0.039215
0.039215 0.160522 0.039215
0.047302 0.173553 0.039215
0.067871 0.186737 0.039215
0.090668 0.199524 0.039215
0.115326 0.211456 0.039215
0.142242 0.223541 0.039215
0.171082 0.235260 0.039215
0.201447 0.246185 0.039215
0.233826 0.257202 0.039215
0.267975 0.267975 0.039215
0.303223 0.277954 0.039215
0.340424 0.288055 0.039215
0.378601 0.297455 0.039215
0.418579 0.306946 0.039215
0.459930 0.316193 0.039215
0.501831 0.324707 0.039215
0.545563 0.333374 0.039215
0.590302 0.341705 0.039215
0.635376 0.349426 0.039215
0.680206 0.357574 0.039215
0.721497 0.366608 0.039215
0.762360 0.375214 0.039215
0.803772 0.384369 0.039215
0.844757 0.393066 0.039215
0.886230 0.402283 0.047424
0.927673 0.411469 0.056610
0.968597 0.420135 0.065277
1.000000 0.432281 0.085358
1.000000 0.454163 0.138123
1.000000 0.475739 0.187408
0.039215 0.174255 0.039215
0.039215 0.189056 0.039215
0.039215 0.203461 0.039215
0.054169 0.216858 0.039215
0.076782 0.230469 0.039215
0.101471 0.243622 0.039215
0.127899 0.255890 0.039215
0.156494 0.268311 0.039215
0.186890 0.280365 0.039215
0.218689 0.291595 0.039215
0.252502 0.303009 0.039215
0.287415 0.313538 0.039215
0.324280 0.324280 0.039215
0.362579 0.334686 0.039215
0.401642 0.344269 0.039215
0.442566 0.354034 0.039215
0.484680 0.363464 0.039215
0.527283 0.372162 0.039215
0.571564 0.381012 0.039215
0.615540 0.389679 0.039215
0.656342 0.398224 0.039215
0.697693 0.407318 0.039215
0.739105 0.416473 0.039215
0.780090 0.425201 0.039215
0.821533 0.434387 0.047272
0.862518 0.443085 0.055969
0.903931 0.452240 0.065125
0.945282 0.461334 0.074219
0.986115 0.469910 0.082794
1.000000 0.486694 0.124359
1.000000 0.507751 0.179596
1.000000 0.528625 0.230927
0.039215 0.219482 0.039215
0.039215 0.234619 0.039215
0.039215 0.249329 0.039215
0.060669 0.263062 0.039215
0.085175 0.276917 0.039215
0.111664 0.290405 0.039215
0.139801 0.302948 0.039215
0.169952 0.315704 0.039215
0.201874 0.328033 0.039215
0.235046 0.339478 0.039215
0.270081 0.351074 0.039215
0.306183 0.361847 0.039215
0.344116 0.372772 0.039215
0.383362 0.383362 0.039215
0.423370 0.393097 0.039215
0.465027 0.403015 0.039215
0.507874 0.412598 0.039215
0.550415 0.421326 0.039215
0.591705 0.430359 0.039215
0.633026 0.439423 0.039215
0.673981 0.448120 0.039215
0.715424 0.457306 0.039215
0.756378 0.466003 0.046631
0.797821 0.475189 0.055817
0.839233 0.484344 0.064972
0.880157 0.492981 0.073608
0.921448 0.502014 0.082642
0.962677 0.510986 0.091614
1.000000 0.520264 0.104431
1.000000 0.539948 0.166138
1.000000 0.560089 0.223694
1.000000 0.580078 0.276764
0.039215 0.267609 0.039215
0.039215 0.283051 0.039215
0.042511 0.298004 0.039215
0.066772 0.311890 0.039215
0.093109 0.325989 0.039215
0.121277 0.339691 0.039215
0.151001 0.352417 0.039215
0.182648 0.365356 0.039215
0.215607 0.377319 0.039215
0.250397 0.389465 0.039215
0.286621 0.401276 0.039215
0.323853 0.412140 0.039215
0.362732 0.423187 0.039215
0.402863 0.433868 0.039215
0.443695 0.443695 0.039215
0.485687 0.453430 0.039215
0.527039 0.462463 0.039215
0.567902 0.471069 0.039215
0.609314 0.480225 0.039215
0.650757 0.489410 0.039215
0.691742 0.498138 0.046509
0.733185 0.507324 0.055695
0.774109 0.515991 0.064362
0.815460 0.525116 0.073456
0.856781 0.534149 0.082489
0.897522 0.542633 0.090973
0.938629 0.551483 0.099823
0.979614 0.560211 0.108551
1.000000 0.573059 0.146057
1.000000 0.591675 0.210541
1.000000 0.610840 0.270294
1.000000 0.629822 0.324951
0.039215 0.318298 0.039215
0.039215 0.333862 0.039215
0.046478 0.348999 0.039215
0.072571 0.363098 0.039215
0.100586 0.377350 0.039215
0.130371 0.391235 0.039215
0.161591 0.404053 0.039215
0.194611 0.417084 0.039215
0.228851 0.429108 0.039215
0.264801 0.441345 0.039215
0.302155 0.453217 0.039215
0.340363 0.464081 0.039215
0.380127 0.475159 0.039215
0.421051 0.485565 0.039215
0.461853 0.494110 0.039215
0.503204 0.503204 0.039215
0.544647 0.512329 0.039215
0.585602 0.521057 0.039215
0.627045 0.530243 0.046326
0.668030 0.538971 0.055054
0.709442 0.548126 0.064209
0.750793 0.557220 0.073303
0.791626 0.565796 0.081879
0.832855 0.574768 0.090851
0.873993 0.583618 0.099701
0.914520 0.591888 0.107971
0.955353 0.600464 0.116547
0.995972 0.608826 0.124908
1.000000 0.624176 0.190521
1.000000 0.641632 0.257629
1.000000 0.659180 0.318329
1.000000 0.677643 0.375427
0.039215 0.371307 0.039215
0.039215 0.386993 0.039215
0.050232 0.402222 0.039215
0.078003 0.416351 0.039215
0.107635 0.430725 0.039215
0.138885 0.444641 0.039215
0.171509 0.457489 0.039215
0.205841 0.470551 0.039215
0.241272 0.482605 0.039215
0.278351 0.494843 0.039215
0.316650 0.506653 0.039215
0.355896 0.517212 0.039215
0.397186 0.526276 0.039215
0.438538 0.535370 0.039215
0.479462 0.544037 0.039215
0.520905 0.553192 0.039215
0.562378 0.562378 0.046173
0.603333 0.571075 0.054871
0.644745 0.580231 0.064026
0.686127 0.589355 0.073151
0.726959 0.597931 0.081726
0.768188 0.606903 0.090698
0.808838 0.615295 0.099091
0.849854 0.624023 0.107819
0.890656 0.632568 0.116364
0.930847 0.640503 0.124298
0.971344 0.648743 0.132538
1.000000 0.658661 0.162079
1.000000 0.673401 0.237885
1.000000 0.689606 0.307495
1.000000 0.706482 0.370972
1.000000 0.723328 0.428162
0.039215 0.426331 0.039215
0.039215 0.442078 0.039215
0.053741 0.457367 0.039215
0.083160 0.471497 0.039215
0.114258 0.485840 0.039215
0.146942 0.499756 0.039215
0.180847 0.512543 0.039215
0.216400 0.525604 0.039215
0.252930 0.537567 0.039215
0.291229 0.549347 0.039215
0.332520 0.558380 0.039215
0.373383 0.566986 0.039215
0.414764 0.576111 0.039215
0.456207 0.585297 0.039215
0.497192 0.594025 0.045563
0.538666 0.603210 0.054749
0.580109 0.612366 0.063904
0.620972 0.620972 0.072510
0.662292 0.630035 0.081573
0.703033 0.638519 0.090057
0.744171 0.647400 0.098938
0.785156 0.656128 0.107666
0.825531 0.664246 0.115784
0.866241 0.672668 0.124207
0.906738 0.680908 0.132446
0.946564 0.688477 0.140015
0.986603 0.696259 0.147797
1.000000 0.707184 0.209351
1.000000 0.720459 0.288361
1.000000 0.735291 0.360260
1.000000 0.750427 0.424011
1.000000 0.766571 0.483063
0.039215 0.483307 0.039215
0.039215 0.498901 0.039215
0.057068 0.514160 0.039215
0.087982 0.528229 0.039215
0.120483 0.542480 0.039215
0.154266 0.555603 0.039215
0.189575 0.568939 0.039215
0.226593 0.581482 0.039215
0.267365 0.589996 0.039215
0.308716 0.599091 0.039215
0.350128 0.608246 0.039215
0.391083 0.616943 0.039215
0.432556 0.626160 0.045441
0.473938 0.635284 0.054565
0.514893 0.643982 0.063263
0.556305 0.653107 0.072388
0.597656 0.662170 0.081451
0.638397 0.670654 0.089935
0.679504 0.679504 0.098785
0.720062 0.687805 0.107086
0.760895 0.696381 0.115662
0.801544 0.704773 0.124054
0.841614 0.712555 0.131836
0.881897 0.720581 0.139862
0.921967 0.728394 0.147675
0.961334 0.735504 0.154785
1.000000 0.742889 0.164246
1.000000 0.753296 0.259857
1.000000 0.765015 0.341949
1.000000 0.778442 0.415833
1.000000 0.792267 0.480652
1.000000 0.807159 0.540131
0.039215 0.541718 0.039215
0.039215 0.557312 0.039215
0.060181 0.572388 0.039215
0.092499 0.586273 0.039215
0.126343 0.600372 0.039215
0.161438 0.613129 0.039215
0.202698 0.622101 0.039215
0.244049 0.631195 0.039215
0.284973 0.639862 0.039215
0.326416 0.649048 0.039215
0.367859 0.658234 0.045258
0.408813 0.666931 0.053955
0.450256 0.676117 0.063141
0.491638 0.685242 0.072266
0.532501 0.693817 0.080841
0.573730 0.702789 0.089813
0.614380 0.711151 0.098175
0.655396 0.719910 0.106934
0.696228 0.728485 0.115509
0.736481 0.736481 0.123505
0.776947 0.744690 0.131714
0.817261 0.752747 0.139771
0.856903 0.760101 0.147125
0.896729 0.767670 0.154694
0.936279 0.774963 0.161987
0.975098 0.781525 0.168549
1.000000 0.788269 0.213470
1.000000 0.796326 0.312561
1.000000 0.806824 0.398926
1.000000 0.818787 0.474396
1.000000 0.831268 0.539795
1.000000 0.844849 0.599121
0.039215 0.601440 0.039215
0.039215 0.616852 0.039215
0.063019 0.630920 0.039215
0.096771 0.645233 0.039215
0.138031 0.654236 0.039215
0.178894 0.662842 0.039215
0.220337 0.671997 0.039215
0.261749 0.681152 0.039215
0.302734 0.689880 0.044647
0.344147 0.699036 0.053802
0.385559 0.708191 0.062958
0.426483 0.716858 0.071625
0.467773 0.725891 0.080658
0.508545 0.734406 0.089172
0.549713 0.743286 0.098053
0.590698 0.752014 0.106781
0.631134 0.760162 0.114929
0.671814 0.768585 0.123352
0.712311 0.776825 0.131592
0.752167 0.784424 0.139191
0.792236 0.792236 0.147003
0.832062 0.799805 0.154572
0.871246 0.806702 0.161469
0.910492 0.813690 0.168457
0.949463 0.820404 0.175171
0.987701 0.826385 0.181152
1.000000 0.830811 0.266876
1.000000 0.836823 0.370605
1.000000 0.845642 0.459564
1.000000 0.856049 0.536011
1.000000 0.867126 0.601318
1.000000 0.879395 0.659973
0.039215 0.662231 0.039215
0.039215 0.677307 0.039215
0.072876 0.685852 0.039215
0.114227 0.694946 0.039215
0.155609 0.704071 0.039215
0.196564 0.712769 0.039215
0.238037 0.721954 0.044464
0.279510 0.731171 0.053680
0.320465 0.739868 0.062378
0.361816 0.748962 0.071472
0.403137 0.758026 0.080536
0.443909 0.766541 0.089050
0.485046 0.775421 0.097931
0.525574 0.783661 0.106171
0.566467 0.792297 0.114807
0.607147 0.800720 0.123230
0.647247 0.808533 0.131042
0.687561 0.816589 0.139099
0.727631 0.824402 0.146912
0.767029 0.831543 0.154053
0.806610 0.838867 0.161377
0.845886 0.845886 0.168365
0.884460 0.852203 0.174683
0.923096 0.858582 0.181061
0.960999 0.864227 0.186707
0.998932 0.869904 0.192383
1.000000 0.870117 0.324585
1.000000 0.873993 0.432922
1.000000 0.880981 0.523926
1.000000 0.889862 0.600677
1.000000 0.899658 0.665375
1.000000 0.910553 0.722595
0.039215 0.717987 0.039215
0.049591 0.727081 0.039215
0.090485 0.735718 0.039215
0.131927 0.744904 0.039215
0.173370 0.754089 0.044342
0.214355 0.762787 0.053040
0.255768 0.771942 0.062195
0.297150 0.781067 0.071320
0.338013 0.789673 0.079926
0.379242 0.798645 0.088898
0.419891 0.807037 0.097290
0.460907 0.815796 0.106049
0.501801 0.824432 0.114685
0.542053 0.832397 0.122650
0.582581 0.840698 0.130920
0.622894 0.848755 0.138977
0.662567 0.856140 0.146362
0.702393 0.863708 0.153931
0.741974 0.871033 0.161255
0.780853 0.877655 0.167877
0.819824 0.884369 0.174591
0.858521 0.890778 0.181000
0.896454 0.896454 0.186676
0.934387 0.902130 0.192352
0.971588 0.907074 0.197296
1.000000 0.908997 0.241638
1.000000 0.905792 0.387604
1.000000 0.907440 0.500092
1.000000 0.912689 0.592468
1.000000 0.920044 0.668701
1.000000 0.928497 0.731842
1.000000 0.938110 0.786713
0.039215 0.767822 0.039215
0.067230 0.776978 0.039215
0.108215 0.785706 0.043701
0.149689 0.794922 0.052917
0.191101 0.804077 0.062073
0.232025 0.812714 0.070709
0.273346 0.821777 0.079773
0.314606 0.830780 0.088776
0.355255 0.839172 0.097168
0.396240 0.847931 0.105896
0.436676 0.856110 0.114075
0.477386 0.864563 0.122528
0.517914 0.872833 0.130798
0.557800 0.880432 0.138397
0.597900 0.888275 0.146240
0.637756 0.895874 0.153839
0.676941 0.902771 0.160736
0.716217 0.909790 0.167755
0.755219 0.916534 0.174500
0.793488 0.922546 0.180511
0.831818 0.928619 0.186584
0.869415 0.933929 0.191895
0.907013 0.939270 0.197235
0.944153 0.944153 0.202148
0.980560 0.948303 0.206299
1.000000 0.944061 0.300690
1.000000 0.937347 0.457062
1.000000 0.936798 0.573334
1.000000 0.940308 0.665710
1.000000 0.946259 0.740265
1.000000 0.953491 0.800598
1.000000 0.961853 0.852234
0.043579 0.817841 0.043579
0.085022 0.827026 0.052765
0.125946 0.835693 0.061432
0.167328 0.844849 0.070557
0.208679 0.853912 0.079620
0.249451 0.862427 0.088135
0.290588 0.871307 0.097015
0.331604 0.880066 0.105774
0.372040 0.888245 0.113953
0.412750 0.896698 0.122406
0.452850 0.904541 0.130249
0.493164 0.912598 0.138306
0.533295 0.920441 0.146149
0.572693 0.927582 0.153290
0.612274 0.934906 0.160614
0.651611 0.941986 0.167694
0.690247 0.948334 0.174042
0.728912 0.954742 0.180450
0.767242 0.960815 0.186523
0.804840 0.966156 0.191864
0.842438 0.971466 0.197174
0.879242 0.976013 0.201752
0.915985 0.980499 0.206238
0.952301 0.984558 0.210297
0.987823 0.987823 0.213562
1.000000 0.974670 0.366913
1.000000 0.964203 0.534668
1.000000 0.961487 0.653351
1.000000 0.963501 0.744415
1.000000 0.968201 0.815643
1.000000 0.974335 0.871674
1.000000 0.981598 0.918488
0.061279 0.867828 0.061279
0.102692 0.876984 0.070435
0.143555 0.885590 0.079041
0.184784 0.894562 0.088013
0.225952 0.903442 0.096893
0.266510 0.911743 0.105194
0.307373 0.920349 0.113800
0.347626 0.928345 0.121796
0.388153 0.936615 0.130066
0.428497 0.944702 0.138153
0.468170 0.952118 0.145569
0.508057 0.959747 0.153198
0.547699 0.967102 0.160553
0.586578 0.973724 0.167175
0.625610 0.980499 0.173950
0.664307 0.986938 0.180389
0.702271 0.992615 0.186066
0.740265 0.998352 0.191803
0.778961 1.000000 0.210510
0.817322 1.000000 0.238800
0.853760 1.000000 0.268555
0.887695 1.000000 0.297821
0.919739 1.000000 0.331055
0.949341 1.000000 0.366608
0.976105 1.000000 0.402618
1.000000 1.000000 0.444122
1.000000 0.985535 0.623657
1.000000 0.980927 0.742645
1.000000 0.981750 0.829620
1.000000 0.985382 0.893982
1.000000 0.990845 0.945099
1.000000 0.997162 0.985321
0.078857 0.917664 0.078857
0.120117 0.926666 0.087860
0.160797 0.935089 0.096283
0.201843 0.943848 0.105042
0.242737 0.952484 0.113678
0.283020 0.960510 0.121704
0.323547 0.968781 0.129974
0.363464 0.976440 0.137634
0.403564 0.984283 0.145477
0.443451 0.991913 0.153107
0.482605 0.998810 0.160004
0.528107 1.000000 0.182037
0.573425 1.000000 0.207794
0.616608 1.000000 0.233215
0.658966 1.000000 0.261108
0.699707 1.000000 0.290192
0.738037 1.000000 0.318878
0.775177 1.000000 0.350494
0.809814 1.000000 0.381836
0.842987 1.000000 0.416626
0.873840 1.000000 0.453156
0.901978 1.000000 0.490143
0.927887 1.000000 0.531281
0.950989 1.000000 0.575165
0.970825 1.000000 0.620667
0.987396 1.000000 0.672302
1.000000 1.000000 0.729492
1.000000 0.994232 0.844482
1.000000 0.994537 0.923401
1.000000 0.997772 0.978424
1.000000 1.000000 1.000000
1.000000 1.000000 1.000000
0.096161 0.967224 0.096161
0.137177 0.975983 0.104919
0.177582 0.984131 0.113068
0.218353 0.992615 0.121552
0.259094 1.000000 0.130219
0.309937 1.000000 0.153076
0.359741 1.000000 0.176788
0.407410 1.000000 0.200012
0.454926 1.000000 0.225464
0.501160 1.000000 0.251770
0.545197 1.000000 0.277679
0.588623 1.000000 0.305786
0.630585 1.000000 0.335052
0.670166 1.000000 0.363892
0.708801 1.000000 0.395172
0.744995 1.000000 0.426270
