Game/Assets/LUTs/purple11-free-luts-pack/Undeniable.CUBE
#Created by: Adobe Photoshop Export Color Lookup Plugin
#Copyright: (C) Copyright 2019 Purple11
TITLE "Undeniable"
#LUT size
LUT_3D_SIZE 5
#data domain
#LUT data points
DOMAIN_MIN 0.000000 0.000000 0.000000
DOMAIN_MAX 0.903226 0.903226 0.903226
0.039215 0.039215 0.039215
0.039215 0.039215 0.039215
0.039215 0.039215 0.039215
0.234833 0.039215 0.039215
0.550201 0.039215 0.039215
0.039215 0.039215 0.039215
0.076080 0.076080 0.039215
0.271667 0.135803 0.039215
0.552246 0.184021 0.039215
0.892944 0.223206 0.039215
0.039215 0.267609 0.039215
0.182648 0.365356 0.039215
0.443695 0.443695 0.039215
0.733185 0.507324 0.055695
1.000000 0.573059 0.146057
0.039215 0.662231 0.039215
0.279510 0.731171 0.053680
0.566467 0.792297 0.114807
0.845886 0.845886 0.168365
1.000000 0.880981 0.523926
0.136383 1.000000 0.136383
0.478821 1.000000 0.305115
0.758179 1.000000 0.516357
0.945190 1.000000 0.780579
1.000000 1.000000 1.000000
0.039215 0.039215 0.039215
0.039215 0.039215 0.039215
0.066711 0.039215 0.039215
0.304535 0.039215 0.101471
0.625610 0.039215 0.156342
0.039215 0.039215 0.039215
0.099487 0.099487 0.099487
0.358887 0.133057 0.133057
0.635315 0.183624 0.183624
0.920959 0.243469 0.243469
0.039215 0.305817 0.152863
0.181854 0.407684 0.181854
0.467316 0.467316 0.241516
0.756256 0.530426 0.304596
1.000000 0.602448 0.403656
0.039215 0.691193 0.239532
0.302124 0.753784 0.302124
0.587463 0.813293 0.361633
0.861816 0.861816 0.410126
1.000000 0.903656 0.710907
0.194366 1.000000 0.395782
0.533142 1.000000 0.533142
0.803162 1.000000 0.704742
0.974609 1.000000 0.923737
1.000000 1.000000 1.000000
0.039215 0.039215 0.039215
0.039215 0.039215 0.039215
0.120270 0.039215 0.120270
0.368927 0.039215 0.245941
0.694458 0.039215 0.347168
0.039215 0.057831 0.115723
0.109589 0.109589 0.335419
0.375916 0.150085 0.375916
0.656708 0.205048 0.430847
0.944153 0.266663 0.492462
0.039215 0.341339 0.341339
0.202728 0.428528 0.428528
0.490479 0.490479 0.490479
0.778351 0.552521 0.552521
1.000000 0.634430 0.634430
0.039215 0.714325 0.488464
0.324768 0.776428 0.550598
0.606995 0.832825 0.606995
0.875763 0.875763 0.649902
1.000000 0.928070 0.856079
0.256226 1.000000 0.628113
0.591766 1.000000 0.727844
0.851593 1.000000 0.851593
1.000000 1.000000 1.000000
1.000000 1.000000 1.000000
0.039215 0.039215 0.039215
0.039215 0.039215 0.039215
0.169617 0.039215 0.254517
0.428680 0.039215 0.428680
0.759247 0.039215 0.569427
0.039215 0.082703 0.248352
0.122162 0.122162 0.573853
0.394806 0.168976 0.620667
0.678558 0.226898 0.678558
0.967377 0.289886 0.741547
0.039215 0.374176 0.561340
0.224976 0.450775 0.676636
0.513245 0.513245 0.739105
0.800049 0.574219 0.800049
1.000000 0.668488 0.834229
0.059601 0.737091 0.737091
0.346558 0.798218 0.798218
0.624390 0.850250 0.850250
0.887054 0.887054 0.887054
1.000000 0.955414 0.955414
0.324585 1.000000 0.831116
0.655334 1.000000 0.885132
0.905792 1.000000 0.952911
1.000000 1.000000 1.000000
1.000000 1.000000 1.000000
0.039215 0.039215 0.039215
0.040710 0.039215 0.163055
0.215179 0.039215 0.430420
0.483246 0.039215 0.644379
0.819092 0.039215 0.819092
0.039215 0.105621 0.422699
0.137604 0.137604 0.815094
0.415253 0.189423 0.866943
0.701508 0.249847 0.927338
0.989868 0.312378 0.989868
0.039215 0.403992 0.808105
0.247894 0.473694 0.925385
0.536255 0.536255 0.987915
0.805481 0.611023 1.000000
1.000000 0.705902 1.000000
0.082611 0.760101 0.985931
0.412506 0.804169 1.000000
0.702545 0.851288 1.000000
0.909912 0.909912 1.000000
1.000000 0.986267 1.000000
0.398468 1.000000 1.000000
0.723297 1.000000 1.000000
0.966766 1.000000 1.000000
1.000000 1.000000 1.000000
1.000000 1.000000 1.000000
