Game/Assets/LUTs/purple11-free-luts-pack/Undeniable 2.CUBE
#Created by: Adobe Photoshop Export Color Lookup Plugin
#Copyright: (C) Copyright 2019 Purple11
TITLE "Undeniable 2"
#LUT size
LUT_3D_SIZE 32
#data domain
DOMAIN_MIN 0.0 0.0 0.0
DOMAIN_MAX 1.0 1.0 1.0
#LUT data points
0.000000 0.000000 0.000000
0.000000 0.000000 0.000000
0.000000 0.000000 0.000000
0.000000 0.000000 0.000000
0.000000 0.000000 0.000000
0.000000 0.000000 0.000000
0.000000 0.000000 0.000000
0.000000 0.000000 0.000000
0.000000 0.000000 0.000000
0.000000 0.000000 0.000000
0.000000 0.000000 0.000000
0.000000 0.000000 0.000000
0.000000 0.000000 0.000000
0.000000 0.000000 0.000000
0.001892 0.001892 0.001892
0.009949 0.009949 0.009949
0.018433 0.018433 0.018433
0.027771 0.027771 0.027771
0.037445 0.037445 0.037445
0.047974 0.047974 0.047974
0.059082 0.059082 0.059082
0.070465 0.070465 0.070465
0.082642 0.082642 0.082642
0.095337 0.095337 0.095337
0.108185 0.108185 0.108185
0.121857 0.121857 0.121857
0.135956 0.135956 0.135956
0.150146 0.150146 0.150146
0.165070 0.165070 0.165070
0.180023 0.180023 0.180023
0.195740 0.195740 0.195740
0.211761 0.211761 0.211761
0.000000 0.000000 0.000000
0.000000 0.000000 0.000000
0.000000 0.000000 0.000000
0.000000 0.000000 0.000000
0.000000 0.000000 0.000000
0.000000 0.000000 0.000000
0.000000 0.000000 0.000000
0.000000 0.000000 0.000000
0.000000 0.000000 0.000000
0.000000 0.000000 0.000000
0.000000 0.000000 0.000000
0.000000 0.000000 0.000000
0.001678 0.001678 0.001678
0.009521 0.009521 0.009521
0.018188 0.018188 0.018188
0.027252 0.027252 0.027252
0.037201 0.037201 0.037201
0.047699 0.047699 0.047699
0.058502 0.058502 0.058502
0.070160 0.070160 0.070160
0.082336 0.082336 0.082336
0.094696 0.094696 0.094696
0.107849 0.107849 0.107849
0.121521 0.121521 0.121521
0.135254 0.135254 0.135254
0.149780 0.149780 0.149780
0.164703 0.164703 0.164703
0.179626 0.179626 0.179626
0.195343 0.195343 0.195343
0.210968 0.210968 0.210968
0.227325 0.227325 0.227325
0.243988 0.243988 0.243988
0.000000 0.000000 0.000000
0.000000 0.000000 0.000000
0.000000 0.000000 0.000000
0.000000 0.000000 0.000000
0.000000 0.000000 0.000000
0.000000 0.000000 0.000000
0.000000 0.000000 0.000000
0.000000 0.000000 0.000000
0.000000 0.000000 0.000000
0.000000 0.000000 0.000000
0.001312 0.001312 0.001312
0.009308 0.009308 0.009308
0.017975 0.017975 0.017975
0.027039 0.027039 0.027039
0.036926 0.036926 0.036926
0.047180 0.047180 0.047180
0.058228 0.058228 0.058228
0.069855 0.069855 0.069855
0.081696 0.081696 0.081696
0.094360 0.094360 0.094360
0.107513 0.107513 0.107513
0.120789 0.120789 0.120789
0.134888 0.134888 0.134888
0.149384 0.149384 0.149384
0.163940 0.163940 0.163940
0.179230 0.179230 0.179230
0.194519 0.194519 0.194519
0.210541 0.210541 0.210541
0.226929 0.226929 0.226929
0.243164 0.243164 0.243164
0.260101 0.260101 0.260101
0.277344 0.277344 0.277344
0.000000 0.000000 0.000000
0.000000 0.000000 0.000000
0.000000 0.000000 0.000000
0.000000 0.000000 0.000000
0.000000 0.000000 0.000000
0.000000 0.000000 0.000000
0.000000 0.000000 0.000000
0.000000 0.000000 0.000000
0.001129 0.001129 0.001129
0.009094 0.009094 0.009094
0.017517 0.017517 0.017517
0.026794 0.026794 0.026794
0.036682 0.036682 0.036682
0.046906 0.046906 0.046906
0.057953 0.057953 0.057953
0.069244 0.069244 0.069244
0.081390 0.081390 0.081390
0.094055 0.094055 0.094055
0.106842 0.106842 0.106842
0.120453 0.120453 0.120453
0.134521 0.134521 0.134521
0.148651 0.148651 0.148651
0.163544 0.163544 0.163544
0.178864 0.178864 0.178864
0.194122 0.194122 0.194122
0.210144 0.210144 0.210144
0.226074 0.226074 0.226074
0.242737 0.242737 0.242737
0.259674 0.259674 0.259674
0.276459 0.276459 0.276459
0.293945 0.293945 0.293945
0.311615 0.311615 0.311615
0.000000 0.000000 0.000000
0.000000 0.000000 0.000000
0.000000 0.000000 0.000000
0.000000 0.000000 0.000000
0.000000 0.000000 0.000000
0.000000 0.000000 0.000000
0.000916 0.000916 0.000916
0.008698 0.008698 0.008698
0.017303 0.017303 0.017303
0.026550 0.026550 0.026550
0.036163 0.036163 0.036163
0.046631 0.046631 0.046631
0.057373 0.057373 0.057373
0.068970 0.068970 0.068970
0.081085 0.081085 0.081085
0.093384 0.093384 0.093384
0.106537 0.106537 0.106537
0.120117 0.120117 0.120117
0.133820 0.133820 0.133820
0.148285 0.148285 0.148285
0.163177 0.163177 0.163177
0.178070 0.178070 0.178070
0.193726 0.193726 0.193726
0.209351 0.209351 0.209351
0.225677 0.225677 0.225677
0.242340 0.242340 0.242340
0.258820 0.258820 0.258820
0.276031 0.276031 0.276031
0.293488 0.293488 0.293488
0.310730 0.310730 0.310730
0.328613 0.328613 0.328613
0.346710 0.346710 0.346710
0.000000 0.000000 0.000000
0.000000 0.000000 0.000000
0.000000 0.000000 0.000000
0.000000 0.000000 0.000000
0.000549 0.000549 0.000549
0.008484 0.008484 0.008484
0.017090 0.017090 0.017090
0.026062 0.026062 0.026062
0.035919 0.035919 0.035919
0.046356 0.046356 0.046356
0.057098 0.057098 0.057098
0.068665 0.068665 0.068665
0.080475 0.080475 0.080475
0.093079 0.093079 0.093079
0.106201 0.106201 0.106201
0.119415 0.119415 0.119415
0.133453 0.133453 0.133453
0.147919 0.147919 0.147919
0.162415 0.162415 0.162415
0.177704 0.177704 0.177704
0.193329 0.193329 0.193329
0.208923 0.208923 0.208923
0.225250 0.225250 0.225250
0.241486 0.241486 0.241486
0.258423 0.258423 0.258423
0.275604 0.275604 0.275604
0.292603 0.292603 0.292603
0.310272 0.310272 0.310272
0.328186 0.328186 0.328186
0.345795 0.345795 0.345795
0.364044 0.364044 0.364044
0.382416 0.382416 0.382416
0.000000 0.000000 0.000000
0.000000 0.000000 0.000000
0.000366 0.000366 0.000366
0.008270 0.008270 0.008270
0.016632 0.016632 0.016632
0.025848 0.025848 0.025848
0.035675 0.035675 0.035675
0.045837 0.045837 0.045837
0.056824 0.056824 0.056824
0.068085 0.068085 0.068085
0.080170 0.080170 0.080170
0.092743 0.092743 0.092743
0.105530 0.105530 0.105530
0.119080 0.119080 0.119080
0.133118 0.133118 0.133118
0.147186 0.147186 0.147186
0.162048 0.162048 0.162048
0.177307 0.177307 0.177307
0.192566 0.192566 0.192566
0.208527 0.208527 0.208527
0.224426 0.224426 0.224426
0.241058 0.241058 0.241058
0.257996 0.257996 0.257996
0.274750 0.274750 0.274750
0.292175 0.292175 0.292175
0.309845 0.309845 0.309845
0.327271 0.327271 0.327271
0.345337 0.345337 0.345337
0.363586 0.363586 0.363586
0.381500 0.381500 0.381500
0.400024 0.400024 0.400024
0.418182 0.418182 0.418182
0.000183 0.000183 0.000183
0.007874 0.007874 0.007874
0.016418 0.016418 0.016418
0.025604 0.025604 0.025604
0.035156 0.035156 0.035156
0.045563 0.045563 0.045563
0.056549 0.056549 0.056549
0.067780 0.067780 0.067780
0.079865 0.079865 0.079865
0.092102 0.092102 0.092102
0.105194 0.105194 0.105194
0.118744 0.118744 0.118744
0.132385 0.132385 0.132385
0.146820 0.146820 0.146820
0.161682 0.161682 0.161682
0.176544 0.176544 0.176544
0.192169 0.192169 0.192169
0.208130 0.208130 0.208130
0.224030 0.224030 0.224030
0.240631 0.240631 0.240631
0.257111 0.257111 0.257111
0.274292 0.274292 0.274292
0.291718 0.291718 0.291718
0.308960 0.308960 0.308960
0.326813 0.326813 0.326813
0.344879 0.344879 0.344879
0.362671 0.362671 0.362671
0.381042 0.381042 0.381042
0.399567 0.399567 0.399567
0.417725 0.417725 0.417725
0.436432 0.436432 0.436432
0.454742 0.454742 0.454742
0.016205 0.016205 0.016205
0.025116 0.025116 0.025116
0.034912 0.034912 0.034912
0.045288 0.045288 0.045288
0.055969 0.055969 0.055969
0.067505 0.067505 0.067505
0.079224 0.079224 0.079224
0.091797 0.091797 0.091797
0.104858 0.104858 0.104858
0.118042 0.118042 0.118042
0.132019 0.132019 0.132019
0.146454 0.146454 0.146454
0.160919 0.160919 0.160919
0.176147 0.176147 0.176147
0.191772 0.191772 0.191772
0.207336 0.207336 0.207336
0.223633 0.223633 0.223633
0.240234 0.240234 0.240234
0.256683 0.256683 0.256683
0.273865 0.273865 0.273865
0.290863 0.290863 0.290863
0.308502 0.308502 0.308502
0.326385 0.326385 0.326385
0.343994 0.343994 0.343994
0.362213 0.362213 0.362213
0.380585 0.380585 0.380585
0.398651 0.398651 0.398651
0.417236 0.417236 0.417236
0.435974 0.435974 0.435974
0.454285 0.454285 0.454285
0.473114 0.473114 0.473114
0.491486 0.491486 0.491486
0.034637 0.034637 0.034637
0.044769 0.044769 0.044769
0.055695 0.055695 0.055695
0.067200 0.067200 0.067200
0.078918 0.078918 0.078918
0.091461 0.091461 0.091461
0.104187 0.104187 0.104187
0.117706 0.117706 0.117706
0.131683 0.131683 0.131683
0.145721 0.145721 0.145721
0.160553 0.160553 0.160553
0.175781 0.175781 0.175781
0.190979 0.190979 0.190979
0.206909 0.206909 0.206909
0.223206 0.223206 0.223206
0.239380 0.239380 0.239380
0.256256 0.256256 0.256256
0.273010 0.273010 0.273010
0.290405 0.290405 0.290405
0.308044 0.308044 0.308044
0.325470 0.325470 0.325470
0.343506 0.343506 0.343506
0.361755 0.361755 0.361755
0.379669 0.379669 0.379669
0.398163 0.398163 0.398163
0.416779 0.416779 0.416779
0.435028 0.435028 0.435028
0.453796 0.453796 0.453796
0.472137 0.472137 0.472137
0.490997 0.490997 0.490997
0.509888 0.509888 0.509888
0.528259 0.528259 0.528259
0.055420 0.055420 0.055420
0.066620 0.066620 0.066620
0.078613 0.078613 0.078613
0.090851 0.090851 0.090851
0.103851 0.103851 0.103851
0.117371 0.117371 0.117371
0.130981 0.130981 0.130981
0.145355 0.145355 0.145355
0.160187 0.160187 0.160187
0.174988 0.174988 0.174988
0.190582 0.190582 0.190582
0.206512 0.206512 0.206512
0.222382 0.222382 0.222382
0.238983 0.238983 0.238983
0.255432 0.255432 0.255432
0.272552 0.272552 0.272552
0.289978 0.289978 0.289978
0.307159 0.307159 0.307159
0.325043 0.325043 0.325043
0.343079 0.343079 0.343079
0.360840 0.360840 0.360840
0.379211 0.379211 0.379211
0.397705 0.397705 0.397705
0.415863 0.415863 0.415863
0.434570 0.434570 0.434570
0.453339 0.453339 0.453339
0.471680 0.471680 0.471680
0.490540 0.490540 0.490540
0.508942 0.508942 0.508942
0.527802 0.527802 0.527802
0.546631 0.546631 0.546631
0.564941 0.564941 0.564941
0.078308 0.078308 0.078308
0.090515 0.090515 0.090515
0.103516 0.103516 0.103516
0.116669 0.116669 0.116669
0.130615 0.130615 0.130615
0.144989 0.144989 0.144989
0.159424 0.159424 0.159424
0.174622 0.174622 0.174622
0.190186 0.190186 0.190186
0.205719 0.205719 0.205719
0.221954 0.221954 0.221954
0.238556 0.238556 0.238556
0.255005 0.255005 0.255005
0.272125 0.272125 0.272125
0.289124 0.289124 0.289124
0.306732 0.306732 0.306732
0.324585 0.324585 0.324585
0.342163 0.342163 0.342163
0.360382 0.360382 0.360382
0.378723 0.378723 0.378723
0.396790 0.396790 0.396790
0.415375 0.415375 0.415375
0.434082 0.434082 0.434082
0.452393 0.452393 0.452393
0.471222 0.471222 0.471222
0.489594 0.489594 0.489594
0.508484 0.508484 0.508484
0.527344 0.527344 0.527344
0.545685 0.545685 0.545685
0.564453 0.564453 0.564453
0.583160 0.583160 0.583160
0.601318 0.601318 0.601318
0.102875 0.102875 0.102875
0.116333 0.116333 0.116333
0.130249 0.130249 0.130249
0.144257 0.144257 0.144257
0.159058 0.159058 0.159058
0.174225 0.174225 0.174225
0.189392 0.189392 0.189392
0.205322 0.205322 0.205322
0.221558 0.221558 0.221558
0.237701 0.237701 0.237701
0.254578 0.254578 0.254578
0.271271 0.271271 0.271271
0.288666 0.288666 0.288666
0.306305 0.306305 0.306305
0.323669 0.323669 0.323669
0.341705 0.341705 0.341705
0.359924 0.359924 0.359924
0.377808 0.377808 0.377808
0.396301 0.396301 0.396301
0.414917 0.414917 0.414917
0.433136 0.433136 0.433136
0.451904 0.451904 0.451904
0.470734 0.470734 0.470734
0.489136 0.489136 0.489136
0.507996 0.507996 0.507996
0.526367 0.526367 0.526367
0.545197 0.545197 0.545197
0.563995 0.563995 0.563995
0.582245 0.582245 0.582245
0.600861 0.600861 0.600861
0.619354 0.619354 0.619354
0.637299 0.637299 0.637299
0.129547 0.129547 0.129547
0.143890 0.143890 0.143890
0.158661 0.158661 0.158661
0.173462 0.173462 0.173462
0.188995 0.188995 0.188995
0.204895 0.204895 0.204895
0.220734 0.220734 0.220734
0.237305 0.237305 0.237305
0.254150 0.254150 0.254150
0.270844 0.270844 0.270844
0.288208 0.288208 0.288208
0.305420 0.305420 0.305420
0.323242 0.323242 0.323242
0.341248 0.341248 0.341248
0.359009 0.359009 0.359009
0.377350 0.377350 0.377350
0.395844 0.395844 0.395844
0.413971 0.413971 0.413971
0.432678 0.432678 0.432678
0.451447 0.451447 0.451447
0.469818 0.469818 0.469818
0.488678 0.488678 0.488678
0.507050 0.507050 0.507050
0.525909 0.525909 0.525909
0.544739 0.544739 0.544739
0.563049 0.563049 0.563049
0.581757 0.581757 0.581757
0.600403 0.600403 0.600403
0.618439 0.618439 0.618439
0.636841 0.636841 0.636841
0.655060 0.655060 0.655060
0.672699 0.672699 0.672699
0.157928 0.157928 0.157928
0.173096 0.173096 0.173096
0.188629 0.188629 0.188629
0.204102 0.204102 0.204102
0.220337 0.220337 0.220337
0.236877 0.236877 0.236877
0.253296 0.253296 0.253296
0.270416 0.270416 0.270416
0.287354 0.287354 0.287354
0.304962 0.304962 0.304962
0.322784 0.322784 0.322784
0.340363 0.340363 0.340363
0.358551 0.358551 0.358551
0.376892 0.376892 0.376892
0.394928 0.394928 0.394928
0.413513 0.413513 0.413513
0.432220 0.432220 0.432220
0.450500 0.450500 0.450500
0.469330 0.469330 0.469330
0.488190 0.488190 0.488190
0.506592 0.506592 0.506592
0.525452 0.525452 0.525452
0.543793 0.543793 0.543793
0.562592 0.562592 0.562592
0.581299 0.581299 0.581299
0.599457 0.599457 0.599457
0.617981 0.617981 0.617981
0.636383 0.636383 0.636383
0.654175 0.654175 0.654175
0.672241 0.672241 0.672241
0.690125 0.690125 0.690125
0.707336 0.707336 0.707336
0.187836 0.187836 0.187836
0.203705 0.203705 0.203705
0.219910 0.219910 0.219910
0.236053 0.236053 0.236053
0.252869 0.252869 0.252869
0.269989 0.269989 0.269989
0.286926 0.286926 0.286926
0.304504 0.304504 0.304504
0.321899 0.321899 0.321899
0.339905 0.339905 0.339905
0.358093 0.358093 0.358093
0.375977 0.375977 0.375977
0.394440 0.394440 0.394440
0.413055 0.413055 0.413055
0.431274 0.431274 0.431274
0.450043 0.450043 0.450043
0.468872 0.468872 0.468872
0.487244 0.487244 0.487244
0.506104 0.506104 0.506104
0.524506 0.524506 0.524506
0.543335 0.543335 0.543335
0.562103 0.562103 0.562103
0.580353 0.580353 0.580353
0.598999 0.598999 0.598999
0.617523 0.617523 0.617523
0.635468 0.635468 0.635468
0.653717 0.653717 0.653717
0.671783 0.671783 0.671783
0.689240 0.689240 0.689240
0.706909 0.706909 0.706909
0.723938 0.723938 0.723938
0.741119 0.741119 0.741119
0.219116 0.219116 0.219116
0.235626 0.235626 0.235626
0.252441 0.252441 0.252441
0.269104 0.269104 0.269104
0.286469 0.286469 0.286469
0.304077 0.304077 0.304077
0.321442 0.321442 0.321442
0.339447 0.339447 0.339447
0.357178 0.357178 0.357178
0.375519 0.375519 0.375519
0.393982 0.393982 0.393982
0.412109 0.412109 0.412109
0.430817 0.430817 0.430817
0.449585 0.449585 0.449585
0.467926 0.467926 0.467926
0.486755 0.486755 0.486755
0.505646 0.505646 0.505646
0.524017 0.524017 0.524017
0.542847 0.542847 0.542847
0.561646 0.561646 0.561646
0.579895 0.579895 0.579895
0.598541 0.598541 0.598541
0.616608 0.616608 0.616608
0.635010 0.635010 0.635010
0.653259 0.653259 0.653259
0.670868 0.670868 0.670868
0.688782 0.688782 0.688782
0.706451 0.706451 0.706451
0.723480 0.723480 0.723480
0.740692 0.740692 0.740692
0.757629 0.757629 0.757629
0.773865 0.773865 0.773865
0.251587 0.251587 0.251587
0.268677 0.268677 0.268677
0.286041 0.286041 0.286041
0.303192 0.303192 0.303192
0.320984 0.320984 0.320984
0.338989 0.338989 0.338989
0.356720 0.356720 0.356720
0.375061 0.375061 0.375061
0.393066 0.393066 0.393066
0.411652 0.411652 0.411652
0.430359 0.430359 0.430359
0.448639 0.448639 0.448639
0.467438 0.467438 0.467438
0.486298 0.486298 0.486298
0.504700 0.504700 0.504700
0.523560 0.523560 0.523560
0.542389 0.542389 0.542389
0.560699 0.560699 0.560699
0.579437 0.579437 0.579437
0.597595 0.597595 0.597595
0.616150 0.616150 0.616150
0.634552 0.634552 0.634552
0.652344 0.652344 0.652344
0.670441 0.670441 0.670441
0.688354 0.688354 0.688354
0.705597 0.705597 0.705597
0.723053 0.723053 0.723053
0.740265 0.740265 0.740265
0.756805 0.756805 0.756805
0.773468 0.773468 0.773468
0.789398 0.789398 0.789398
0.805420 0.805420 0.805420
0.285187 0.285187 0.285187
0.302734 0.302734 0.302734
0.320557 0.320557 0.320557
0.338104 0.338104 0.338104
0.356262 0.356262 0.356262
0.374146 0.374146 0.374146
0.392609 0.392609 0.392609
0.411194 0.411194 0.411194
0.429382 0.429382 0.429382
0.448151 0.448151 0.448151
0.466980 0.466980 0.466980
0.485352 0.485352 0.485352
0.504242 0.504242 0.504242
0.523071 0.523071 0.523071
0.541443 0.541443 0.541443
0.560242 0.560242 0.560242
0.578979 0.578979 0.578979
0.597137 0.597137 0.597137
0.615662 0.615662 0.615662
0.633636 0.633636 0.633636
0.651886 0.651886 0.651886
0.669983 0.669983 0.669983
0.687439 0.687439 0.687439
0.705139 0.705139 0.705139
0.722626 0.722626 0.722626
0.739410 0.739410 0.739410
0.756378 0.756378 0.756378
0.773041 0.773041 0.773041
0.788971 0.788971 0.788971
0.805023 0.805023 0.805023
0.820312 0.820312 0.820312
0.835632 0.835632 0.835632
0.319641 0.319641 0.319641
0.337646 0.337646 0.337646
0.355804 0.355804 0.355804
0.373688 0.373688 0.373688
0.392151 0.392151 0.392151
0.410278 0.410278 0.410278
0.428925 0.428925 0.428925
0.447693 0.447693 0.447693
0.466034 0.466034 0.466034
0.484894 0.484894 0.484894
0.503754 0.503754 0.503754
0.522125 0.522125 0.522125
0.540985 0.540985 0.540985
0.559784 0.559784 0.559784
0.578033 0.578033 0.578033
0.596680 0.596680 0.596680
0.614746 0.614746 0.614746
0.633179 0.633179 0.633179
0.651428 0.651428 0.651428
0.669098 0.669098 0.669098
0.686981 0.686981 0.686981
0.704712 0.704712 0.704712
0.721741 0.721741 0.721741
0.738983 0.738983 0.738983
0.755951 0.755951 0.755951
0.772217 0.772217 0.772217
0.788574 0.788574 0.788574
0.804230 0.804230 0.804230
0.819916 0.819916 0.819916
0.835266 0.835266 0.835266
0.849823 0.849823 0.849823
0.864349 0.864349 0.864349
0.354889 0.354889 0.354889
0.373230 0.373230 0.373230
0.391205 0.391205 0.391205
0.409790 0.409790 0.409790
0.428467 0.428467 0.428467
0.446747 0.446747 0.446747
0.465576 0.465576 0.465576
0.484406 0.484406 0.484406
0.502808 0.502808 0.502808
0.521667 0.521667 0.521667
0.540497 0.540497 0.540497
0.558838 0.558838 0.558838
0.577545 0.577545 0.577545
0.595734 0.595734 0.595734
0.614288 0.614288 0.614288
0.632690 0.632690 0.632690
0.650513 0.650513 0.650513
0.668640 0.668640 0.668640
0.686554 0.686554 0.686554
0.703827 0.703827 0.703827
0.721313 0.721313 0.721313
0.738556 0.738556 0.738556
0.755127 0.755127 0.755127
0.771790 0.771790 0.771790
0.788177 0.788177 0.788177
0.803833 0.803833 0.803833
0.819550 0.819550 0.819550
0.834503 0.834503 0.834503
0.849457 0.849457 0.849457
0.864014 0.864014 0.864014
0.877747 0.877747 0.877747
0.891418 0.891418 0.891418
0.390747 0.390747 0.390747
0.409332 0.409332 0.409332
0.427521 0.427521 0.427521
0.446289 0.446289 0.446289
0.465088 0.465088 0.465088
0.483459 0.483459 0.483459
0.502319 0.502319 0.502319
0.521210 0.521210 0.521210
0.539581 0.539581 0.539581
0.558350 0.558350 0.558350
0.577087 0.577087 0.577087
0.595276 0.595276 0.595276
0.613831 0.613831 0.613831
0.631775 0.631775 0.631775
0.650085 0.650085 0.650085
0.668182 0.668182 0.668182
0.685669 0.685669 0.685669
0.703400 0.703400 0.703400
0.720886 0.720886 0.720886
0.737701 0.737701 0.737701
0.754700 0.754700 0.754700
0.771393 0.771393 0.771393
0.787384 0.787384 0.787384
0.803436 0.803436 0.803436
0.818756 0.818756 0.818756
0.834106 0.834106 0.834106
0.849091 0.849091 0.849091
0.863281 0.863281 0.863281
0.877411 0.877411 0.877411
0.891083 0.891083 0.891083
0.903961 0.903961 0.903961
0.916687 0.916687 0.916687
0.427063 0.427063 0.427063
0.445831 0.445831 0.445831
0.464142 0.464142 0.464142
0.483002 0.483002 0.483002
0.501862 0.501862 0.501862
0.520264 0.520264 0.520264
0.539093 0.539093 0.539093
0.557892 0.557892 0.557892
0.576172 0.576172 0.576172
0.594818 0.594818 0.594818
0.612885 0.612885 0.612885
0.631317 0.631317 0.631317
0.649628 0.649628 0.649628
0.667267 0.667267 0.667267
0.685211 0.685211 0.685211
0.702942 0.702942 0.702942
0.720032 0.720032 0.720032
0.737274 0.737274 0.737274
0.754272 0.754272 0.754272
0.770569 0.770569 0.770569
0.786957 0.786957 0.786957
0.803040 0.803040 0.803040
0.818390 0.818390 0.818390
0.833740 0.833740 0.833740
0.848358 0.848358 0.848358
0.862915 0.862915 0.862915
0.877075 0.877075 0.877075
0.890411 0.890411 0.890411
0.903656 0.903656 0.903656
0.916382 0.916382 0.916382
0.928314 0.928314 0.928314
0.940002 0.940002 0.940002
0.463684 0.463684 0.463684
0.482513 0.482513 0.482513
0.500916 0.500916 0.500916
0.519806 0.519806 0.519806
0.538635 0.538635 0.538635
0.556946 0.556946 0.556946
0.575684 0.575684 0.575684
0.594360 0.594360 0.594360
0.612427 0.612427 0.612427
0.630859 0.630859 0.630859
0.648712 0.648712 0.648712
0.666840 0.666840 0.666840
0.684784 0.684784 0.684784
0.702057 0.702057 0.702057
0.719574 0.719574 0.719574
0.736847 0.736847 0.736847
0.753418 0.753418 0.753418
0.770142 0.770142 0.770142
0.786560 0.786560 0.786560
0.802246 0.802246 0.802246
0.817993 0.817993 0.817993
0.832977 0.832977 0.832977
0.847992 0.847992 0.847992
0.862549 0.862549 0.862549
0.876373 0.876373 0.876373
0.890076 0.890076 0.890076
0.903320 0.903320 0.903320
0.915771 0.915771 0.915771
0.928009 0.928009 0.928009
0.939728 0.939728 0.939728
0.950623 0.950623 0.950623
0.961243 0.961243 0.961243
0.500458 0.500458 0.500458
0.519318 0.519318 0.519318
0.537689 0.537689 0.537689
0.556488 0.556488 0.556488
0.575226 0.575226 0.575226
0.593414 0.593414 0.593414
0.611969 0.611969 0.611969
0.630402 0.630402 0.630402
0.648254 0.648254 0.648254
0.666382 0.666382 0.666382
0.683899 0.683899 0.683899
0.701630 0.701630 0.701630
0.719147 0.719147 0.719147
0.735992 0.735992 0.735992
0.752991 0.752991 0.752991
0.769745 0.769745 0.769745
0.785767 0.785767 0.785767
0.801849 0.801849 0.801849
0.817596 0.817596 0.817596
0.832611 0.832611 0.832611
0.847595 0.847595 0.847595
0.861847 0.861847 0.861847
0.876007 0.876007 0.876007
0.889740 0.889740 0.889740
0.902679 0.902679 0.902679
0.915436 0.915436 0.915436
0.927704 0.927704 0.927704
0.939148 0.939148 0.939148
0.950348 0.950348 0.950348
0.960968 0.960968 0.960968
0.970734 0.970734 0.970734
0.980164 0.980164 0.980164
0.537201 0.537201 0.537201
0.556030 0.556030 0.556030
0.574310 0.574310 0.574310
0.592957 0.592957 0.592957
0.611511 0.611511 0.611511
0.629486 0.629486 0.629486
0.647797 0.647797 0.647797
0.665466 0.665466 0.665466
0.683411 0.683411 0.683411
0.701172 0.701172 0.701172
0.718262 0.718262 0.718262
0.735565 0.735565 0.735565
0.752594 0.752594 0.752594
0.768890 0.768890 0.768890
0.785339 0.785339 0.785339
0.801453 0.801453 0.801453
0.816833 0.816833 0.816833
0.832245 0.832245 0.832245
0.846863 0.846863 0.846863
0.861481 0.861481 0.861481
0.875671 0.875671 0.875671
0.889069 0.889069 0.889069
0.902344 0.902344 0.902344
0.915131 0.915131 0.915131
0.927124 0.927124 0.927124
0.938873 0.938873 0.938873
0.950073 0.950073 0.950073
0.960449 0.960449 0.960449
0.970490 0.970490 0.970490
0.979706 0.979706 0.979706
0.988556 0.988556 0.988556
0.996704 0.996704 0.996704
0.573822 0.573822 0.573822
0.592499 0.592499 0.592499
0.610596 0.610596 0.610596
0.629028 0.629028 0.629028
0.647339 0.647339 0.647339
0.665039 0.665039 0.665039
0.682983 0.682983 0.682983
0.700317 0.700317 0.700317
0.717834 0.717834 0.717834
0.735138 0.735138 0.735138
0.751740 0.751740 0.751740
0.768494 0.768494 0.768494
0.784912 0.784912 0.784912
0.800659 0.800659 0.800659
0.816437 0.816437 0.816437
0.831848 0.831848 0.831848
0.846497 0.846497 0.846497
0.861115 0.861115 0.861115
0.874969 0.874969 0.874969
0.888733 0.888733 0.888733
0.902008 0.902008 0.902008
0.914520 0.914520 0.914520
0.926819 0.926819 0.926819
0.938568 0.938568 0.938568
0.949524 0.949524 0.949524
0.960175 0.960175 0.960175
0.970245 0.970245 0.970245
0.979492 0.979492 0.979492
0.988342 0.988342 0.988342
0.996307 0.996307 0.996307
1.000000 1.000000 1.000000
1.000000 1.000000 1.000000
0.610138 0.610138 0.610138
0.628571 0.628571 0.628571
0.646423 0.646423 0.646423
0.664581 0.664581 0.664581
0.682098 0.682098 0.682098
0.699860 0.699860 0.699860
0.717407 0.717407 0.717407
0.734253 0.734253 0.734253
0.751312 0.751312 0.751312
0.768066 0.768066 0.768066
0.784119 0.784119 0.784119
0.800232 0.800232 0.800232
0.816040 0.816040 0.816040
0.831085 0.831085 0.831085
0.846130 0.846130 0.846130
0.860413 0.860413 0.860413
