Game/Assets/LUTs/purple11-free-luts-pack/Urban cowboy.CUBE
#Created by: Adobe Photoshop Export Color Lookup Plugin
#Copyright: (C) Copyright 2019 Purple11
TITLE "Urban cowboy"
#LUT size
LUT_3D_SIZE 32
#data domain
DOMAIN_MIN 0.0 0.0 0.0
DOMAIN_MAX 1.0 1.0 1.0
#LUT data points
0.137177 0.039215 0.088196
0.154968 0.039215 0.088196
0.172974 0.039215 0.088196
0.191193 0.039215 0.088196
0.209717 0.039215 0.088196
0.228699 0.039215 0.088196
0.248138 0.039215 0.088196
0.268158 0.039215 0.088196
0.288818 0.039215 0.088196
0.310272 0.039215 0.088196
0.332581 0.039215 0.088196
0.355774 0.039215 0.088196
0.379883 0.039215 0.088196
0.405029 0.039215 0.088196
0.431244 0.039215 0.088196
0.458740 0.039215 0.088196
0.487549 0.039215 0.088196
0.517792 0.039215 0.088196
0.549530 0.039215 0.088196
0.582611 0.039215 0.088196
0.616638 0.039215 0.088196
0.651306 0.039215 0.088196
0.686127 0.039215 0.088196
0.720642 0.039215 0.088196
0.754791 0.039215 0.088196
0.788330 0.039215 0.088196
0.821411 0.039215 0.088196
0.854034 0.039215 0.088196
0.886383 0.039215 0.088196
0.918610 0.039215 0.088196
0.950806 0.039215 0.088196
0.983246 0.039215 0.088196
0.137177 0.057831 0.088196
0.155090 0.057861 0.088196
0.173187 0.057922 0.088196
0.191528 0.057953 0.088196
0.210175 0.057983 0.088196
0.229279 0.058044 0.088196
0.248871 0.058105 0.088196
0.269043 0.058167 0.088196
0.289886 0.058197 0.088196
0.311523 0.058258 0.088196
0.334015 0.058350 0.088196
0.357422 0.058380 0.088196
0.381805 0.058441 0.088196
0.407196 0.058533 0.088196
0.433777 0.058594 0.088196
0.461578 0.058685 0.088196
0.490875 0.058777 0.088196
0.521576 0.058838 0.088196
0.553802 0.058929 0.088196
0.587341 0.059021 0.088196
0.621826 0.059113 0.088196
0.656952 0.059204 0.088196
0.692200 0.059265 0.088196
0.727173 0.059387 0.088196
0.761688 0.059448 0.088196
0.795593 0.059540 0.088196
0.828857 0.059631 0.088196
0.861816 0.059723 0.088196
0.894470 0.059784 0.088196
0.927002 0.059845 0.088196
0.959503 0.059937 0.088196
0.992310 0.060059 0.088196
0.137177 0.076721 0.088196
0.155182 0.076813 0.088196
0.173431 0.076874 0.088196
0.191864 0.076965 0.088196
0.210663 0.077087 0.088196
0.229858 0.077179 0.088196
0.249634 0.077301 0.088196
0.269958 0.077393 0.088196
0.290985 0.077515 0.088196
0.312836 0.077667 0.088196
0.335510 0.077789 0.088196
0.359161 0.077942 0.088196
0.383820 0.078094 0.088196
0.409515 0.078247 0.088196
0.436401 0.078400 0.088196
0.464630 0.078552 0.088196
0.494232 0.078735 0.088196
0.525421 0.078888 0.088196
0.558228 0.079102 0.088196
0.592316 0.079254 0.088196
0.627258 0.079437 0.088196
0.662750 0.079620 0.088196
0.698425 0.079803 0.088196
0.733856 0.079956 0.088196
0.768677 0.080170 0.088196
0.802856 0.080322 0.088196
0.836456 0.080505 0.088196
0.869720 0.080658 0.088196
0.902649 0.080841 0.088196
0.935547 0.080994 0.088196
0.968506 0.081207 0.088196
1.000000 0.081390 0.088196
0.137177 0.096100 0.088196
0.155334 0.096222 0.088196
0.173615 0.096344 0.088196
0.192200 0.096497 0.088196
0.211151 0.096649 0.088196
0.230530 0.096832 0.088196
0.250458 0.097015 0.088196
0.270966 0.097198 0.088196
0.292175 0.097382 0.088196
0.314178 0.097565 0.088196
0.337128 0.097809 0.088196
0.361023 0.098022 0.088196
0.385925 0.098236 0.088196
0.411865 0.098511 0.088196
0.439148 0.098724 0.088196
0.467743 0.098999 0.088196
0.497864 0.099274 0.088196
0.529510 0.099518 0.088196
0.562805 0.099823 0.088196
0.597382 0.100098 0.088196
0.632843 0.100372 0.088196
0.668823 0.100647 0.088196
0.704926 0.100922 0.088196
0.740723 0.101227 0.088196
0.775879 0.101501 0.088196
0.810364 0.101746 0.088196
0.844269 0.102051 0.088196
0.877838 0.102295 0.088196
0.911133 0.102539 0.088196
0.943512 0.102844 0.088196
0.971985 0.103119 0.088196
1.000000 0.103333 0.088196
0.137177 0.115997 0.088196
0.155457 0.116211 0.088196
0.173859 0.116394 0.088196
0.192627 0.116608 0.088196
0.211670 0.116852 0.088196
0.231201 0.117096 0.088196
0.251312 0.117371 0.088196
0.272034 0.117615 0.088196
0.293427 0.117889 0.088196
0.315643 0.118164 0.088196
0.338806 0.118469 0.088196
0.362946 0.118805 0.088196
0.388123 0.119110 0.088196
0.414429 0.119446 0.088196
0.442047 0.119812 0.088196
0.471069 0.120178 0.088196
0.501617 0.120544 0.088196
0.533783 0.120911 0.088196
0.567596 0.121338 0.088196
0.602631 0.121735 0.088196
0.638550 0.122070 0.088196
0.675140 0.122498 0.088196
0.711700 0.122864 0.088196
0.747803 0.123260 0.088196
0.783325 0.123657 0.088196
0.818085 0.123993 0.088196
0.852356 0.124359 0.088196
0.885895 0.124756 0.088196
0.915314 0.125122 0.088196
0.944061 0.125488 0.088196
0.972260 0.125854 0.088196
1.000000 0.126221 0.088196
0.137177 0.136749 0.088196
0.155548 0.137024 0.088196
0.174164 0.137329 0.088196
0.193024 0.137604 0.088196
0.212280 0.137909 0.088196
0.231995 0.138245 0.088196
0.252258 0.138550 0.088196
0.273132 0.138916 0.088196
0.294739 0.139252 0.088196
0.317200 0.139648 0.088196
0.340576 0.140045 0.088196
0.364990 0.140442 0.088196
0.390472 0.140900 0.088196
0.417114 0.141357 0.088196
0.445038 0.141815 0.088196
0.474518 0.142303 0.088196
0.505493 0.142792 0.088196
0.538208 0.143280 0.088196
0.572540 0.143768 0.088196
0.608185 0.144287 0.088196
0.644653 0.144836 0.088196
0.681671 0.145325 0.088196
0.718597 0.145844 0.088196
0.755066 0.146362 0.088196
0.790894 0.146790 0.088196
0.825989 0.147308 0.088196
0.857178 0.147797 0.088196
0.887085 0.148285 0.088196
0.916199 0.148743 0.088196
0.944641 0.149200 0.088196
0.972534 0.149689 0.088196
1.000000 0.150208 0.088196
0.137177 0.158508 0.088196
0.155701 0.158875 0.088196
0.174438 0.159210 0.088196
0.193481 0.159607 0.088196
0.212921 0.160034 0.088196
0.232788 0.160431 0.088196
0.253235 0.160858 0.088196
0.274323 0.161285 0.088196
0.296112 0.161743 0.088196
0.318848 0.162262 0.088196
0.342438 0.162750 0.088196
0.367126 0.163269 0.088196
0.392914 0.163818 0.088196
0.419891 0.164398 0.088196
0.448242 0.165009 0.088196
0.478119 0.165619 0.088196
0.509613 0.166229 0.088196
0.542847 0.166840 0.088196
0.577789 0.167480 0.088196
0.613983 0.168121 0.088196
0.650970 0.168793 0.088196
0.688446 0.169434 0.088196
0.725861 0.170074 0.088196
0.762726 0.170715 0.088196
0.796356 0.171295 0.088196
0.828094 0.171906 0.088196
0.858673 0.172577 0.088196
0.888275 0.173157 0.088196
0.917114 0.173737 0.088196
0.945251 0.174347 0.088196
0.972839 0.174927 0.088196
1.000000 0.175537 0.088196
0.137177 0.181519 0.088196
0.155853 0.181946 0.088196
0.174774 0.182434 0.088196
0.194000 0.182892 0.088196
0.213593 0.183411 0.088196
0.233643 0.183899 0.088196
0.254272 0.184479 0.088196
0.275574 0.184998 0.088196
0.297638 0.185608 0.088196
0.320557 0.186188 0.088196
0.344482 0.186829 0.088196
0.369385 0.187500 0.088196
0.395538 0.188202 0.088196
0.422913 0.188904 0.088196
0.451630 0.189636 0.088196
0.481995 0.190369 0.088196
0.514008 0.191162 0.088196
0.547821 0.191925 0.088196
0.583282 0.192719 0.088196
0.620056 0.193512 0.088196
0.657562 0.194305 0.088196
0.695435 0.195099 0.088196
0.731812 0.195831 0.088196
0.765900 0.196625 0.088196
0.798553 0.197418 0.088196
0.829956 0.198151 0.088196
0.860229 0.198883 0.088196
0.889557 0.199615 0.088196
0.918030 0.200348 0.088196
0.945862 0.201111 0.088196
0.973145 0.201813 0.088196
1.000000 0.202515 0.088196
0.137177 0.205963 0.088196
0.156006 0.206543 0.088196
0.175079 0.207092 0.088196
0.194489 0.207733 0.088196
0.214294 0.208344 0.088196
0.234589 0.208984 0.088196
0.255402 0.209625 0.088196
0.276947 0.210327 0.088196
0.299194 0.211029 0.088196
0.322388 0.211792 0.088196
0.346558 0.212555 0.088196
0.371796 0.213379 0.088196
0.398285 0.214203 0.088196
0.425995 0.215088 0.088196
0.455170 0.215973 0.088196
0.485962 0.216888 0.088196
0.518555 0.217834 0.088196
0.552979 0.218750 0.088196
0.589050 0.219727 0.088196
0.626343 0.220673 0.088196
0.663788 0.221649 0.088196
0.699829 0.222595 0.088196
0.734863 0.223541 0.088196
0.768555 0.224426 0.088196
0.800873 0.225403 0.088196
0.831940 0.226288 0.088196
0.861877 0.227203 0.088196
0.890869 0.228088 0.088196
0.919006 0.228943 0.088196
0.946533 0.229828 0.088196
0.973450 0.230682 0.088196
1.000000 0.231567 0.088196
0.137177 0.232269 0.088196
0.156158 0.232971 0.088196
0.175476 0.233704 0.088196
0.195099 0.234436 0.088196
0.215027 0.235138 0.088196
0.235504 0.235901 0.088196
0.256622 0.236725 0.088196
0.278351 0.237579 0.088196
0.300934 0.238464 0.088196
0.324310 0.239319 0.088196
0.348785 0.240265 0.088196
0.374359 0.241272 0.088196
0.401154 0.242249 0.088196
0.429260 0.243317 0.088196
0.458954 0.244385 0.088196
0.490295 0.245514 0.088196
0.523438 0.246643 0.088196
0.558441 0.247772 0.088196
0.595032 0.248932 0.088196
0.631409 0.250061 0.088196
0.667664 0.251190 0.088196
0.703308 0.252319 0.088196
0.737915 0.253479 0.088196
0.771332 0.254578 0.088196
0.803284 0.255676 0.088196
0.833984 0.256744 0.088196
0.863556 0.257843 0.088196
0.892181 0.258881 0.088196
0.920013 0.259918 0.088196
0.947174 0.260956 0.088196
0.973816 0.261993 0.088196
1.000000 0.263031 0.088196
0.137177 0.260742 0.088196
0.156372 0.261566 0.088196
0.175842 0.262421 0.088196
0.195648 0.263275 0.088196
0.215851 0.264191 0.088196
0.236542 0.265137 0.088196
0.257904 0.266113 0.088196
0.279877 0.267059 0.088196
0.302673 0.268127 0.088196
0.326385 0.269226 0.088196
0.351166 0.270355 0.088196
0.377075 0.271545 0.088196
0.404236 0.272766 0.088196
0.432800 0.274017 0.088196
0.462891 0.275330 0.088196
0.494751 0.276611 0.088196
0.528503 0.277924 0.088196
0.563751 0.279297 0.088196
0.599609 0.280640 0.088196
0.635712 0.282013 0.088196
0.671600 0.283356 0.088196
0.706940 0.284760 0.088196
0.741241 0.286072 0.088196
0.774200 0.287415 0.088196
0.805786 0.288696 0.088196
0.836060 0.289978 0.088196
0.865295 0.291199 0.088196
0.893555 0.292450 0.088196
0.921082 0.293671 0.088196
0.947876 0.294891 0.088196
0.974182 0.296082 0.088196
1.000000 0.297333 0.088196
0.137177 0.291473 0.088196
0.156586 0.292480 0.088196
0.176270 0.293518 0.088196
0.196289 0.294556 0.088196
0.216705 0.295654 0.088196
0.237671 0.296753 0.088196
0.259216 0.297882 0.088196
0.281494 0.299072 0.088196
0.304535 0.300323 0.088196
0.328552 0.301575 0.088196
0.353638 0.302917 0.088196
0.379883 0.304260 0.088196
0.407471 0.305756 0.088196
0.436462 0.307220 0.088196
0.467072 0.308716 0.088196
0.499664 0.310242 0.088196
0.533661 0.311768 0.088196
0.568695 0.313324 0.088196
0.604401 0.314941 0.088196
0.640259 0.316528 0.088196
0.675812 0.318054 0.088196
0.710754 0.319672 0.088196
0.744598 0.321198 0.088196
0.777161 0.322662 0.088196
0.808319 0.324158 0.088196
0.838257 0.325623 0.088196
0.867096 0.327057 0.088196
0.894989 0.328430 0.088196
0.922119 0.329895 0.088196
0.948578 0.331238 0.088196
0.974518 0.332642 0.088196
1.000000 0.334015 0.088196
0.137177 0.324310 0.088196
0.156830 0.325470 0.088196
0.176697 0.326691 0.088196
0.196960 0.327881 0.088196
0.217621 0.329132 0.088196
0.238800 0.330414 0.088196
0.260651 0.331757 0.088196
0.283173 0.333099 0.088196
0.306519 0.334473 0.088196
0.330841 0.335999 0.088196
0.356201 0.337463 0.088196
0.382843 0.339050 0.088196
0.410828 0.340698 0.088196
0.440948 0.342346 0.088196
0.472473 0.344055 0.088196
0.505157 0.345764 0.088196
0.539001 0.347534 0.088196
0.573883 0.349274 0.088196
0.609344 0.351044 0.088196
0.644897 0.352875 0.088196
0.680054 0.354614 0.088196
0.714630 0.356323 0.088196
0.748108 0.358063 0.088196
0.780212 0.359680 0.088196
0.810974 0.361328 0.088196
0.840485 0.362976 0.088196
0.868927 0.364594 0.088196
0.896454 0.366180 0.088196
0.923218 0.367676 0.088196
0.949310 0.369202 0.088196
0.974884 0.370697 0.088196
1.000000 0.372223 0.088196
0.137177 0.358459 0.088196
0.157043 0.359802 0.088196
0.177185 0.361206 0.088196
0.197662 0.362579 0.088196
0.218536 0.363922 0.088196
0.239990 0.365387 0.088196
0.262085 0.366852 0.088196
0.284912 0.368378 0.088196
0.308563 0.369965 0.088196
0.333160 0.371552 0.088196
0.358887 0.373291 0.088196
0.386993 0.375000 0.088196
0.416443 0.376831 0.088196
0.446808 0.378632 0.088196
0.478271 0.380493 0.088196
0.510834 0.382416 0.088196
0.544617 0.384338 0.088196
0.579285 0.386261 0.088196
0.614471 0.388153 0.088196
0.649689 0.390137 0.088196
0.684479 0.391998 0.088196
0.718567 0.393860 0.088196
0.751617 0.395691 0.088196
0.783356 0.397522 0.088196
0.813660 0.399261 0.088196
0.842743 0.400970 0.088196
0.870819 0.402679 0.088196
0.897949 0.404388 0.088196
0.924316 0.405975 0.088196
0.950043 0.407593 0.088196
0.975220 0.409210 0.088196
1.000000 0.410797 0.088196
0.137177 0.393494 0.088196
0.157257 0.394928 0.088196
0.177673 0.396393 0.088196
0.198364 0.397949 0.088196
0.219543 0.399414 0.088196
0.241272 0.400970 0.088196
0.263641 0.402618 0.088196
0.286713 0.404266 0.088196
0.310638 0.405945 0.088196
0.337250 0.407684 0.088196
0.364868 0.409485 0.088196
0.393341 0.411377 0.088196
0.422607 0.413269 0.088196
0.452911 0.415253 0.088196
0.484192 0.417206 0.088196
0.516693 0.419220 0.088196
0.550323 0.421204 0.088196
0.584747 0.423218 0.088196
0.619659 0.425293 0.088196
0.654510 0.427277 0.088196
0.688934 0.429260 0.088196
0.722656 0.431274 0.088196
0.755249 0.433167 0.088196
0.786438 0.435028 0.088196
0.816376 0.436829 0.088196
0.845062 0.438660 0.088196
0.872711 0.440399 0.088196
0.899506 0.442078 0.088196
0.925446 0.443756 0.088196
0.950775 0.445404 0.088196
0.975616 0.447021 0.088196
1.000000 0.448669 0.088196
0.137177 0.428314 0.088196
0.157501 0.429871 0.088196
0.178131 0.431396 0.088196
0.199127 0.432953 0.088196
0.220520 0.434570 0.088196
0.242554 0.436218 0.088196
0.265503 0.437897 0.088196
0.291168 0.439606 0.088196
0.317413 0.441376 0.088196
0.344086 0.443207 0.088196
0.371490 0.445068 0.088196
0.399841 0.447021 0.088196
0.429016 0.448975 0.088196
0.459106 0.450989 0.088196
0.490387 0.453033 0.088196
0.522766 0.455109 0.088196
0.556244 0.457123 0.088196
0.590424 0.459167 0.088196
0.625031 0.461273 0.088196
0.659485 0.463226 0.088196
0.693512 0.465240 0.088196
0.726715 0.467194 0.088196
0.758911 0.469116 0.088196
0.789642 0.470947 0.088196
0.819153 0.472748 0.088196
0.847382 0.474518 0.088196
0.874603 0.476227 0.088196
0.900970 0.477905 0.088196
0.926544 0.479523 0.088196
0.951538 0.481110 0.088196
0.975983 0.482758 0.088196
1.000000 0.484283 0.088196
0.137177 0.461945 0.088196
0.157776 0.463531 0.088196
0.178650 0.465088 0.088196
0.199890 0.466675 0.088196
0.223083 0.468353 0.088196
0.247986 0.470032 0.088196
0.273193 0.471680 0.088196
0.298676 0.473419 0.088196
0.324585 0.475159 0.088196
0.351166 0.477051 0.088196
0.378357 0.478851 0.088196
0.406525 0.480804 0.088196
0.435547 0.482727 0.088196
0.465546 0.484680 0.088196
0.496582 0.486664 0.088196
0.528870 0.488678 0.088196
0.562164 0.490662 0.088196
0.596100 0.492615 0.088196
0.630341 0.494598 0.088196
0.664490 0.496521 0.088196
0.698090 0.498413 0.088196
0.730896 0.500275 0.088196
0.762543 0.502106 0.088196
0.792847 0.503845 0.088196
0.821838 0.505524 0.088196
0.849701 0.507141 0.088196
0.876526 0.508728 0.088196
0.902527 0.510315 0.088196
0.927704 0.511780 0.088196
0.952301 0.513275 0.088196
0.976379 0.514679 0.088196
1.000000 0.516144 0.088196
0.137177 0.493317 0.088196
0.158020 0.494843 0.088196
0.182404 0.496399 0.088196
0.206818 0.497925 0.088196
0.231354 0.499481 0.088196
0.256042 0.501099 0.088196
0.280914 0.502686 0.088196
0.306274 0.504395 0.088196
0.331909 0.506042 0.088196
0.358185 0.507721 0.088196
0.385345 0.509521 0.088196
0.413269 0.511292 0.088196
0.442169 0.513123 0.088196
0.472076 0.514954 0.088196
0.502991 0.516724 0.088196
0.535095 0.518585 0.088196
0.568237 0.520447 0.088196
0.601868 0.522186 0.088196
0.635773 0.523987 0.088196
0.669525 0.525696 0.088196
0.702698 0.527405 0.088196
0.734985 0.529022 0.088196
0.766205 0.530640 0.088196
0.796021 0.532196 0.088196
0.824615 0.533661 0.088196
0.852020 0.535126 0.088196
0.878418 0.536469 0.088196
0.903992 0.537842 0.088196
0.928802 0.539154 0.088196
0.953003 0.540466 0.088196
0.976715 0.541718 0.088196
1.000000 0.542938 0.088196
0.142639 0.521149 0.088196
0.166931 0.522583 0.088196
0.191193 0.524017 0.088196
0.215424 0.525452 0.088196
0.239685 0.526886 0.088196
0.264130 0.528290 0.088196
0.288879 0.529785 0.088196
0.313904 0.531219 0.088196
0.339325 0.532745 0.088196
0.365448 0.534302 0.088196
0.392303 0.535858 0.088196
0.420135 0.537476 0.088196
0.448853 0.539062 0.088196
0.478577 0.540710 0.088196
0.509460 0.542358 0.088196
0.541321 0.543945 0.088196
0.574219 0.545563 0.088196
0.607697 0.547211 0.088196
0.641205 0.548767 0.088196
0.674500 0.550323 0.088196
0.707214 0.551849 0.088196
0.739075 0.553345 0.088196
0.769836 0.554779 0.088196
0.799194 0.556213 0.088196
0.827332 0.557526 0.088196
0.854309 0.558838 0.088196
0.880310 0.560089 0.088196
0.905457 0.561371 0.088196
0.929962 0.562531 0.088196
0.953735 0.563721 0.088196
0.977081 0.564850 0.088196
1.000000 0.566010 0.088196
0.151886 0.544922 0.088196
0.176025 0.546204 0.088196
0.199951 0.547485 0.088196
0.223969 0.548798 0.088196
0.248108 0.550110 0.088196
0.272308 0.551422 0.088196
0.296753 0.552734 0.088196
0.321533 0.554138 0.088196
0.346771 0.555511 0.088196
0.372681 0.556976 0.088196
0.399353 0.558380 0.088196
0.427002 0.559906 0.088196
0.455627 0.561401 0.088196
0.485168 0.562897 0.088196
0.515869 0.564392 0.088196
0.547668 0.565948 0.088196
0.580292 0.567474 0.088196
0.613403 0.569000 0.088196
0.646545 0.570465 0.088196
0.679504 0.571960 0.088196
0.711761 0.573395 0.088196
0.743164 0.574860 0.088196
0.773407 0.576233 0.088196
0.802277 0.577545 0.088196
0.829956 0.578857 0.088196
0.856567 0.580139 0.088196
0.882141 0.581421 0.088196
0.906952 0.582581 0.088196
0.931000 0.583832 0.088196
0.954468 0.584991 0.088196
0.977448 0.585815 0.088196
1.000000 0.586487 0.088196
0.161163 0.565613 0.088196
0.184998 0.566833 0.088196
0.208801 0.568085 0.088196
0.232574 0.569336 0.088196
0.256470 0.570587 0.088196
0.280457 0.571899 0.088196
0.304626 0.573181 0.088196
0.329224 0.574493 0.088196
0.354187 0.575836 0.088196
0.379791 0.577240 0.088196
0.406403 0.578674 0.088196
0.433838 0.580139 0.088196
0.462341 0.581665 0.088196
0.491760 0.583130 0.088196
0.522308 0.584686 0.088196
0.553925 0.586243 0.088196
0.586304 0.587769 0.088196
0.619049 0.589325 0.088196
0.651886 0.590851 0.088196
0.684357 0.592407 0.088196
0.716187 0.593933 0.088196
0.747131 0.595428 0.088196
0.776855 0.596863 0.088196
0.805328 0.598297 0.088196
0.832611 0.599731 0.088196
0.858765 0.601074 0.088196
0.884003 0.602417 0.088196
0.908356 0.603699 0.088196
0.932068 0.604370 0.088196
0.955170 0.605042 0.088196
0.977753 0.605743 0.088196
1.000000 0.606415 0.088196
0.170471 0.584839 0.088196
0.194092 0.586090 0.088196
0.217621 0.587372 0.088196
0.241211 0.588623 0.088196
0.264832 0.589966 0.088196
0.288635 0.591309 0.088196
0.312531 0.592651 0.088196
0.336853 0.594055 0.088196
0.361603 0.595490 0.088196
0.387024 0.596924 0.088196
0.413422 0.598480 0.088196
0.440704 0.600067 0.088196
0.469055 0.601715 0.088196
0.498352 0.603394 0.088196
0.528687 0.605011 0.088196
0.560150 0.606750 0.088196
0.592255 0.608490 0.088196
0.624695 0.610199 0.088196
0.657135 0.611969 0.088196
0.689178 0.613708 0.088196
0.720520 0.615448 0.088196
0.750977 0.617096 0.088196
0.780273 0.618805 0.088196
0.808289 0.620483 0.088196
0.835175 0.622070 0.088196
0.860931 0.623505 0.088196
0.885712 0.624207 0.088196
0.909760 0.624908 0.088196
0.933075 0.625610 0.088196
0.955811 0.626251 0.088196
0.978088 0.626953 0.088196
1.000000 0.627594 0.088196
0.179626 0.604034 0.088196
0.203003 0.605408 0.088196
0.226379 0.606812 0.088196
0.249664 0.608246 0.088196
0.273071 0.609772 0.088196
0.296570 0.611267 0.088196
0.320221 0.612793 0.088196
0.344330 0.614380 0.088196
0.368866 0.616058 0.088196
0.394104 0.617706 0.088196
0.420319 0.619537 0.088196
0.447510 0.621399 0.088196
0.475616 0.623291 0.088196
0.504791 0.625244 0.088196
0.535004 0.627228 0.088196
0.566223 0.629272 0.088196
0.598083 0.631317 0.088196
0.630157 0.633423 0.088196
0.662170 0.635529 0.088196
0.693817 0.637665 0.088196
0.724731 0.639771 0.088196
0.754761 0.641907 0.088196
0.783600 0.643890 0.088196
0.811188 0.645599 0.088196
0.837616 0.646362 0.088196
0.862976 0.647125 0.088196
0.887451 0.647858 0.088196
0.911072 0.648590 0.088196
0.934052 0.649292 0.088196
0.956451 0.649994 0.088196
0.978424 0.650696 0.088196
1.000000 0.651398 0.088196
0.188660 0.624756 0.088196
0.211853 0.626404 0.088196
0.235016 0.628113 0.088196
0.258057 0.629822 0.088196
0.281189 0.631592 0.088196
0.304352 0.633392 0.088196
0.327881 0.635284 0.088196
0.351654 0.637207 0.088196
0.376038 0.639282 0.088196
0.401123 0.641327 0.088196
0.427094 0.643494 0.088196
0.454132 0.645782 0.088196
0.482117 0.648163 0.088196
0.511108 0.650543 0.088196
0.541260 0.653076 0.088196
0.572266 0.655640 0.088196
0.603790 0.658203 0.088196
0.635529 0.660858 0.088196
0.667175 0.663483 0.088196
0.698334 0.666107 0.088196
0.728790 0.668793 0.088196
0.758362 0.671051 0.088196
0.786774 0.671906 0.088196
0.813995 0.672729 0.088196
0.839996 0.673553 0.088196
0.865021 0.674316 0.088196
0.889038 0.675079 0.088196
0.912354 0.675873 0.088196
0.934998 0.676605 0.088196
0.957092 0.677307 0.088196
0.978729 0.678009 0.088196
1.000000 0.678741 0.088196
0.197571 0.648560 0.088196
0.220490 0.650574 0.088196
0.243378 0.652679 0.088196
0.266174 0.654846 0.088196
0.289124 0.657074 0.088196
0.312134 0.659363 0.088196
0.335297 0.661652 0.088196
0.358917 0.664093 0.088196
0.382996 0.666656 0.088196
0.407898 0.669250 0.088196
0.433777 0.672119 0.088196
0.460571 0.674927 0.088196
0.488464 0.677979 0.088196
0.517365 0.681061 0.088196
0.547180 0.684174 0.088196
0.578003 0.687439 0.088196
0.609283 0.690735 0.088196
0.640656 0.694061 0.088196
0.671936 0.697479 0.088196
0.702698 0.700714 0.088196
0.732727 0.701630 0.088196
0.761871 0.702545 0.088196
0.789825 0.703430 0.088196
0.816589 0.704254 0.088196
0.842255 0.705078 0.088196
0.866882 0.705902 0.088196
0.890625 0.706696 0.088196
0.913574 0.707458 0.088196
0.935944 0.708221 0.088196
0.957672 0.708954 0.088196
0.979004 0.709686 0.088196
1.000000 0.710419 0.088196
0.206329 0.676941 0.088196
0.228973 0.679504 0.088196
0.251648 0.682159 0.088196
0.274231 0.684875 0.088196
0.296906 0.687744 0.088196
0.319641 0.690643 0.088196
0.342560 0.693573 0.088196
0.365967 0.696716 0.088196
0.389893 0.699921 0.088196
0.414612 0.703278 0.088196
0.440338 0.706818 0.088196
0.466949 0.710510 0.088196
0.494720 0.714325 0.088196
0.523438 0.718231 0.088196
0.553162 0.722168 0.088196
0.583679 0.726257 0.088196
0.614624 0.730377 0.088196
0.645660 0.734497 0.088196
0.676514 0.736023 0.088196
0.706940 0.736969 0.088196
0.736511 0.737885 0.088196
0.765198 0.738739 0.088196
0.792755 0.739532 0.088196
0.819183 0.740417 0.088196
0.844452 0.741241 0.088196
0.868744 0.741974 0.088196
0.892090 0.742737 0.088196
0.914734 0.743469 0.088196
0.936798 0.744202 0.088196
0.958252 0.744904 0.088196
0.979340 0.745636 0.088196
1.000000 0.746277 0.088196
0.214844 0.711334 0.088196
0.237396 0.714661 0.088196
0.259674 0.717926 0.088196
0.282135 0.721466 0.088196
0.304474 0.724884 0.088196
0.326935 0.728516 0.088196
0.349762 0.732300 0.088196
0.372894 0.736115 0.088196
0.396606 0.740082 0.088196
0.421234 0.744202 0.088196
0.446686 0.748444 0.088196
0.473297 0.752930 0.088196
0.500824 0.757477 0.088196
0.529358 0.762146 0.088196
0.558868 0.766815 0.088196
0.589142 0.771637 0.088196
0.619781 0.774414 0.088196
0.650482 0.775238 0.088196
0.680969 0.776093 0.088196
0.710968 0.776917 0.088196
0.740173 0.777710 0.088196
0.768463 0.778534 0.088196
0.795624 0.779297 0.088196
0.821594 0.780060 0.088196
0.846497 0.780792 0.088196
0.870453 0.781464 0.088196
0.893494 0.782135 0.088196
0.915894 0.782806 0.088196
0.937592 0.783447 0.088196
0.958771 0.784058 0.088196
0.979584 0.784729 0.088196
1.000000 0.785339 0.088196
0.223267 0.752289 0.088196
0.245575 0.756287 0.088196
0.267731 0.760345 0.088196
0.289825 0.764404 0.088196
0.311920 0.768524 0.088196
0.334198 0.772736 0.088196
0.356720 0.777161 0.088196
0.379669 0.781586 0.088196
0.403198 0.786194 0.088196
0.427673 0.791046 0.088196
0.452972 0.795929 0.088196
0.479401 0.801025 0.088196
0.506775 0.806244 0.088196
0.535187 0.811523 0.088196
0.564545 0.815857 0.088196
0.594574 0.816620 0.088196
