Game/Assets/LUTs/purple11-free-luts-pack/Urban cowboy.CUBE
#Created by: Adobe Photoshop Export Color Lookup Plugin
#Copyright: (C) Copyright 2019 Purple11
TITLE "Urban cowboy"
#LUT size
LUT_3D_SIZE 8
#data domain
#LUT data points
DOMAIN_MIN 0.000000 0.000000 0.000000
DOMAIN_MAX 0.903226 0.903226 0.903226
0.137177 0.039215 0.088196
0.209717 0.039215 0.088196
0.288818 0.039215 0.088196
0.379883 0.039215 0.088196
0.487549 0.039215 0.088196
0.616638 0.039215 0.088196
0.754791 0.039215 0.088196
0.886383 0.039215 0.088196
0.137177 0.115997 0.088196
0.211670 0.116852 0.088196
0.293427 0.117889 0.088196
0.388123 0.119110 0.088196
0.501617 0.120544 0.088196
0.638550 0.122070 0.088196
0.783325 0.123657 0.088196
0.915314 0.125122 0.088196
0.137177 0.205963 0.088196
0.214294 0.208344 0.088196
0.299194 0.211029 0.088196
0.398285 0.214203 0.088196
0.518555 0.217834 0.088196
0.663788 0.221649 0.088196
0.800873 0.225403 0.088196
0.919006 0.228943 0.088196
0.137177 0.324310 0.088196
0.217621 0.329132 0.088196
0.306519 0.334473 0.088196
0.410828 0.340698 0.088196
0.539001 0.347534 0.088196
0.680054 0.354614 0.088196
0.810974 0.361328 0.088196
0.923218 0.367676 0.088196
0.137177 0.461945 0.088196
0.223083 0.468353 0.088196
0.324585 0.475159 0.088196
0.435547 0.482727 0.088196
0.562164 0.490662 0.088196
0.698090 0.498413 0.088196
0.821838 0.505524 0.088196
0.927704 0.511780 0.088196
0.161163 0.565613 0.088196
0.256470 0.570587 0.088196
0.354187 0.575836 0.088196
0.462341 0.581665 0.088196
0.586304 0.587769 0.088196
0.716187 0.593933 0.088196
0.832611 0.599731 0.088196
0.932068 0.604370 0.088196
0.197571 0.648560 0.088196
0.289124 0.657074 0.088196
0.382996 0.666656 0.088196
0.488464 0.677979 0.088196
0.609283 0.690735 0.088196
0.732727 0.701630 0.088196
0.842255 0.705078 0.088196
0.935944 0.708221 0.088196
0.231567 0.798828 0.088196
0.319214 0.817230 0.088196
0.409790 0.837250 0.088196
0.512665 0.859283 0.088196
0.629791 0.862061 0.088196
0.747070 0.864288 0.088196
0.850464 0.866241 0.088196
0.939148 0.867981 0.088196
0.137177 0.039215 0.154236
0.210083 0.039215 0.154755
0.289612 0.039215 0.155426
0.381348 0.039215 0.156158
0.490051 0.039215 0.157135
0.620575 0.039215 0.158203
0.759979 0.039215 0.159210
0.892456 0.039215 0.160248
0.137177 0.116302 0.155365
0.212158 0.117218 0.156036
0.294403 0.118256 0.156799
0.389801 0.119537 0.157776
0.504425 0.121002 0.158813
0.643036 0.122589 0.159973
0.788818 0.124115 0.161163
0.915955 0.125641 0.162262
0.137177 0.206818 0.156799
0.214783 0.209259 0.157623
0.300354 0.212006 0.158508
0.400177 0.215240 0.159607
0.521790 0.218933 0.160767
0.666321 0.222809 0.162048
0.802460 0.226593 0.163269
0.919678 0.230164 0.164429
0.137177 0.325989 0.158722
0.218201 0.330963 0.159637
0.307739 0.336426 0.160675
0.414032 0.342621 0.161835
0.542419 0.349640 0.163116
0.682770 0.356720 0.164459
0.812622 0.363495 0.165771
0.923889 0.369751 0.166931
0.137177 0.464294 0.161072
0.227936 0.470673 0.162079
0.328979 0.477570 0.163177
0.439453 0.485077 0.164429
0.565765 0.492981 0.165802
0.700745 0.500671 0.167114
0.823517 0.507660 0.168427
0.928375 0.513794 0.169586
0.166809 0.567474 0.163635
0.261566 0.572418 0.164673
0.358673 0.577667 0.165833
0.466400 0.583435 0.167084
0.589905 0.589569 0.168427
0.718811 0.595734 0.169800
0.834198 0.601501 0.171021
0.932678 0.605347 0.172150
0.203339 0.651611 0.166077
0.294281 0.660309 0.167175
0.387604 0.670074 0.168335
0.492615 0.681671 0.169617
0.612823 0.694580 0.170929
0.735260 0.702698 0.172180
0.843719 0.706177 0.173370
0.936493 0.709290 0.174377
0.237427 0.805603 0.168427
0.324432 0.824249 0.169525
0.414307 0.844177 0.170624
0.516785 0.860504 0.171875
0.633209 0.862732 0.173096
0.749420 0.864899 0.174286
0.851746 0.866852 0.175385
0.939667 0.868500 0.176300
0.137177 0.039215 0.223969
0.210419 0.039215 0.225098
0.290497 0.039215 0.226410
0.382904 0.039215 0.228088
0.492737 0.039215 0.230072
0.624786 0.039215 0.232239
0.765503 0.039215 0.234436
0.898895 0.039215 0.236511
0.137177 0.116638 0.226288
0.212585 0.117584 0.227692
0.295380 0.118683 0.229309
0.391663 0.119965 0.231293
0.507477 0.121460 0.233551
0.647705 0.123077 0.235931
0.794708 0.124695 0.238312
0.916626 0.126190 0.240601
0.137177 0.207764 0.229370
0.215302 0.210236 0.231018
0.301514 0.213074 0.232941
0.402252 0.216370 0.235138
0.525208 0.220093 0.237610
0.669037 0.224030 0.240173
0.804138 0.227844 0.242676
0.920380 0.231445 0.245026
0.137177 0.327942 0.233368
0.218811 0.332947 0.235291
0.309082 0.338440 0.237335
0.417969 0.344788 0.239777
0.546021 0.351776 0.242401
0.685577 0.358917 0.245117
0.814301 0.365723 0.247681
0.924591 0.371979 0.250092
0.137177 0.466766 0.238190
0.233185 0.473236 0.240234
0.333557 0.480072 0.242493
0.443665 0.487549 0.244995
0.569550 0.495392 0.247742
0.703674 0.503021 0.250458
0.825195 0.509888 0.253052
0.929047 0.515930 0.255402
0.172943 0.569397 0.243347
0.266937 0.574310 0.245483
0.363525 0.579590 0.247833
0.470795 0.585388 0.250427
0.593842 0.591522 0.253113
0.721649 0.597626 0.255798
0.835815 0.603424 0.258301
0.933350 0.606323 0.260498
0.209473 0.654877 0.248383
0.299713 0.663818 0.250580
0.392517 0.673859 0.252899
0.496979 0.685577 0.255432
0.616638 0.698883 0.258057
0.737915 0.703888 0.260620
0.845245 0.707275 0.262939
0.937073 0.710327 0.264954
0.243561 0.812714 0.253082
0.329773 0.831482 0.255249
0.419128 0.851501 0.257477
0.521088 0.861237 0.259918
0.636810 0.863434 0.262390
0.751801 0.865509 0.264740
0.853119 0.867462 0.266846
0.940186 0.869049 0.268616
0.137177 0.039215 0.299683
0.210846 0.039215 0.301483
0.291504 0.039215 0.303589
0.384705 0.039215 0.306274
0.495758 0.039215 0.309357
0.629578 0.039215 0.312683
0.771667 0.039215 0.316101
0.906189 0.039215 0.319336
0.137177 0.117035 0.303436
0.213135 0.118042 0.305664
0.296631 0.119110 0.308197
0.393738 0.120453 0.311249
0.510986 0.121979 0.314728
0.652985 0.123657 0.318451
0.797028 0.125244 0.322052
0.917389 0.126770 0.325531
0.137177 0.208801 0.308258
0.215973 0.211365 0.310883
0.302887 0.214264 0.313782
0.404572 0.217651 0.317200
0.529083 0.221436 0.320984
0.672089 0.225403 0.324921
0.806000 0.229248 0.328735
0.921173 0.232910 0.332306
0.137177 0.330048 0.314514
0.219513 0.335175 0.317444
0.310547 0.340759 0.320648
0.422363 0.347168 0.324341
0.550049 0.354218 0.328308
0.688721 0.361389 0.332428
0.816254 0.368195 0.336304
0.925415 0.374512 0.339905
0.141876 0.469543 0.321869
0.238953 0.476044 0.325043
0.338715 0.482819 0.328461
0.448303 0.490295 0.332275
0.573730 0.498016 0.336395
0.706848 0.505524 0.340454
0.827087 0.512329 0.344299
0.929840 0.518219 0.347778
0.179626 0.571533 0.329742
0.272980 0.576477 0.332977
0.368866 0.581696 0.336517
0.475616 0.587524 0.340363
0.598083 0.593628 0.344421
0.724731 0.599731 0.348450
0.837616 0.604645 0.352051
0.934052 0.607422 0.355347
0.216339 0.658630 0.337341
0.305786 0.667786 0.340637
0.397858 0.678070 0.344116
0.501801 0.690063 0.347839
0.620758 0.701447 0.351746
0.740845 0.705109 0.355530
0.846893 0.708496 0.358856
0.937714 0.711517 0.361877
0.250336 0.820770 0.344391
0.335693 0.839569 0.347565
0.424377 0.859558 0.350861
0.525848 0.861969 0.354431
0.640686 0.864166 0.358093
0.754456 0.866241 0.361511
0.854645 0.868073 0.364594
0.940704 0.869659 0.367096
0.137177 0.039215 0.377808
0.211334 0.039215 0.380310
0.292603 0.039215 0.383270
0.386658 0.039215 0.386902
0.499146 0.039215 0.391052
0.634796 0.039215 0.395599
0.778412 0.039215 0.400085
0.914124 0.039215 0.404449
0.137177 0.117462 0.382965
0.213715 0.118469 0.386047
0.297943 0.119598 0.389526
0.395996 0.121033 0.393646
0.514771 0.122620 0.398285
0.658722 0.124237 0.403198
0.798981 0.125885 0.408020
0.918213 0.127411 0.412567
0.137177 0.209961 0.389618
0.216614 0.212585 0.393127
0.304321 0.215546 0.397064
0.407104 0.219025 0.401581
0.533112 0.222870 0.406616
0.675323 0.226898 0.411774
0.808044 0.230774 0.416748
0.921997 0.234467 0.421387
0.137177 0.332367 0.397980
0.220276 0.337524 0.401886
0.315186 0.343262 0.406097
0.427063 0.349762 0.410980
0.554382 0.356812 0.416229
0.692108 0.363983 0.421539
0.818237 0.370819 0.426544
0.926239 0.377106 0.431122
0.148743 0.472504 0.407745
0.245239 0.478973 0.411896
0.344208 0.485748 0.416351
0.453339 0.493164 0.421356
0.578247 0.500854 0.426666
0.710205 0.508209 0.431915
0.829102 0.514862 0.436829
0.930634 0.520599 0.441254
0.186737 0.573761 0.418030
0.279449 0.578705 0.422302
0.374542 0.583984 0.426819
0.480713 0.589722 0.431732
0.602570 0.595886 0.436951
0.727997 0.601959 0.442017
0.839508 0.605804 0.446655
0.934814 0.608582 0.450745
0.223602 0.662781 0.427887
0.312225 0.672150 0.432129
0.403595 0.682709 0.436584
0.507019 0.694916 0.441284
0.625092 0.702759 0.446259
0.743866 0.706451 0.450958
0.848602 0.709778 0.455200
0.938416 0.712708 0.458862
0.257446 0.829346 0.436890
0.342010 0.848236 0.440979
0.429962 0.860657 0.445160
0.530853 0.862793 0.449646
0.644653 0.864929 0.454163
0.757202 0.866974 0.458405
0.856110 0.868774 0.462128
0.941284 0.870300 0.465302
0.137177 0.039215 0.452240
0.211853 0.039215 0.455383
0.293793 0.039215 0.459045
0.388763 0.039215 0.463501
0.502594 0.039215 0.468628
0.640198 0.039215 0.474060
0.785248 0.039215 0.479462
0.915558 0.039215 0.484619
0.137177 0.117920 0.458710
0.214294 0.118958 0.462494
0.299255 0.120178 0.466705
0.398346 0.121613 0.471710
0.518677 0.123199 0.477325
0.663910 0.124878 0.483154
0.800934 0.126526 0.488861
0.919037 0.128082 0.494171
0.137177 0.211151 0.466827
0.217316 0.213867 0.471100
0.305847 0.216888 0.475800
0.409698 0.220428 0.481262
0.537201 0.224304 0.487183
0.678650 0.228394 0.493286
0.810059 0.232330 0.499115
0.922821 0.236023 0.504486
0.137177 0.334717 0.476929
0.220978 0.339996 0.481567
0.320496 0.345764 0.486633
0.431824 0.352356 0.492340
0.558777 0.359467 0.498444
0.695465 0.366699 0.504639
0.820282 0.373505 0.510406
0.927063 0.379730 0.515717
0.155701 0.475433 0.488525
0.251526 0.481903 0.493439
0.349823 0.488678 0.498627
0.458374 0.496002 0.504395
0.582764 0.503571 0.510529
0.713562 0.510834 0.516602
0.831085 0.517303 0.522156
0.931427 0.522919 0.527130
0.194092 0.576080 0.500580
0.285980 0.580994 0.505524
0.380249 0.586243 0.510712
0.485962 0.592010 0.516418
0.607086 0.598083 0.522278
0.731201 0.603943 0.527985
0.841339 0.606995 0.533142
0.935547 0.609711 0.537781
0.230988 0.667023 0.512024
0.318604 0.676666 0.516815
0.409271 0.687439 0.521851
0.512238 0.699951 0.527222
0.629425 0.704163 0.532745
0.746826 0.707764 0.537994
0.850281 0.711060 0.542694
0.939087 0.713959 0.546753
0.264587 0.837982 0.522186
0.348236 0.856842 0.526794
0.435547 0.861481 0.531525
0.535858 0.863617 0.536530
0.648743 0.865723 0.541565
0.759857 0.867676 0.546265
0.857605 0.869446 0.550385
0.941864 0.870911 0.553894
0.137177 0.039215 0.517731
0.212341 0.039215 0.521332
0.294922 0.039215 0.525574
0.390747 0.039215 0.530579
0.506042 0.039215 0.536346
0.645447 0.039215 0.542450
0.791840 0.039215 0.548492
0.916321 0.039215 0.554199
0.137177 0.118347 0.525177
0.214905 0.119446 0.529419
0.300568 0.120697 0.534241
0.400635 0.122131 0.539825
0.522491 0.123749 0.546051
0.666901 0.125488 0.552612
0.802826 0.127167 0.558960
0.919800 0.128723 0.564941
0.137177 0.212280 0.534332
0.217987 0.215057 0.539093
0.307281 0.218201 0.544403
0.412720 0.221741 0.550415
0.541199 0.225739 0.557098
0.681793 0.229828 0.563934
0.812012 0.233795 0.570496
0.923615 0.237488 0.576630
0.137177 0.336945 0.545624
0.224152 0.342316 0.550812
0.325592 0.348206 0.556488
0.436401 0.354797 0.562836
0.562958 0.362000 0.569763
0.698700 0.369202 0.576843
0.822235 0.375977 0.583496
0.927856 0.382172 0.589630
0.162262 0.478210 0.558563
0.257477 0.484650 0.564056
0.355164 0.491394 0.570007
0.463104 0.498627 0.576538
0.587097 0.506134 0.583618
0.716675 0.513245 0.590607
0.832916 0.519623 0.597290
0.932190 0.524994 0.603302
0.200867 0.578186 0.572205
0.292053 0.583099 0.577850
0.385620 0.588348 0.583832
0.490845 0.594116 0.590424
0.611359 0.600250 0.597412
0.734161 0.605042 0.604279
0.843109 0.608063 0.610657
0.936249 0.610748 0.616333
0.237793 0.671112 0.585297
0.324738 0.681000 0.590942
0.414612 0.691956 0.596863
0.517029 0.701721 0.603363
0.633362 0.705414 0.610046
0.749573 0.708954 0.616577
0.851868 0.712219 0.622467
0.939697 0.715027 0.627625
0.271301 0.846191 0.597382
0.354126 0.860382 0.602844
0.440765 0.862244 0.608612
0.540527 0.864319 0.614746
0.652374 0.866394 0.621063
0.762299 0.868317 0.627014
0.858948 0.870056 0.632294
0.942383 0.871460 0.636719
0.137177 0.039215 0.574219
0.212860 0.039215 0.578491
0.295959 0.039215 0.583405
0.392639 0.039215 0.589355
0.509216 0.039215 0.596222
0.650238 0.039215 0.603546
0.796143 0.039215 0.610931
0.917023 0.039215 0.618042
0.137177 0.118805 0.582977
0.215424 0.119904 0.587952
0.301849 0.121185 0.593658
0.402771 0.122620 0.600372
0.526031 0.124329 0.608002
0.669708 0.126068 0.616058
0.804565 0.127747 0.623993
0.920532 0.129333 0.631592
0.137177 0.213379 0.593781
0.218597 0.216187 0.599548
0.308624 0.219360 0.605896
0.416687 0.223022 0.613312
0.544891 0.227020 0.621643
0.684631 0.231140 0.630249
0.813782 0.235138 0.638763
0.924377 0.238831 0.646729
0.137177 0.339050 0.607391
0.229462 0.344513 0.613800
0.330231 0.350433 0.620819
0.440643 0.357086 0.628876
0.566864 0.364227 0.637817
0.701599 0.371490 0.646973
0.824005 0.378296 0.655853
0.928589 0.384430 0.664124
0.168457 0.480804 0.623505
0.263092 0.487213 0.630432
0.360016 0.493866 0.638000
0.467590 0.501068 0.646637
0.591064 0.508453 0.656006
0.719574 0.515411 0.665497
0.834625 0.521667 0.674652
0.932861 0.526886 0.682953
0.207214 0.580170 0.640930
0.297699 0.585114 0.648346
0.390656 0.590302 0.656342
0.495392 0.596069 0.665253
0.615173 0.602142 0.674805
0.736908 0.606110 0.684387
0.844666 0.609070 0.693298
0.936859 0.611725 0.701385
0.244110 0.675018 0.658325
0.330292 0.685059 0.665955
0.419525 0.696228 0.674042
0.521515 0.702911 0.683075
0.637054 0.706512 0.692505
0.752075 0.710083 0.701813
0.853241 0.713257 0.710205
0.940216 0.716034 0.717712
0.277435 0.853760 0.674713
0.359497 0.861115 0.682373
0.445587 0.862976 0.690460
0.544769 0.865021 0.699188
0.655731 0.867035 0.708221
0.764496 0.868927 0.716858
0.860138 0.870575 0.724518
0.942841 0.871887 0.730927
