Game/Assets/LUTs/purple11-free-luts-pack/Urban cowboy.CUBE
#Created by: Adobe Photoshop Export Color Lookup Plugin
#Copyright: (C) Copyright 2019 Purple11
TITLE "Urban cowboy"
#LUT size
LUT_3D_SIZE 5
#data domain
#LUT data points
DOMAIN_MIN 0.000000 0.000000 0.000000
DOMAIN_MAX 0.903226 0.903226 0.903226
0.137177 0.039215 0.088196
0.268158 0.039215 0.088196
0.431244 0.039215 0.088196
0.651306 0.039215 0.088196
0.886383 0.039215 0.088196
0.137177 0.181519 0.088196
0.275574 0.184998 0.088196
0.451630 0.189636 0.088196
0.695435 0.195099 0.088196
0.918030 0.200348 0.088196
0.137177 0.393494 0.088196
0.286713 0.404266 0.088196
0.484192 0.417206 0.088196
0.722656 0.431274 0.088196
0.925446 0.443756 0.088196
0.170471 0.584839 0.088196
0.336853 0.594055 0.088196
0.528687 0.605011 0.088196
0.750977 0.617096 0.088196
0.933075 0.625610 0.088196
0.231567 0.798828 0.088196
0.386353 0.832001 0.088196
0.570068 0.860931 0.088196
0.774506 0.864777 0.088196
0.939148 0.867981 0.088196
0.137177 0.039215 0.206024
0.269318 0.039215 0.207825
0.434662 0.039215 0.210388
0.658875 0.039215 0.213623
0.897217 0.039215 0.216919
0.137177 0.182739 0.209961
0.277222 0.186401 0.212463
0.455963 0.191223 0.215790
0.700531 0.196808 0.219635
0.919220 0.202148 0.223297
0.137177 0.397369 0.216156
0.291687 0.408325 0.219299
0.490723 0.421417 0.223083
0.726959 0.435425 0.227234
0.926636 0.447784 0.230988
0.180664 0.588165 0.223938
0.345123 0.597473 0.227325
0.535797 0.608643 0.231323
0.755188 0.620819 0.235382
0.934174 0.627289 0.238892
0.241974 0.810883 0.231354
0.394714 0.844452 0.234711
0.576904 0.862122 0.238403
0.778229 0.865875 0.242035
0.940033 0.868927 0.244965
0.137177 0.039215 0.338806
0.270844 0.039215 0.342804
0.438812 0.039215 0.348450
0.668121 0.039215 0.355286
0.910126 0.039215 0.362061
0.137177 0.184235 0.347443
0.279205 0.188110 0.352905
0.461121 0.193085 0.359772
0.705322 0.198853 0.367706
0.920593 0.204285 0.375061
0.137177 0.401917 0.360504
0.300751 0.413025 0.366943
0.498413 0.426300 0.374695
0.732025 0.440216 0.382965
0.928009 0.452423 0.390381
0.192596 0.592072 0.376373
0.354889 0.601501 0.383179
0.543854 0.612793 0.390900
0.759949 0.624176 0.398865
0.935394 0.629211 0.405518
0.253876 0.825043 0.390991
0.404266 0.858765 0.397491
0.584564 0.863464 0.404602
0.782288 0.867096 0.411438
0.941040 0.869995 0.416870
0.137177 0.039215 0.469604
0.272522 0.039215 0.475708
0.443481 0.039215 0.483948
0.678223 0.039215 0.493713
0.915741 0.039215 0.503143
0.137177 0.185913 0.482513
0.281372 0.190002 0.490326
0.466797 0.195160 0.500031
0.710510 0.201050 0.510864
0.922058 0.206543 0.520782
0.138672 0.406830 0.501038
0.310577 0.418152 0.509888
0.506683 0.431427 0.520325
0.737366 0.445251 0.531250
0.929443 0.457245 0.540894
0.205322 0.596252 0.522552
0.365173 0.605835 0.531525
0.552460 0.617279 0.541565
0.764862 0.626221 0.551758
0.936707 0.631165 0.560242
0.266357 0.840118 0.541656
0.414276 0.861237 0.550049
0.592529 0.864838 0.559052
0.786377 0.868317 0.567688
0.941986 0.871063 0.574463
0.137177 0.039215 0.574219
0.274200 0.039215 0.582092
0.447906 0.039215 0.592712
0.687683 0.039215 0.605438
0.917023 0.039215 0.618042
0.137177 0.187531 0.590881
0.283447 0.191742 0.601013
0.473328 0.197083 0.613831
0.715240 0.203064 0.628662
0.923401 0.208618 0.642792
0.149536 0.411377 0.615204
0.319580 0.422791 0.627289
0.514282 0.436035 0.642151
0.742126 0.449768 0.658386
0.930725 0.461487 0.673492
0.216827 0.600098 0.645386
0.374451 0.609802 0.658813
0.560181 0.621338 0.674561
0.769196 0.628082 0.691254
0.937775 0.632935 0.705780
0.277435 0.853760 0.674713
0.423126 0.862488 0.688385
0.599518 0.865997 0.703705
0.789825 0.869385 0.718842
0.942841 0.871887 0.730927
