Game/Assets/LUTs/purple11-free-luts-pack/well-see.CUBE
#Created by: Adobe Photoshop Export Color Lookup Plugin
#Copyright: (C) Copyright 2019 Purple11
TITLE "We'll see"
#LUT size
LUT_3D_SIZE 8
#data domain
#LUT data points
DOMAIN_MIN 0.000000 0.000000 0.000000
DOMAIN_MAX 0.903226 0.903226 0.903226
0.039215 0.000000 0.101959
0.118408 0.007324 0.108398
0.210632 0.015320 0.115417
0.330292 0.024323 0.123322
0.471710 0.033905 0.131714
0.614777 0.043457 0.140106
0.743805 0.052368 0.147888
0.856354 0.060577 0.155121
0.045105 0.098145 0.108398
0.118408 0.098145 0.108398
0.210632 0.106201 0.115417
0.330292 0.115295 0.123322
0.471710 0.125000 0.131714
0.614777 0.134705 0.140106
0.743805 0.143799 0.147888
0.856354 0.152191 0.155121
0.051483 0.206696 0.115417
0.125000 0.206696 0.115417
0.210632 0.206696 0.115417
0.330292 0.216125 0.123322
0.471710 0.226135 0.131714
0.614777 0.236176 0.140106
0.743805 0.245575 0.147888
0.856354 0.254242 0.155121
0.058685 0.334320 0.123322
0.132507 0.334320 0.123322
0.219025 0.334320 0.123322
0.330292 0.334320 0.123322
0.471710 0.344757 0.131714
0.614777 0.355164 0.140106
0.743805 0.364777 0.147888
0.856354 0.373779 0.155121
0.066345 0.473236 0.131714
0.140564 0.473236 0.131714
0.228027 0.473236 0.131714
0.340576 0.473236 0.131714
0.471710 0.473236 0.131714
0.614777 0.483643 0.140106
0.743805 0.493195 0.147888
0.856354 0.502014 0.155121
0.074036 0.608490 0.140106
0.148682 0.608490 0.140106
0.237091 0.608490 0.140106
0.350922 0.608490 0.140106
0.482605 0.608490 0.140106
0.614777 0.608490 0.140106
0.743805 0.617798 0.147888
0.856354 0.626404 0.155121
0.081177 0.732178 0.147888
0.156311 0.732178 0.147888
0.245697 0.732178 0.147888
0.360504 0.732178 0.147888
0.492645 0.732178 0.147888
0.624634 0.732178 0.147888
0.743805 0.732178 0.147888
0.856354 0.740814 0.155121
0.087830 0.846619 0.155121
0.163391 0.846619 0.155121
0.253693 0.846619 0.155121
0.369537 0.846619 0.155121
0.501923 0.846619 0.155121
0.633759 0.846619 0.155121
0.752563 0.846619 0.155121
0.856354 0.846619 0.155121
0.045105 0.007324 0.187927
0.118408 0.007324 0.187927
0.210632 0.015320 0.194916
0.330292 0.024323 0.202820
0.471710 0.033905 0.211243
0.614777 0.043457 0.219635
0.743805 0.052368 0.227478
0.856354 0.060577 0.234711
0.045105 0.098145 0.187927
0.124512 0.105591 0.194397
0.217468 0.113617 0.201385
0.338165 0.122772 0.209320
0.480042 0.132507 0.217712
0.622955 0.142181 0.226105
0.751617 0.151276 0.233948
0.863708 0.159698 0.241180
0.051483 0.206696 0.194916
0.131134 0.214386 0.201385
0.217468 0.214386 0.201385
0.338165 0.223785 0.209320
0.480042 0.233887 0.217712
0.622955 0.243896 0.226105
0.751617 0.253357 0.233948
0.863708 0.262085 0.241180
0.058685 0.334320 0.202820
0.138702 0.342316 0.209320
0.225861 0.342316 0.209320
0.338165 0.342316 0.209320
0.480042 0.352753 0.217712
0.622955 0.363159 0.226105
0.751617 0.372894 0.233948
0.863708 0.381775 0.241180
0.066345 0.473236 0.211243
0.146820 0.481201 0.217712
0.235046 0.481201 0.217712
0.348511 0.481201 0.217712
0.480042 0.481201 0.217712
0.622955 0.491516 0.226105
0.751617 0.501129 0.233948
0.863708 0.510010 0.241180
0.074036 0.608490 0.219635
0.154968 0.616211 0.226105
0.244171 0.616211 0.226105
0.358887 0.616211 0.226105
0.490845 0.616211 0.226105
0.622955 0.616211 0.226105
0.751617 0.625519 0.233948
0.863708 0.634125 0.241180
0.081177 0.732178 0.227478
0.162659 0.739868 0.233948
0.252869 0.739868 0.233948
0.368652 0.739868 0.233948
0.500977 0.739868 0.233948
0.632812 0.739868 0.233948
0.751617 0.739868 0.233948
0.863708 0.748474 0.241180
0.087830 0.846619 0.234711
0.169800 0.854340 0.241180
0.260986 0.854340 0.241180
0.377625 0.854340 0.241180
0.510345 0.854340 0.241180
0.641907 0.854340 0.241180
0.760284 0.854340 0.241180
0.863708 0.854340 0.241180
0.051483 0.015320 0.281311
0.125000 0.015320 0.281311
0.210632 0.015320 0.281311
0.330292 0.024323 0.289307
0.471710 0.033905 0.297760
0.614777 0.043457 0.306183
0.743805 0.052368 0.314056
0.856354 0.060577 0.321289
0.051483 0.106201 0.281311
0.131134 0.113617 0.287842
0.217468 0.113617 0.287842
0.338165 0.122772 0.295746
0.480042 0.132507 0.304291
0.622955 0.142181 0.312653
0.751617 0.151276 0.320557
0.863708 0.159698 0.327820
0.051483 0.206696 0.281311
0.131134 0.214386 0.287842
0.224945 0.222748 0.294891
0.346771 0.232178 0.302826
0.489105 0.242249 0.311279
0.631805 0.252350 0.319733
0.760010 0.261841 0.327606
0.871735 0.270599 0.334900
0.058685 0.334320 0.289307
0.138702 0.342316 0.295746
0.233490 0.351013 0.302826
0.346771 0.351013 0.302826
0.489105 0.361450 0.311279
0.631805 0.371796 0.319733
0.760010 0.381561 0.327606
0.871735 0.390503 0.334900
0.066345 0.473236 0.297760
0.146820 0.481201 0.304291
0.242645 0.489838 0.311279
0.357178 0.489838 0.311279
0.489105 0.489838 0.311279
0.631805 0.500122 0.319733
0.760010 0.509705 0.327606
0.871735 0.518555 0.334900
0.074036 0.608490 0.306183
0.154968 0.616211 0.312653
0.251953 0.624542 0.319733
0.367554 0.624542 0.319733
0.499908 0.624542 0.319733
0.631805 0.624542 0.319733
0.760010 0.633911 0.327606
0.871735 0.642487 0.334900
0.081177 0.732178 0.314056
0.162659 0.739868 0.320557
0.260742 0.748199 0.327606
0.377380 0.748199 0.327606
0.510010 0.748199 0.327606
0.641693 0.748199 0.327606
0.760010 0.748199 0.327606
0.871735 0.756775 0.334900
0.087830 0.846619 0.321289
0.169800 0.854340 0.327820
0.268951 0.862793 0.334900
0.386444 0.862793 0.334900
0.519348 0.862793 0.334900
0.650757 0.862793 0.334900
0.768585 0.862793 0.334900
0.871735 0.862793 0.334900
0.058685 0.024323 0.387360
0.132507 0.024323 0.387360
0.219025 0.024323 0.387360
0.330292 0.024323 0.387360
0.471710 0.033905 0.395905
0.614777 0.043457 0.404449
0.743805 0.052368 0.412292
0.856354 0.060577 0.419678
0.058685 0.115295 0.387360
0.138702 0.122772 0.393921
0.225861 0.122772 0.393921
0.338165 0.122772 0.393921
0.480042 0.132507 0.402466
0.622955 0.142181 0.410980
0.751617 0.151276 0.418945
0.863708 0.159698 0.426239
0.058685 0.216125 0.387360
0.138702 0.223785 0.393921
0.233490 0.232178 0.401031
0.346771 0.232178 0.401031
0.489105 0.242249 0.409576
0.631805 0.252350 0.418060
0.760010 0.261841 0.426056
0.871735 0.270599 0.433380
0.058685 0.334320 0.387360
0.138702 0.342316 0.393921
0.233490 0.351013 0.401031
0.356537 0.360809 0.409088
0.499298 0.371277 0.417603
0.641785 0.381653 0.426117
0.769409 0.391388 0.434113
0.880676 0.400360 0.441467
0.066345 0.473236 0.395905
0.146820 0.481201 0.402466
0.242645 0.489838 0.409576
0.367035 0.499542 0.417603
0.499298 0.499542 0.417603
0.641785 0.509827 0.426117
0.769409 0.519348 0.434113
0.880676 0.528168 0.441467
0.074036 0.608490 0.404449
0.154968 0.616211 0.410980
0.251953 0.624542 0.418060
0.377502 0.634003 0.426117
0.510132 0.634003 0.426117
0.641785 0.634003 0.426117
0.769409 0.643280 0.434113
0.880676 0.651855 0.441467
0.081177 0.732178 0.412292
0.162659 0.739868 0.418945
0.260742 0.748199 0.426056
0.387360 0.757568 0.434113
0.520203 0.757568 0.434113
0.651581 0.757568 0.434113
0.769409 0.757568 0.434113
0.880676 0.766205 0.441467
0.087830 0.846619 0.419678
0.169800 0.854340 0.426239
0.268951 0.862793 0.433380
0.396454 0.872223 0.441467
0.529541 0.872223 0.441467
0.660614 0.872223 0.441467
0.778015 0.872223 0.441467
0.880676 0.872223 0.441467
0.066345 0.033905 0.501587
0.140564 0.033905 0.501587
0.228027 0.033905 0.501587
0.340576 0.033905 0.501587
0.471710 0.033905 0.501587
0.614777 0.043457 0.510254
0.743805 0.052368 0.518250
0.856354 0.060577 0.525665
0.066345 0.125000 0.501587
0.146820 0.132507 0.508209
0.235046 0.132507 0.508209
0.348511 0.132507 0.508209
0.480042 0.132507 0.508209
0.622955 0.142181 0.516846
0.751617 0.151276 0.524933
0.863708 0.159698 0.532410
0.066345 0.226135 0.501587
0.146820 0.233887 0.508209
0.242645 0.242249 0.515442
0.357178 0.242249 0.515442
0.489105 0.242249 0.515442
0.631805 0.252350 0.524078
0.760010 0.261841 0.532135
0.871735 0.270599 0.539612
0.066345 0.344757 0.501587
0.146820 0.352753 0.508209
0.242645 0.361450 0.515442
0.367035 0.371277 0.523590
0.499298 0.371277 0.523590
0.641785 0.381653 0.532257
0.769409 0.391388 0.540314
0.880676 0.400360 0.547791
0.066345 0.473236 0.501587
0.146820 0.481201 0.508209
0.242645 0.489838 0.515442
0.367035 0.499542 0.523590
0.510162 0.509857 0.532288
0.652313 0.520111 0.540955
0.779419 0.529602 0.549011
0.890228 0.538361 0.556488
0.074036 0.608490 0.510254
0.154968 0.616211 0.516846
0.251953 0.624542 0.524078
0.377502 0.634003 0.532257
0.520966 0.643982 0.540955
0.652313 0.643982 0.540955
0.779419 0.653290 0.549011
0.890228 0.661865 0.556488
0.081177 0.732178 0.518250
0.162659 0.739868 0.524933
0.260742 0.748199 0.532135
0.387360 0.757568 0.540314
0.531036 0.767639 0.549011
0.662109 0.767639 0.549011
0.779419 0.767639 0.549011
0.890228 0.776184 0.556488
0.087830 0.846619 0.525665
0.169800 0.854340 0.532410
0.268951 0.862793 0.539612
0.396454 0.872223 0.547791
0.540314 0.882294 0.556488
0.671112 0.882294 0.556488
0.787933 0.882294 0.556488
0.890228 0.882294 0.556488
0.074036 0.043457 0.617493
0.148682 0.043457 0.617493
0.237091 0.043457 0.617493
0.350922 0.043457 0.617493
0.482605 0.043457 0.617493
0.614777 0.043457 0.617493
0.743805 0.052368 0.625763
0.856354 0.060577 0.633453
0.074036 0.134705 0.617493
0.154968 0.142181 0.624359
0.244171 0.142181 0.624359
0.358887 0.142181 0.624359
0.490845 0.142181 0.624359
0.622955 0.142181 0.624359
0.751617 0.151276 0.632629
0.863708 0.159698 0.640350
0.074036 0.236176 0.617493
0.154968 0.243896 0.624359
0.251953 0.252350 0.631775
0.367554 0.252350 0.631775
0.499908 0.252350 0.631775
0.631805 0.252350 0.631775
0.760010 0.261841 0.640167
0.871735 0.270599 0.647888
0.074036 0.355164 0.617493
0.154968 0.363159 0.624359
0.251953 0.371796 0.631775
0.377502 0.381653 0.640259
0.510132 0.381653 0.640259
0.641785 0.381653 0.640259
0.769409 0.391388 0.648590
0.880676 0.400360 0.656342
0.074036 0.483643 0.617493
0.154968 0.491516 0.624359
0.251953 0.500122 0.631775
0.377502 0.509827 0.640259
0.520966 0.520111 0.649200
0.652313 0.520111 0.649200
0.779419 0.529602 0.657623
0.890228 0.538361 0.665436
0.074036 0.608490 0.617493
0.154968 0.616211 0.624359
0.251953 0.624542 0.631775
0.377502 0.634003 0.640259
0.520966 0.643982 0.649200
0.662811 0.653961 0.658234
0.789307 0.663269 0.666687
0.899719 0.671844 0.674530
0.081177 0.732178 0.625763
0.162659 0.739868 0.632629
0.260742 0.748199 0.640167
0.387360 0.757568 0.648590
0.531036 0.767639 0.657623
0.672577 0.777588 0.666687
0.789307 0.777588 0.666687
0.899719 0.786194 0.674530
0.087830 0.846619 0.633453
0.169800 0.854340 0.640350
0.268951 0.862793 0.647888
0.396454 0.872223 0.656342
0.540314 0.882294 0.665436
0.681549 0.892365 0.674530
0.797791 0.892365 0.674530
0.899719 0.892365 0.674530
0.081177 0.052368 0.730621
0.156311 0.052368 0.730621
0.245697 0.052368 0.730621
0.360504 0.052368 0.730621
0.492645 0.052368 0.730621
0.624634 0.052368 0.730621
0.743805 0.052368 0.730621
0.856354 0.060577 0.738831
0.081177 0.143799 0.730621
0.162659 0.151276 0.737946
0.252869 0.151276 0.737946
0.368652 0.151276 0.737946
0.500977 0.151276 0.737946
0.632812 0.151276 0.737946
0.751617 0.151276 0.737946
0.863708 0.159698 0.746124
0.081177 0.245575 0.730621
0.162659 0.253357 0.737946
0.260742 0.261841 0.745850
0.377380 0.261841 0.745850
0.510010 0.261841 0.745850
0.641693 0.261841 0.745850
0.760010 0.261841 0.745850
0.871735 0.270599 0.754028
0.081177 0.364777 0.730621
0.162659 0.372894 0.737946
0.260742 0.381561 0.745850
0.387360 0.391388 0.754822
0.520203 0.391388 0.754822
0.651581 0.391388 0.754822
0.769409 0.391388 0.754822
0.880676 0.400360 0.763092
0.081177 0.493195 0.730621
0.162659 0.501129 0.737946
0.260742 0.509705 0.745850
0.387360 0.519348 0.754822
0.531036 0.529602 0.764465
0.662109 0.529602 0.764465
0.779419 0.529602 0.764465
0.890228 0.538361 0.772736
0.081177 0.617798 0.730621
0.162659 0.625519 0.737946
0.260742 0.633911 0.745850
0.387360 0.643280 0.754822
0.531036 0.653290 0.764465
0.672577 0.663269 0.774109
0.789307 0.663269 0.774109
0.899719 0.671844 0.782471
0.081177 0.732178 0.730621
0.162659 0.739868 0.737946
0.260742 0.748199 0.745850
0.387360 0.757568 0.754822
0.531036 0.767639 0.764465
0.672577 0.777588 0.774109
0.798492 0.786926 0.783173
0.908508 0.795532 0.791595
0.087830 0.846619 0.738831
0.169800 0.854340 0.746124
0.268951 0.862793 0.754028
0.396454 0.872223 0.763092
0.540314 0.882294 0.772736
0.681549 0.892365 0.782471
0.806946 0.901733 0.791595
0.908508 0.901733 0.791595
0.087830 0.060577 0.842377
0.163391 0.060577 0.842377
0.253693 0.060577 0.842377
0.369537 0.060577 0.842377
0.501923 0.060577 0.842377
0.633759 0.060577 0.842377
0.752563 0.060577 0.842377
0.856354 0.060577 0.842377
0.087830 0.152191 0.842377
0.169800 0.159698 0.850128
0.260986 0.159698 0.850128
0.377625 0.159698 0.850128
0.510345 0.159698 0.850128
0.641907 0.159698 0.850128
0.760284 0.159698 0.850128
0.863708 0.159698 0.850128
0.087830 0.254242 0.842377
0.169800 0.262085 0.850128
0.268951 0.270599 0.858673
0.386444 0.270599 0.858673
0.519348 0.270599 0.858673
0.650757 0.270599 0.858673
0.768585 0.270599 0.858673
0.871735 0.270599 0.858673
0.087830 0.373779 0.842377
0.169800 0.381775 0.850128
0.268951 0.390503 0.858673
0.396454 0.400360 0.868225
0.529541 0.400360 0.868225
0.660614 0.400360 0.868225
0.778015 0.400360 0.868225
0.880676 0.400360 0.868225
0.087830 0.502014 0.842377
0.169800 0.510010 0.850128
0.268951 0.518555 0.858673
0.396454 0.528168 0.868225
0.540314 0.538361 0.878479
0.671112 0.538361 0.878479
0.787933 0.538361 0.878479
0.890228 0.538361 0.878479
0.087830 0.626404 0.842377
0.169800 0.634125 0.850128
0.268951 0.642487 0.858673
0.396454 0.651855 0.868225
0.540314 0.661865 0.878479
0.681549 0.671844 0.888763
0.797791 0.671844 0.888763
0.899719 0.671844 0.888763
0.087830 0.740814 0.842377
0.169800 0.748474 0.850128
0.268951 0.756775 0.858673
0.396454 0.766205 0.868225
0.540314 0.776184 0.878479
0.681549 0.786194 0.888763
0.806946 0.795532 0.898376
0.908508 0.795532 0.898376
0.087830 0.846619 0.842377
0.169800 0.854340 0.850128
0.268951 0.862793 0.858673
0.396454 0.872223 0.868225
0.540314 0.882294 0.878479
0.681549 0.892365 0.888763
0.806946 0.901733 0.898376
0.916656 0.910400 0.907257
