Game/Assets/LUTs/purple11-free-luts-pack/well-see.CUBE
#Created by: Adobe Photoshop Export Color Lookup Plugin
#Copyright: (C) Copyright 2019 Purple11
TITLE "We'll see"
#LUT size
LUT_3D_SIZE 32
#data domain
DOMAIN_MIN 0.0 0.0 0.0
DOMAIN_MAX 1.0 1.0 1.0
#LUT data points
0.039215 0.000000 0.101959
0.058563 0.001801 0.103546
0.078033 0.003632 0.105133
0.097931 0.005493 0.106781
0.118408 0.007324 0.108398
0.139618 0.009247 0.110077
0.161896 0.011230 0.111816
0.185486 0.013214 0.113586
0.210632 0.015320 0.115417
0.237671 0.017456 0.117310
0.266693 0.019714 0.119293
0.297607 0.021973 0.121246
0.330292 0.024323 0.123322
0.364288 0.026703 0.125397
0.399445 0.029083 0.127502
0.435333 0.031494 0.129608
0.471710 0.033905 0.131714
0.508057 0.036316 0.133820
0.544220 0.038727 0.135956
0.579865 0.041107 0.138031
0.614777 0.043457 0.140106
0.648743 0.045746 0.142120
0.681610 0.048004 0.144104
0.713287 0.050232 0.146057
0.743805 0.052368 0.147888
0.773254 0.054474 0.149750
0.801727 0.056549 0.151581
0.829407 0.058594 0.153351
0.856354 0.060577 0.155121
0.882874 0.062592 0.156860
0.908936 0.064575 0.158600
0.934814 0.066559 0.160339
0.040680 0.024170 0.103546
0.058563 0.024170 0.103546
0.078033 0.025970 0.105133
0.097931 0.027832 0.106781
0.118408 0.029694 0.108398
0.139618 0.031616 0.110077
0.161896 0.033569 0.111816
0.185486 0.035583 0.113586
0.210632 0.037628 0.115417
0.237671 0.039825 0.117310
0.266693 0.042053 0.119293
0.297607 0.044312 0.121246
0.330292 0.046692 0.123322
0.364288 0.049072 0.125397
0.399445 0.051453 0.127502
0.435333 0.053833 0.129608
0.471710 0.056244 0.131714
0.508057 0.058685 0.133820
0.544220 0.061066 0.135956
0.579865 0.063507 0.138031
0.614777 0.065826 0.140106
0.648743 0.068207 0.142120
0.681610 0.070435 0.144104
0.713287 0.072632 0.146057
0.743805 0.074768 0.147888
0.773254 0.076935 0.149750
0.801727 0.079041 0.151581
0.829407 0.081024 0.153351
0.856354 0.083069 0.155121
0.882874 0.085052 0.156860
0.908936 0.087006 0.158600
0.934814 0.089050 0.160339
0.042114 0.048431 0.105133
0.059998 0.048431 0.105133
0.078033 0.048431 0.105133
0.097931 0.050293 0.106781
0.118408 0.052185 0.108398
0.139618 0.054108 0.110077
0.161896 0.056061 0.111816
0.185486 0.058075 0.113586
0.210632 0.060150 0.115417
0.237671 0.062317 0.117310
0.266693 0.064545 0.119293
0.297607 0.066833 0.121246
0.330292 0.069214 0.123322
0.364288 0.071564 0.125397
0.399445 0.073975 0.127502
0.435333 0.076416 0.129608
0.471710 0.078796 0.131714
0.508057 0.081268 0.133820
0.544220 0.083618 0.135956
0.579865 0.086060 0.138031
0.614777 0.088379 0.140106
0.648743 0.090729 0.142120
0.681610 0.093048 0.144104
0.713287 0.095215 0.146057
0.743805 0.097412 0.147888
0.773254 0.099518 0.149750
0.801727 0.101624 0.151581
0.829407 0.103699 0.153351
0.856354 0.105652 0.155121
0.882874 0.107635 0.156860
0.908936 0.109680 0.158600
0.934814 0.111664 0.160339
0.043610 0.073059 0.106781
0.061462 0.073059 0.106781
0.079529 0.073059 0.106781
0.097931 0.073059 0.106781
0.118408 0.074951 0.108398
0.139618 0.076843 0.110077
0.161896 0.078827 0.111816
0.185486 0.080872 0.113586
0.210632 0.082947 0.115417
0.237671 0.085114 0.117310
0.266693 0.087402 0.119293
0.297607 0.089661 0.121246
0.330292 0.092010 0.123322
0.364288 0.094421 0.125397
0.399445 0.096802 0.127502
0.435333 0.099274 0.129608
0.471710 0.101685 0.131714
0.508057 0.104095 0.133820
0.544220 0.106506 0.135956
0.579865 0.108978 0.138031
0.614777 0.111298 0.140106
0.648743 0.113647 0.142120
0.681610 0.115906 0.144104
0.713287 0.118195 0.146057
0.743805 0.120300 0.147888
0.773254 0.122498 0.149750
0.801727 0.124634 0.151581
0.829407 0.126648 0.153351
0.856354 0.128662 0.155121
0.882874 0.130676 0.156860
0.908936 0.132690 0.158600
0.934814 0.134735 0.160339
0.045105 0.098145 0.108398
0.062958 0.098145 0.108398
0.081055 0.098145 0.108398
0.099457 0.098145 0.108398
0.118408 0.098145 0.108398
0.139618 0.100067 0.110077
0.161896 0.102051 0.111816
0.185486 0.104065 0.113586
0.210632 0.106201 0.115417
0.237671 0.108368 0.117310
0.266693 0.110657 0.119293
0.297607 0.112915 0.121246
0.330292 0.115295 0.123322
0.364288 0.117676 0.125397
0.399445 0.120148 0.127502
0.435333 0.122528 0.129608
0.471710 0.125000 0.131714
0.508057 0.127441 0.133820
0.544220 0.129913 0.135956
0.579865 0.132294 0.138031
0.614777 0.134705 0.140106
0.648743 0.137054 0.142120
0.681610 0.139343 0.144104
0.713287 0.141541 0.146057
0.743805 0.143799 0.147888
0.773254 0.145966 0.149750
0.801727 0.148010 0.151581
0.829407 0.150146 0.153351
0.856354 0.152191 0.155121
0.882874 0.154205 0.156860
0.908936 0.156219 0.158600
0.934814 0.158203 0.160339
0.046600 0.123871 0.110077
0.064514 0.123871 0.110077
0.082581 0.123871 0.110077
0.101013 0.123871 0.110077
0.119965 0.123871 0.110077
0.139618 0.123871 0.110077
0.161896 0.125854 0.111816
0.185486 0.127899 0.113586
0.210632 0.130005 0.115417
0.237671 0.132172 0.117310
0.266693 0.134460 0.119293
0.297607 0.136780 0.121246
0.330292 0.139160 0.123322
0.364288 0.141541 0.125397
0.399445 0.143982 0.127502
0.435333 0.146454 0.129608
0.471710 0.148956 0.131714
0.508057 0.151337 0.133820
0.544220 0.153870 0.135956
0.579865 0.156311 0.138031
0.614777 0.158722 0.140106
0.648743 0.161072 0.142120
0.681610 0.163391 0.144104
0.713287 0.165588 0.146057
0.743805 0.167786 0.147888
0.773254 0.169952 0.149750
0.801727 0.172150 0.151581
0.829407 0.174164 0.153351
0.856354 0.176270 0.155121
0.882874 0.178345 0.156860
0.908936 0.180328 0.158600
0.934814 0.182404 0.160339
0.048187 0.150391 0.111816
0.066101 0.150391 0.111816
0.084167 0.150391 0.111816
0.102600 0.150391 0.111816
0.121613 0.150391 0.111816
0.141296 0.150391 0.111816
0.161896 0.150391 0.111816
0.185486 0.152466 0.113586
0.210632 0.154572 0.115417
0.237671 0.156799 0.117310
0.266693 0.159088 0.119293
0.297607 0.161407 0.121246
0.330292 0.163818 0.123322
0.364288 0.166229 0.125397
0.399445 0.168732 0.127502
0.435333 0.171204 0.129608
0.471710 0.173676 0.131714
0.508057 0.176147 0.133820
0.544220 0.178619 0.135956
0.579865 0.181061 0.138031
0.614777 0.183533 0.140106
0.648743 0.185822 0.142120
0.681610 0.188202 0.144104
0.713287 0.190460 0.146057
0.743805 0.192749 0.147888
0.773254 0.194916 0.149750
0.801727 0.197052 0.151581
0.829407 0.199097 0.153351
0.856354 0.201172 0.155121
0.882874 0.203247 0.156860
0.908936 0.205353 0.158600
0.934814 0.207458 0.160339
0.049805 0.177979 0.113586
0.067719 0.177979 0.113586
0.085815 0.177979 0.113586
0.104279 0.177979 0.113586
0.123260 0.177979 0.113586
0.143005 0.177979 0.113586
0.163666 0.177979 0.113586
0.185486 0.177979 0.113586
0.210632 0.180115 0.115417
0.237671 0.182343 0.117310
0.266693 0.184631 0.119293
0.297607 0.187012 0.121246
0.330292 0.189423 0.123322
0.364288 0.191833 0.125397
0.399445 0.194305 0.127502
0.435333 0.196808 0.129608
0.471710 0.199371 0.131714
0.508057 0.201813 0.133820
0.544220 0.204376 0.135956
0.579865 0.206787 0.138031
0.614777 0.209229 0.140106
0.648743 0.211670 0.142120
0.681610 0.214081 0.144104
0.713287 0.216339 0.146057
0.743805 0.218567 0.147888
0.773254 0.220825 0.149750
0.801727 0.222931 0.151581
0.829407 0.225098 0.153351
0.856354 0.227142 0.155121
0.882874 0.229309 0.156860
0.908936 0.231354 0.158600
0.934814 0.233429 0.160339
0.051483 0.206696 0.115417
0.069366 0.206696 0.115417
0.087463 0.206696 0.115417
0.105957 0.206696 0.115417
0.125000 0.206696 0.115417
0.144775 0.206696 0.115417
0.165436 0.206696 0.115417
0.187347 0.206696 0.115417
0.210632 0.206696 0.115417
0.237671 0.208923 0.117310
0.266693 0.211273 0.119293
0.297607 0.213623 0.121246
0.330292 0.216125 0.123322
0.364288 0.218536 0.125397
0.399445 0.221069 0.127502
0.435333 0.223602 0.129608
0.471710 0.226135 0.131714
0.508057 0.228668 0.133820
0.544220 0.231171 0.135956
0.579865 0.233643 0.138031
0.614777 0.236176 0.140106
0.648743 0.238586 0.142120
0.681610 0.241028 0.144104
0.713287 0.243256 0.146057
0.743805 0.245575 0.147888
0.773254 0.247711 0.149750
0.801727 0.249939 0.151581
0.829407 0.252167 0.153351
0.856354 0.254242 0.155121
0.882874 0.256378 0.156860
0.908936 0.258423 0.158600
0.934814 0.260651 0.160339
0.053192 0.236786 0.117310
0.071106 0.236786 0.117310
0.089233 0.236786 0.117310
0.107727 0.236786 0.117310
0.126801 0.236786 0.117310
0.146576 0.236786 0.117310
0.167358 0.236786 0.117310
0.189301 0.236786 0.117310
0.212616 0.236786 0.117310
0.237671 0.236786 0.117310
0.266693 0.239166 0.119293
0.297607 0.241516 0.121246
0.330292 0.243988 0.123322
0.364288 0.246521 0.125397
0.399445 0.249023 0.127502
0.435333 0.251617 0.129608
0.471710 0.254120 0.131714
0.508057 0.256714 0.133820
0.544220 0.259308 0.135956
0.579865 0.261841 0.138031
0.614777 0.264282 0.140106
0.648743 0.266724 0.142120
0.681610 0.269196 0.144104
0.713287 0.271515 0.146057
0.743805 0.273834 0.147888
0.773254 0.276062 0.149750
0.801727 0.278320 0.151581
0.829407 0.280518 0.153351
0.856354 0.282593 0.155121
0.882874 0.284851 0.156860
0.908936 0.286835 0.158600
0.934814 0.289093 0.160339
0.054993 0.268188 0.119293
0.072906 0.268188 0.119293
0.091034 0.268188 0.119293
0.109589 0.268188 0.119293
0.128662 0.268188 0.119293
0.148468 0.268188 0.119293
0.169281 0.268188 0.119293
0.191254 0.268188 0.119293
0.214691 0.268188 0.119293
0.239807 0.268188 0.119293
0.266693 0.268188 0.119293
0.297607 0.270630 0.121246
0.330292 0.273102 0.123322
0.364288 0.275665 0.125397
0.399445 0.278168 0.127502
0.435333 0.280792 0.129608
0.471710 0.283386 0.131714
0.508057 0.285950 0.133820
0.544220 0.288544 0.135956
0.579865 0.291077 0.138031
0.614777 0.293640 0.140106
0.648743 0.296082 0.142120
0.681610 0.298584 0.144104
0.713287 0.300934 0.146057
0.743805 0.303253 0.147888
0.773254 0.305481 0.149750
0.801727 0.307739 0.151581
0.829407 0.309906 0.153351
0.856354 0.312164 0.155121
0.882874 0.314240 0.156860
0.908936 0.316467 0.158600
0.934814 0.318634 0.160339
0.056793 0.300751 0.121246
0.074707 0.300751 0.121246
0.092896 0.300751 0.121246
0.111450 0.300751 0.121246
0.130554 0.300751 0.121246
0.150421 0.300751 0.121246
0.171265 0.300751 0.121246
0.193329 0.300751 0.121246
0.216797 0.300751 0.121246
0.241974 0.300751 0.121246
0.268982 0.300751 0.121246
0.297607 0.300751 0.121246
0.330292 0.303284 0.123322
0.364288 0.305817 0.125397
0.399445 0.308350 0.127502
0.435333 0.311035 0.129608
0.471710 0.313629 0.131714
0.508057 0.316223 0.133820
0.544220 0.318787 0.135956
0.579865 0.321381 0.138031
0.614777 0.323944 0.140106
0.648743 0.326508 0.142120
0.681610 0.328888 0.144104
0.713287 0.331329 0.146057
0.743805 0.333588 0.147888
0.773254 0.335938 0.149750
0.801727 0.338135 0.151581
0.829407 0.340424 0.153351
0.856354 0.342560 0.155121
0.882874 0.344666 0.156860
0.908936 0.346832 0.158600
0.934814 0.349030 0.160339
0.058685 0.334320 0.123322
0.076630 0.334320 0.123322
0.094818 0.334320 0.123322
0.113373 0.334320 0.123322
0.132507 0.334320 0.123322
0.152435 0.334320 0.123322
0.173340 0.334320 0.123322
0.195435 0.334320 0.123322
0.219025 0.334320 0.123322
0.244263 0.334320 0.123322
0.271301 0.334320 0.123322
0.300049 0.334320 0.123322
0.330292 0.334320 0.123322
0.364288 0.336884 0.125397
0.399445 0.339508 0.127502
0.435333 0.342133 0.129608
0.471710 0.344757 0.131714
0.508057 0.347351 0.133820
0.544220 0.350006 0.135956
0.579865 0.352600 0.138031
0.614777 0.355164 0.140106
0.648743 0.357605 0.142120
0.681610 0.360107 0.144104
0.713287 0.362488 0.146057
0.743805 0.364777 0.147888
0.773254 0.367096 0.149750
0.801727 0.369385 0.151581
0.829407 0.371643 0.153351
0.856354 0.373779 0.155121
0.882874 0.375977 0.156860
0.908936 0.378113 0.158600
0.934814 0.380280 0.160339
0.060577 0.368530 0.125397
0.078552 0.368530 0.125397
0.096710 0.368530 0.125397
0.115326 0.368530 0.125397
0.134491 0.368530 0.125397
0.154419 0.368530 0.125397
0.175354 0.368530 0.125397
0.197540 0.368530 0.125397
0.221191 0.368530 0.125397
0.246552 0.368530 0.125397
0.273712 0.368530 0.125397
0.302490 0.368530 0.125397
0.332794 0.368530 0.125397
0.364288 0.368530 0.125397
0.399445 0.371124 0.127502
0.435333 0.373779 0.129608
0.471710 0.376404 0.131714
0.508057 0.379028 0.133820
0.544220 0.381714 0.135956
0.579865 0.384308 0.138031
0.614777 0.386841 0.140106
0.648743 0.389404 0.142120
0.681610 0.391785 0.144104
0.713287 0.394287 0.146057
0.743805 0.396545 0.147888
0.773254 0.398926 0.149750
0.801727 0.401093 0.151581
0.829407 0.403351 0.153351
0.856354 0.405518 0.155121
0.882874 0.407776 0.156860
0.908936 0.409851 0.158600
0.934814 0.412079 0.160339
0.062500 0.403290 0.127502
0.080475 0.403290 0.127502
0.098663 0.403290 0.127502
0.117279 0.403290 0.127502
0.136536 0.403290 0.127502
0.156464 0.403290 0.127502
0.177521 0.403290 0.127502
0.199707 0.403290 0.127502
0.223419 0.403290 0.127502
0.248871 0.403290 0.127502
0.276093 0.403290 0.127502
0.304962 0.403290 0.127502
0.335388 0.403290 0.127502
0.366882 0.403290 0.127502
0.399445 0.403290 0.127502
0.435333 0.405914 0.129608
0.471710 0.408569 0.131714
0.508057 0.411194 0.133820
0.544220 0.413849 0.135956
0.579865 0.416412 0.138031
0.614777 0.419006 0.140106
0.648743 0.421539 0.142120
0.681610 0.423920 0.144104
0.713287 0.426422 0.146057
0.743805 0.428650 0.147888
0.773254 0.430939 0.149750
0.801727 0.433228 0.151581
0.829407 0.435486 0.153351
0.856354 0.437683 0.155121
0.882874 0.439819 0.156860
0.908936 0.442017 0.158600
0.934814 0.444153 0.160339
0.064423 0.438263 0.129608
0.082397 0.438263 0.129608
0.100647 0.438263 0.129608
0.119293 0.438263 0.129608
0.138519 0.438263 0.129608
0.158569 0.438263 0.129608
0.179626 0.438263 0.129608
0.201904 0.438263 0.129608
0.225708 0.438263 0.129608
0.251282 0.438263 0.129608
0.278564 0.438263 0.129608
0.307556 0.438263 0.129608
0.337982 0.438263 0.129608
0.369537 0.438263 0.129608
0.402130 0.438263 0.129608
0.435333 0.438263 0.129608
0.471710 0.440887 0.131714
0.508057 0.443481 0.133820
0.544220 0.446136 0.135956
0.579865 0.448700 0.138031
0.614777 0.451324 0.140106
0.648743 0.453766 0.142120
0.681610 0.456268 0.144104
0.713287 0.458649 0.146057
0.743805 0.460999 0.147888
0.773254 0.463318 0.149750
0.801727 0.465515 0.151581
0.829407 0.467773 0.153351
0.856354 0.469940 0.155121
0.882874 0.472076 0.156860
0.908936 0.474243 0.158600
0.934814 0.476288 0.160339
0.066345 0.473236 0.131714
0.084320 0.473236 0.131714
0.102570 0.473236 0.131714
0.121277 0.473236 0.131714
0.140564 0.473236 0.131714
0.160675 0.473236 0.131714
0.181793 0.473236 0.131714
0.204163 0.473236 0.131714
0.228027 0.473236 0.131714
0.253571 0.473236 0.131714
0.281006 0.473236 0.131714
0.310059 0.473236 0.131714
0.340576 0.473236 0.131714
0.372192 0.473236 0.131714
0.404816 0.473236 0.131714
0.438049 0.473236 0.131714
0.471710 0.473236 0.131714
0.508057 0.475830 0.133820
0.544220 0.478455 0.135956
0.579865 0.481018 0.138031
0.614777 0.483643 0.140106
0.648743 0.486115 0.142120
0.681610 0.488495 0.144104
0.713287 0.490845 0.146057
0.743805 0.493195 0.147888
0.773254 0.495422 0.149750
0.801727 0.497681 0.151581
0.829407 0.499969 0.153351
0.856354 0.502014 0.155121
0.882874 0.504181 0.156860
0.908936 0.506287 0.158600
0.934814 0.508423 0.160339
0.068268 0.507874 0.133820
0.086304 0.507874 0.133820
0.104584 0.507874 0.133820
0.123291 0.507874 0.133820
0.142639 0.507874 0.133820
0.162720 0.507874 0.133820
0.183929 0.507874 0.133820
0.206299 0.507874 0.133820
0.230286 0.507874 0.133820
0.255981 0.507874 0.133820
0.283478 0.507874 0.133820
0.312561 0.507874 0.133820
0.343170 0.507874 0.133820
0.374847 0.507874 0.133820
0.407501 0.507874 0.133820
0.440735 0.507874 0.133820
0.474426 0.507874 0.133820
0.508057 0.507874 0.133820
0.544220 0.510498 0.135956
0.579865 0.513000 0.138031
0.614777 0.515564 0.140106
0.648743 0.517944 0.142120
0.681610 0.520447 0.144104
0.713287 0.522766 0.146057
0.743805 0.525116 0.147888
0.773254 0.527374 0.149750
0.801727 0.529541 0.151581
0.829407 0.531677 0.153351
0.856354 0.533813 0.155121
0.882874 0.535980 0.156860
0.908936 0.538086 0.158600
0.934814 0.540222 0.160339
0.070221 0.542053 0.135956
0.088226 0.542053 0.135956
0.106506 0.542053 0.135956
0.125275 0.542053 0.135956
0.144684 0.542053 0.135956
0.164825 0.542053 0.135956
0.186035 0.542053 0.135956
0.208557 0.542053 0.135956
0.232574 0.542053 0.135956
0.258392 0.542053 0.135956
0.285950 0.542053 0.135956
0.315094 0.542053 0.135956
0.345764 0.542053 0.135956
0.377563 0.542053 0.135956
0.410248 0.542053 0.135956
0.443512 0.542053 0.135956
0.477173 0.542053 0.135956
0.510834 0.542053 0.135956
0.544220 0.542053 0.135956
0.579865 0.544617 0.138031
0.614777 0.547058 0.140106
0.648743 0.549500 0.142120
0.681610 0.551941 0.144104
0.713287 0.554260 0.146057
0.743805 0.556488 0.147888
0.773254 0.558746 0.149750
0.801727 0.560974 0.151581
0.829407 0.563110 0.153351
0.856354 0.565277 0.155121
0.882874 0.567352 0.156860
0.908936 0.569366 0.158600
0.934814 0.571564 0.160339
0.072144 0.575623 0.138031
0.090210 0.575623 0.138031
0.108490 0.575623 0.138031
0.127289 0.575623 0.138031
0.146667 0.575623 0.138031
0.166901 0.575623 0.138031
0.188171 0.575623 0.138031
0.210693 0.575623 0.138031
0.234802 0.575623 0.138031
0.260742 0.575623 0.138031
0.288361 0.575623 0.138031
0.317596 0.575623 0.138031
0.348389 0.575623 0.138031
0.380157 0.575623 0.138031
0.412842 0.575623 0.138031
0.446167 0.575623 0.138031
0.479858 0.575623 0.138031
0.513489 0.575623 0.138031
0.546936 0.575623 0.138031
0.579865 0.575623 0.138031
0.614777 0.578125 0.140106
0.648743 0.580597 0.142120
0.681610 0.582916 0.144104
0.713287 0.585205 0.146057
0.743805 0.587494 0.147888
0.773254 0.589691 0.149750
0.801727 0.591858 0.151581
0.829407 0.594055 0.153351
0.856354 0.596191 0.155121
0.882874 0.598236 0.156860
0.908936 0.600372 0.158600
0.934814 0.602356 0.160339
0.074036 0.608490 0.140106
0.092072 0.608490 0.140106
0.110382 0.608490 0.140106
0.129211 0.608490 0.140106
0.148682 0.608490 0.140106
0.168976 0.608490 0.140106
0.190308 0.608490 0.140106
0.212891 0.608490 0.140106
0.237091 0.608490 0.140106
0.263031 0.608490 0.140106
0.290802 0.608490 0.140106
0.320129 0.608490 0.140106
0.350922 0.608490 0.140106
0.382721 0.608490 0.140106
0.415497 0.608490 0.140106
0.448883 0.608490 0.140106
0.482605 0.608490 0.140106
0.516174 0.608490 0.140106
0.549530 0.608490 0.140106
0.582550 0.608490 0.140106
0.614777 0.608490 0.140106
0.648743 0.610901 0.142120
0.681610 0.613251 0.144104
0.713287 0.615601 0.146057
0.743805 0.617798 0.147888
0.773254 0.620056 0.149750
0.801727 0.622162 0.151581
0.829407 0.624329 0.153351
0.856354 0.626404 0.155121
0.882874 0.628571 0.156860
0.908936 0.630493 0.158600
0.934814 0.632690 0.160339
0.075867 0.640594 0.142120
0.093964 0.640594 0.142120
0.112305 0.640594 0.142120
0.131165 0.640594 0.142120
0.150635 0.640594 0.142120
0.170959 0.640594 0.142120
0.192291 0.640594 0.142120
0.215027 0.640594 0.142120
0.239288 0.640594 0.142120
0.265320 0.640594 0.142120
0.293121 0.640594 0.142120
0.322601 0.640594 0.142120
0.353363 0.640594 0.142120
0.385315 0.640594 0.142120
0.418121 0.640594 0.142120
0.451416 0.640594 0.142120
0.485168 0.640594 0.142120
0.518707 0.640594 0.142120
0.552124 0.640594 0.142120
0.585144 0.640594 0.142120
0.617340 0.640594 0.142120
0.648743 0.640594 0.142120
0.681610 0.642975 0.144104
0.713287 0.645325 0.146057
0.743805 0.647522 0.147888
0.773254 0.649658 0.149750
0.801727 0.651794 0.151581
0.829407 0.653961 0.153351
0.856354 0.656036 0.155121
0.882874 0.658234 0.156860
0.908936 0.660217 0.158600
0.934814 0.662323 0.160339
0.077698 0.671906 0.144104
0.095795 0.671906 0.144104
0.114197 0.671906 0.144104
0.133026 0.671906 0.144104
0.152588 0.671906 0.144104
0.172943 0.671906 0.144104
0.194366 0.671906 0.144104
0.217194 0.671906 0.144104
0.241547 0.671906 0.144104
0.267639 0.671906 0.144104
0.295532 0.671906 0.144104
0.324951 0.671906 0.144104
0.355865 0.671906 0.144104
0.387726 0.671906 0.144104
0.420532 0.671906 0.144104
0.454041 0.671906 0.144104
0.487701 0.671906 0.144104
0.521362 0.671906 0.144104
0.554718 0.671906 0.144104
0.587616 0.671906 0.144104
0.619843 0.671906 0.144104
0.651276 0.671906 0.144104
0.681610 0.671906 0.144104
0.713287 0.674225 0.146057
0.743805 0.676422 0.147888
0.773254 0.678650 0.149750
0.801727 0.680817 0.151581
0.829407 0.682922 0.153351
0.856354 0.684906 0.155121
0.882874 0.687042 0.156860
0.908936 0.689148 0.158600
0.934814 0.691254 0.160339
0.079498 0.702393 0.146057
0.097565 0.702393 0.146057
0.115967 0.702393 0.146057
0.134918 0.702393 0.146057
0.154419 0.702393 0.146057
0.174835 0.702393 0.146057
0.196350 0.702393 0.146057
0.219208 0.702393 0.146057
0.243591 0.702393 0.146057
0.269775 0.702393 0.146057
0.297791 0.702393 0.146057
0.327332 0.702393 0.146057
0.358215 0.702393 0.146057
0.390259 0.702393 0.146057
0.423126 0.702393 0.146057
0.456482 0.702393 0.146057
0.490143 0.702393 0.146057
0.523804 0.702393 0.146057
0.557190 0.702393 0.146057
0.590057 0.702393 0.146057
0.622314 0.702393 0.146057
0.653717 0.702393 0.146057
0.684052 0.702393 0.146057
0.713287 0.702393 0.146057
0.743805 0.704620 0.147888
0.773254 0.706818 0.149750
0.801727 0.708954 0.151581
0.829407 0.711182 0.153351
0.856354 0.713165 0.155121
0.882874 0.715271 0.156860
0.908936 0.717285 0.158600
0.934814 0.719391 0.160339
0.081177 0.732178 0.147888
0.099335 0.732178 0.147888
0.117767 0.732178 0.147888
0.136658 0.732178 0.147888
0.156311 0.732178 0.147888
0.176727 0.732178 0.147888
0.198364 0.732178 0.147888
0.221222 0.732178 0.147888
0.245697 0.732178 0.147888
0.271973 0.732178 0.147888
0.300018 0.732178 0.147888
0.329559 0.732178 0.147888
0.360504 0.732178 0.147888
0.392548 0.732178 0.147888
0.425446 0.732178 0.147888
0.458923 0.732178 0.147888
0.492645 0.732178 0.147888
0.526276 0.732178 0.147888
0.559540 0.732178 0.147888
0.592499 0.732178 0.147888
0.624634 0.732178 0.147888
0.656036 0.732178 0.147888
0.686371 0.732178 0.147888
0.715607 0.732178 0.147888
0.743805 0.732178 0.147888
0.773254 0.734406 0.149750
0.801727 0.736572 0.151581
0.829407 0.738678 0.153351
0.856354 0.740814 0.155121
0.882874 0.742859 0.156860
0.908936 0.744934 0.158600
0.934814 0.746948 0.160339
0.082886 0.761444 0.149750
0.101074 0.761444 0.149750
0.119507 0.761444 0.149750
0.138519 0.761444 0.149750
0.158142 0.761444 0.149750
0.178589 0.761444 0.149750
0.200256 0.761444 0.149750
0.223206 0.761444 0.149750
0.247650 0.761444 0.149750
0.274109 0.761444 0.149750
0.302185 0.761444 0.149750
0.331879 0.761444 0.149750
0.362854 0.761444 0.149750
0.394989 0.761444 0.149750
0.427795 0.761444 0.149750
0.461365 0.761444 0.149750
0.494965 0.761444 0.149750
0.528687 0.761444 0.149750
0.561920 0.761444 0.149750
0.594818 0.761444 0.149750
0.627014 0.761444 0.149750
0.658295 0.761444 0.149750
0.688660 0.761444 0.149750
0.717865 0.761444 0.149750
0.746094 0.761444 0.149750
0.773254 0.761444 0.149750
0.801727 0.763550 0.151581
0.829407 0.765717 0.153351
0.856354 0.767853 0.155121
0.882874 0.769928 0.156860
0.908936 0.771942 0.158600
0.934814 0.774078 0.160339
0.084564 0.790222 0.151581
0.102783 0.790222 0.151581
0.121246 0.790222 0.151581
0.140259 0.790222 0.151581
0.159882 0.790222 0.151581
0.180450 0.790222 0.151581
0.202118 0.790222 0.151581
0.225128 0.790222 0.151581
0.249695 0.790222 0.151581
0.276245 0.790222 0.151581
0.304352 0.790222 0.151581
0.334045 0.790222 0.151581
0.365143 0.790222 0.151581
0.397217 0.790222 0.151581
0.430145 0.790222 0.151581
0.463654 0.790222 0.151581
0.497345 0.790222 0.151581
0.530975 0.790222 0.151581
0.564331 0.790222 0.151581
0.597107 0.790222 0.151581
0.629272 0.790222 0.151581
0.660553 0.790222 0.151581
0.690918 0.790222 0.151581
0.720062 0.790222 0.151581
0.748260 0.790222 0.151581
0.775391 0.790222 0.151581
0.801727 0.790222 0.151581
0.829407 0.792358 0.153351
0.856354 0.794464 0.155121
0.882874 0.796539 0.156860
0.908936 0.798553 0.158600
0.934814 0.800659 0.160339
0.086212 0.818604 0.153351
0.104401 0.818604 0.153351
0.122955 0.818604 0.153351
0.141937 0.818604 0.153351
0.161682 0.818604 0.153351
0.182190 0.818604 0.153351
0.203918 0.818604 0.153351
0.227081 0.818604 0.153351
0.251770 0.818604 0.153351
0.278290 0.818604 0.153351
0.306458 0.818604 0.153351
0.336304 0.818604 0.153351
0.367401 0.818604 0.153351
0.399506 0.818604 0.153351
0.432465 0.818604 0.153351
0.466003 0.818604 0.153351
