Game/Assets/LUTs/purple11-free-luts-pack/well-see.CUBE
#Created by: Adobe Photoshop Export Color Lookup Plugin
#Copyright: (C) Copyright 2019 Purple11
TITLE "We'll see"
#LUT size
LUT_3D_SIZE 5
#data domain
#LUT data points
DOMAIN_MIN 0.000000 0.000000 0.000000
DOMAIN_MAX 0.903226 0.903226 0.903226
0.039215 0.000000 0.101959
0.185486 0.013214 0.113586
0.399445 0.029083 0.127502
0.648743 0.045746 0.142120
0.856354 0.060577 0.155121
0.049805 0.177979 0.113586
0.185486 0.177979 0.113586
0.399445 0.194305 0.127502
0.648743 0.211670 0.142120
0.856354 0.227142 0.155121
0.062500 0.403290 0.127502
0.199707 0.403290 0.127502
0.399445 0.403290 0.127502
0.648743 0.421539 0.142120
0.856354 0.437683 0.155121
0.075867 0.640594 0.142120
0.215027 0.640594 0.142120
0.418121 0.640594 0.142120
0.648743 0.640594 0.142120
0.856354 0.656036 0.155121
0.087830 0.846619 0.155121
0.228912 0.846619 0.155121
0.434753 0.846619 0.155121
0.665009 0.846619 0.155121
0.856354 0.846619 0.155121
0.049805 0.013214 0.256866
0.185486 0.013214 0.256866
0.399445 0.029083 0.270782
0.648743 0.045746 0.285522
0.856354 0.060577 0.298584
0.049805 0.177979 0.256866
0.197388 0.191650 0.268524
0.414276 0.208099 0.282501
0.663330 0.225525 0.297241
0.869659 0.241119 0.310333
0.062500 0.403290 0.270782
0.211853 0.417786 0.282501
0.414276 0.417786 0.282501
0.663330 0.435944 0.297241
0.869659 0.452179 0.310333
0.075867 0.640594 0.285522
0.227478 0.654449 0.297241
0.432953 0.654449 0.297241
0.663330 0.654449 0.297241
0.869659 0.669952 0.310333
0.087830 0.846619 0.298584
0.241608 0.860596 0.310333
0.449768 0.860596 0.310333
0.679596 0.860596 0.310333
0.869659 0.860596 0.310333
0.062500 0.029083 0.443848
0.199707 0.029083 0.443848
0.399445 0.029083 0.443848
0.648743 0.045746 0.458832
0.856354 0.060577 0.472137
0.062500 0.194305 0.443848
0.211853 0.208099 0.455750
0.414276 0.208099 0.455750
0.663330 0.225525 0.470703
0.869659 0.241119 0.484100
0.062500 0.403290 0.443848
0.211853 0.417786 0.455750
0.432037 0.435059 0.469971
0.680664 0.453217 0.484955
0.885437 0.469330 0.498322
0.075867 0.640594 0.458832
0.227478 0.654449 0.470703
0.450836 0.670990 0.484955
0.680664 0.670990 0.484955
0.885437 0.686462 0.498322
0.087830 0.846619 0.472137
0.241608 0.860596 0.484100
0.467651 0.877228 0.498322
0.696777 0.877228 0.498322
0.885437 0.877228 0.498322
0.075867 0.045746 0.646149
0.215027 0.045746 0.646149
0.418121 0.045746 0.646149
0.648743 0.045746 0.646149
0.856354 0.060577 0.660126
0.075867 0.211670 0.646149
0.227478 0.225525 0.658661
0.432953 0.225525 0.658661
0.663330 0.225525 0.658661
0.869659 0.241119 0.672791
0.075867 0.421539 0.646149
0.227478 0.435944 0.658661
0.450836 0.453217 0.673737
0.680664 0.453217 0.673737
0.885437 0.469330 0.687927
0.075867 0.640594 0.646149
0.227478 0.654449 0.658661
0.450836 0.670990 0.673737
0.698761 0.688354 0.689697
0.902008 0.703796 0.704010
0.087830 0.846619 0.660126
0.241608 0.860596 0.672791
0.467651 0.877228 0.687927
0.714752 0.894806 0.704010
0.902008 0.894806 0.704010
0.087830 0.060577 0.842377
0.228912 0.060577 0.842377
0.434753 0.060577 0.842377
0.665009 0.060577 0.842377
0.856354 0.060577 0.842377
0.087830 0.227142 0.842377
0.241608 0.241119 0.856445
0.449768 0.241119 0.856445
0.679596 0.241119 0.856445
0.869659 0.241119 0.856445
0.087830 0.437683 0.842377
0.241608 0.452179 0.856445
0.467651 0.469330 0.873322
0.696777 0.469330 0.873322
0.885437 0.469330 0.873322
0.087830 0.656036 0.842377
0.241608 0.669952 0.856445
0.467651 0.686462 0.873322
0.714752 0.703796 0.891266
0.902008 0.703796 0.891266
0.087830 0.846619 0.842377
0.241608 0.860596 0.856445
0.467651 0.877228 0.873322
0.714752 0.894806 0.891266
0.916656 0.910400 0.907257
