Game/Assets/LUTs/purple11-free-luts-pack/You can do it.CUBE
#Created by: Adobe Photoshop Export Color Lookup Plugin
#Copyright: (C) Copyright 2019 Purple11
TITLE "You can do it"
#LUT size
LUT_3D_SIZE 8
#data domain
#LUT data points
DOMAIN_MIN 0.000000 0.000000 0.000000
DOMAIN_MAX 0.903226 0.903226 0.903226
0.172546 0.177704 0.257355
0.230286 0.172546 0.252563
0.314728 0.172546 0.222870
0.399475 0.172546 0.204987
0.515503 0.172546 0.204987
0.656097 0.172546 0.204987
0.796967 0.172546 0.204987
0.931183 0.204468 0.204987
0.172546 0.216949 0.244720
0.196899 0.211792 0.210663
0.290253 0.210083 0.204987
0.374298 0.215240 0.204987
0.495331 0.227295 0.204987
0.646790 0.245758 0.204987
0.795227 0.268219 0.204987
0.922791 0.287231 0.204987
0.172546 0.298889 0.210480
0.189209 0.296997 0.204987
0.289337 0.294617 0.204987
0.384033 0.300995 0.204987
0.494263 0.329956 0.204987
0.640961 0.364838 0.204987
0.785889 0.387573 0.204987
0.918030 0.407257 0.204987
0.172546 0.415863 0.230377
0.188477 0.417328 0.204987
0.295898 0.415863 0.204987
0.428650 0.422729 0.204987
0.558014 0.435577 0.204987
0.688110 0.475342 0.204987
0.816437 0.509918 0.204987
0.934204 0.532593 0.204987
0.172546 0.586639 0.299255
0.188477 0.590363 0.237396
0.309875 0.591553 0.204987
0.501526 0.591187 0.204987
0.647644 0.595306 0.204987
0.797119 0.607849 0.204987
0.902863 0.627563 0.204987
0.983337 0.647980 0.204987
0.313232 0.766724 0.347565
0.330170 0.766144 0.323273
0.393372 0.772400 0.238678
0.561127 0.766632 0.230988
0.730957 0.758057 0.204987
0.863800 0.754700 0.204987
0.968109 0.752899 0.204987
0.988403 0.749146 0.204987
0.393494 0.894318 0.364166
0.416229 0.895752 0.360413
0.456940 0.900726 0.296448
0.591125 0.895020 0.245544
0.756256 0.877136 0.204987
0.896301 0.870392 0.204987
0.969635 0.859894 0.204987
0.988403 0.850159 0.204987
0.450958 0.983948 0.396790
0.468597 0.983093 0.372375
0.486969 0.984314 0.333069
0.585388 0.980560 0.227295
0.749359 0.966827 0.204987
0.910370 0.944000 0.204987
0.969635 0.932678 0.204987
0.988403 0.921692 0.204987
0.172546 0.182922 0.288513
0.188477 0.173737 0.301208
0.267548 0.172546 0.331238
0.375488 0.172546 0.275848
0.519226 0.172546 0.243408
0.675629 0.172546 0.220306
0.824371 0.172546 0.220306
0.956635 0.172546 0.220306
0.172546 0.219330 0.279175
0.188477 0.214355 0.272858
0.290192 0.208221 0.256653
0.388641 0.205414 0.235229
0.527191 0.190002 0.220306
0.680084 0.188477 0.220306
0.822998 0.188477 0.220306
0.954346 0.188477 0.220306
0.172546 0.297485 0.292938
0.188477 0.296051 0.268951
0.283234 0.295776 0.238373
0.375427 0.306152 0.225922
0.501190 0.329926 0.220306
0.654572 0.347565 0.220306
0.809204 0.365723 0.220306
0.943329 0.373474 0.220306
0.172546 0.410400 0.315582
0.188477 0.416412 0.294037
0.256104 0.422058 0.243988
0.420349 0.425537 0.241974
0.554626 0.441498 0.221283
0.687073 0.480896 0.220306
0.816528 0.506836 0.220306
0.935730 0.530334 0.220306
0.172546 0.586365 0.363495
0.188477 0.589233 0.345825
0.267670 0.595490 0.272186
0.485443 0.592407 0.245148
0.642548 0.598358 0.246857
0.792267 0.613220 0.229828
0.895874 0.630371 0.220306
0.979401 0.648224 0.220306
0.325378 0.765839 0.419250
0.360107 0.768158 0.400452
0.390076 0.771393 0.327515
0.542816 0.769135 0.285309
0.726135 0.757538 0.258118
0.860931 0.755005 0.255951
0.967804 0.752899 0.238312
0.988403 0.756775 0.220306
0.421814 0.892975 0.447998
0.442169 0.892853 0.432648
0.469635 0.898682 0.377258
0.570618 0.896240 0.309845
0.751404 0.883698 0.269257
0.895935 0.868408 0.250854
0.969635 0.861053 0.241882
0.988403 0.851410 0.232300
0.461884 0.979980 0.459290
0.476440 0.980835 0.449677
0.505737 0.983948 0.383484
0.574829 0.983368 0.298950
0.746704 0.966827 0.231049
0.905029 0.946259 0.220306
0.969635 0.934814 0.220306
0.988403 0.921692 0.220306
0.172546 0.186646 0.353790
0.188477 0.190674 0.360199
0.208191 0.188507 0.367676
0.299500 0.203766 0.410706
0.457703 0.210205 0.425751
0.635284 0.199341 0.401825
0.797607 0.193604 0.374451
0.938843 0.184235 0.318848
0.172546 0.223511 0.317078
0.188477 0.234589 0.329620
0.208191 0.234344 0.351379
0.317657 0.240082 0.398712
0.478912 0.247253 0.405731
0.648163 0.231903 0.376129
0.808105 0.230164 0.346161
0.949341 0.217590 0.304810
0.172546 0.296051 0.328674
0.188477 0.296051 0.329590
0.251648 0.299591 0.330902
0.376099 0.305908 0.344147
0.518524 0.312378 0.331604
0.683105 0.315491 0.301331
0.841370 0.311401 0.277832
0.975708 0.293335 0.247070
0.172546 0.415131 0.391602
0.188477 0.418243 0.387909
0.226868 0.421997 0.369476
0.408783 0.428192 0.338776
0.535522 0.450073 0.316895
0.685333 0.481567 0.305511
0.836639 0.491302 0.269806
0.966736 0.503052 0.240387
0.172546 0.588959 0.460358
0.188477 0.587799 0.452759
0.279175 0.592896 0.423492
0.454987 0.599213 0.359833
0.636932 0.601685 0.351410
0.781067 0.617859 0.331635
0.886383 0.638153 0.282318
0.971344 0.655731 0.264893
0.322937 0.765656 0.510284
0.362732 0.766113 0.499451
0.424774 0.764954 0.475647
0.522156 0.773468 0.387177
0.713379 0.761261 0.368408
0.851166 0.761078 0.368744
0.963196 0.759186 0.354828
0.988403 0.764313 0.287231
0.410065 0.890137 0.542419
0.443573 0.892914 0.529297
0.492432 0.894135 0.509216
0.553375 0.899475 0.420258
0.727753 0.885925 0.375610
0.886383 0.870209 0.357086
0.969635 0.865021 0.353668
0.988403 0.855408 0.339539
0.461121 0.977936 0.545135
0.486542 0.979919 0.542816
0.532654 0.979126 0.508728
0.571136 0.984589 0.416351
0.720245 0.972717 0.366943
0.899750 0.947754 0.314056
0.969635 0.936127 0.296021
0.988403 0.923950 0.280914
0.172546 0.203461 0.442963
0.188477 0.213989 0.447327
0.208191 0.233795 0.428986
0.231659 0.236908 0.453400
0.384857 0.258270 0.529419
0.549072 0.287842 0.603088
0.722107 0.309357 0.618500
0.873108 0.316620 0.612457
0.172546 0.245514 0.398224
0.188477 0.254425 0.411041
0.208191 0.267395 0.423523
0.231659 0.268341 0.448242
0.400085 0.290070 0.527344
0.556488 0.320984 0.594421
0.733215 0.340271 0.607910
0.887390 0.343964 0.598907
0.172546 0.310699 0.384216
0.188477 0.313995 0.382233
0.208191 0.323822 0.402191
0.291809 0.330872 0.440887
0.440033 0.350891 0.522919
0.606293 0.379425 0.571045
0.767944 0.395386 0.578003
0.922089 0.400177 0.564636
0.172546 0.418549 0.440186
0.188477 0.417816 0.438080
0.239685 0.423431 0.438354
0.385223 0.438965 0.449951
0.537292 0.451080 0.466705
0.701385 0.471283 0.483490
0.852295 0.479950 0.481293
0.981445 0.484985 0.469452
0.172546 0.588531 0.543762
0.193878 0.591278 0.538361
0.275330 0.593658 0.534302
0.444946 0.604340 0.517090
0.615570 0.610382 0.473114
0.759949 0.626953 0.458435
0.871948 0.644012 0.446198
0.979980 0.652802 0.433472
0.312073 0.763855 0.618286
0.341797 0.762421 0.612732
0.419189 0.764923 0.604126
0.529022 0.766815 0.568695
0.683929 0.768158 0.492249
0.834808 0.765381 0.490021
0.953247 0.767548 0.478821
0.987793 0.774445 0.445404
0.398224 0.890839 0.657806
0.431366 0.890839 0.654541
0.489532 0.891388 0.638763
0.582458 0.890991 0.596161
0.693665 0.892761 0.501770
0.874512 0.874237 0.482361
0.969635 0.869354 0.477509
0.988403 0.861877 0.468628
0.462952 0.976532 0.663116
0.491760 0.977417 0.661652
0.530792 0.976624 0.649780
0.605042 0.977234 0.618866
0.693298 0.977142 0.500580
0.868134 0.955811 0.462158
0.969635 0.941528 0.445282
0.988403 0.931274 0.438660
0.172546 0.237671 0.528442
0.188477 0.246521 0.532196
0.208191 0.265381 0.528046
0.231659 0.280334 0.523193
0.276855 0.300079 0.580383
0.489624 0.337067 0.674225
0.651337 0.363159 0.760925
0.787842 0.389832 0.818756
0.172546 0.272705 0.499207
0.188477 0.279816 0.504761
0.208191 0.295807 0.523865
0.231659 0.310394 0.522491
0.312927 0.326843 0.577209
0.504944 0.363068 0.670288
0.664886 0.387817 0.760681
0.794617 0.415039 0.817047
0.172546 0.334839 0.463531
0.188477 0.339905 0.473816
0.208191 0.350189 0.496002
0.231659 0.372101 0.533203
0.366455 0.386597 0.580658
0.547058 0.415741 0.673004
0.699280 0.441193 0.758759
0.831024 0.467194 0.805786
0.172546 0.435883 0.510254
0.188477 0.437469 0.505341
0.208191 0.447571 0.499725
0.240448 0.465240 0.526398
0.461517 0.482147 0.584839
0.621887 0.505768 0.679413
0.767365 0.529388 0.742950
0.898438 0.540283 0.762573
0.207611 0.593597 0.592804
0.241486 0.592316 0.588806
0.346802 0.597778 0.591797
0.468170 0.608765 0.597260
0.603424 0.619659 0.607727
0.750336 0.634125 0.638611
0.889496 0.640259 0.644348
0.984314 0.643921 0.647186
0.307007 0.763336 0.709412
0.357880 0.763947 0.706085
0.427612 0.766785 0.703247
0.526245 0.769928 0.692413
0.662994 0.775116 0.666687
0.823242 0.774902 0.626007
0.929565 0.779724 0.607605
0.984711 0.787354 0.587860
0.406189 0.891388 0.753204
0.434174 0.891724 0.755493
0.489624 0.890472 0.750641
0.576935 0.892212 0.739777
0.695831 0.892303 0.704315
0.843414 0.888458 0.620178
0.962585 0.876923 0.612122
0.988403 0.866089 0.592316
0.451538 0.977905 0.779144
0.476715 0.975616 0.779144
0.522797 0.975403 0.770813
0.601166 0.974243 0.756897
0.714294 0.971069 0.703430
0.823303 0.968323 0.606506
0.968170 0.944244 0.583832
0.988403 0.935669 0.576141
0.172546 0.277374 0.619171
0.188477 0.280853 0.621918
0.208191 0.293976 0.624756
0.231659 0.316467 0.623657
0.258881 0.346802 0.648407
0.421753 0.371704 0.726288
0.605682 0.409210 0.810272
0.747772 0.438721 0.887970
0.172546 0.307068 0.602173
0.188477 0.307861 0.602692
0.208191 0.327362 0.620941
0.231659 0.346863 0.630798
0.258881 0.374115 0.647552
0.435486 0.398468 0.724670
0.615082 0.435089 0.809357
0.755524 0.460327 0.886322
0.172546 0.364838 0.573608
0.188477 0.369080 0.583038
0.208191 0.380432 0.597900
0.231659 0.404938 0.634918
0.258881 0.430115 0.653168
0.481476 0.448364 0.726593
0.651031 0.482819 0.815674
0.786560 0.503632 0.884460
0.172546 0.461670 0.551636
0.188477 0.468323 0.558960
0.208191 0.477753 0.581726
0.231659 0.497375 0.624359
0.258881 0.528778 0.677795
0.563263 0.542480 0.730072
0.723785 0.564575 0.816711
0.841064 0.575684 0.883575
0.236145 0.609802 0.658569
0.253418 0.611023 0.663940
0.285461 0.617126 0.665649
0.379578 0.629639 0.661896
0.495789 0.656647 0.688110
0.685760 0.662506 0.744324
0.818756 0.670868 0.821350
0.915222 0.678223 0.878265
0.407745 0.766418 0.741516
0.435608 0.767334 0.743469
0.484680 0.768188 0.745422
0.572327 0.771393 0.741150
0.685059 0.776001 0.743835
0.802185 0.782867 0.752045
0.906952 0.780548 0.770813
0.985931 0.781158 0.775726
0.417633 0.890930 0.846863
0.453094 0.892365 0.847168
0.500183 0.890564 0.844604
0.583527 0.890991 0.828186
0.699982 0.890198 0.812683
0.818665 0.890778 0.786865
0.950562 0.884644 0.745422
0.988403 0.877655 0.721863
0.457001 0.976837 0.867950
0.476898 0.973694 0.867157
0.528412 0.971985 0.857941
0.603638 0.971680 0.850891
0.711426 0.969055 0.830292
0.822021 0.964813 0.794037
0.936523 0.952637 0.714050
0.988403 0.936890 0.703644
0.172546 0.308319 0.705536
0.188477 0.311401 0.706177
0.208191 0.327148 0.717896
0.231659 0.351593 0.723145
0.258881 0.386810 0.730164
0.285156 0.421265 0.781982
0.550140 0.441864 0.854218
0.704529 0.472748 0.924774
0.172546 0.338104 0.692078
0.188477 0.343597 0.698578
0.208191 0.355774 0.709625
0.231659 0.380249 0.725128
0.258881 0.416534 0.737549
0.285156 0.448120 0.783844
0.569458 0.469727 0.858887
0.714325 0.498413 0.927490
0.172546 0.397217 0.671753
0.188477 0.400299 0.677185
0.208191 0.409180 0.689087
0.231659 0.436523 0.728485
0.258881 0.467255 0.747192
0.285156 0.497772 0.785217
0.607422 0.515686 0.857391
0.749512 0.542114 0.930054
0.172546 0.494293 0.653656
0.188477 0.498566 0.659271
0.208191 0.508575 0.677704
0.231659 0.527954 0.715393
0.258881 0.567047 0.772888
0.404938 0.584930 0.792023
0.678467 0.591705 0.858887
0.802948 0.611084 0.931641
0.172546 0.640778 0.713989
0.188477 0.642395 0.709930
0.208191 0.646820 0.707489
0.261932 0.659668 0.713379
0.319031 0.686707 0.771912
0.527557 0.703949 0.820038
0.768616 0.703217 0.869354
0.875092 0.706451 0.924774
0.458588 0.769531 0.776337
0.482880 0.768646 0.780151
0.512573 0.771851 0.785645
0.560608 0.779785 0.804718
0.641388 0.795990 0.806824
0.716492 0.808777 0.818115
0.851593 0.809235 0.862762
0.954468 0.802246 0.917938
0.496338 0.891388 0.860413
0.516785 0.887787 0.857025
0.559723 0.887787 0.848846
0.633423 0.888916 0.851715
0.728394 0.886963 0.846527
0.834808 0.888794 0.847809
0.932617 0.888000 0.847656
0.988068 0.881195 0.858704
0.461334 0.971680 0.935669
0.486969 0.971680 0.936066
0.540131 0.971497 0.934052
0.613098 0.971832 0.929413
0.720276 0.967316 0.909912
0.830200 0.959869 0.883148
0.917236 0.956329 0.858276
0.988403 0.942383 0.813751
0.172546 0.341034 0.779755
0.188477 0.344788 0.781708
0.208191 0.359222 0.793549
0.231659 0.382507 0.803253
0.258881 0.420135 0.815186
0.285156 0.460938 0.837677
0.347260 0.492859 0.906586
0.681915 0.509827 0.973755
0.172546 0.367554 0.771851
0.188477 0.374634 0.774872
0.208191 0.386871 0.791260
0.231659 0.410980 0.807404
0.258881 0.450165 0.820526
0.285156 0.481476 0.835144
0.382507 0.513855 0.902374
0.687622 0.527588 0.966187
0.172546 0.424072 0.752808
0.188477 0.428131 0.756409
0.208191 0.440582 0.773956
0.231659 0.465790 0.807495
0.258881 0.503632 0.833374
0.285156 0.534271 0.847290
0.483002 0.558441 0.907990
0.719269 0.566986 0.967834
0.172546 0.521179 0.736938
0.188477 0.525238 0.741608
0.208191 0.534943 0.756348
0.231659 0.558594 0.794403
0.258881 0.595581 0.851807
0.285156 0.618469 0.867493
0.576385 0.631836 0.907837
0.767548 0.641205 0.972443
0.172546 0.660370 0.745239
0.188477 0.660278 0.743439
0.208191 0.669983 0.753754
0.231659 0.686066 0.785370
0.258881 0.711792 0.841827
0.285583 0.737762 0.900391
0.671631 0.736023 0.912018
0.837006 0.734314 0.963867
0.314728 0.792694 0.862274
0.328217 0.790436 0.861725
0.380493 0.794495 0.857086
0.457428 0.804718 0.853241
0.560303 0.814270 0.833405
0.639160 0.834839 0.879059
0.724304 0.843750 0.924805
0.909119 0.828217 0.952393
0.556061 0.886536 0.853607
0.576813 0.884613 0.853729
0.615906 0.888153 0.862946
0.668884 0.890594 0.871033
0.728546 0.892639 0.893097
0.801575 0.900970 0.890259
0.864777 0.909821 0.900970
0.964508 0.899200 0.928406
0.534668 0.969391 0.926331
0.559113 0.967682 0.926849
0.603760 0.968292 0.927124
0.666748 0.971375 0.929688
0.753998 0.964569 0.917419
0.847076 0.959503 0.909637
0.932281 0.949493 0.899445
0.987457 0.944641 0.902222
