Game/Assets/LUTs/purple11-free-luts-pack/You can do it.CUBE
#Created by: Adobe Photoshop Export Color Lookup Plugin
#Copyright: (C) Copyright 2019 Purple11
TITLE "You can do it"
#LUT size
LUT_3D_SIZE 32
#data domain
DOMAIN_MIN 0.0 0.0 0.0
DOMAIN_MAX 1.0 1.0 1.0
#LUT data points
0.172546 0.177704 0.257355
0.183441 0.175903 0.254730
0.195038 0.173950 0.251923
0.209595 0.172546 0.250488
0.230286 0.172546 0.252563
0.252106 0.172546 0.254791
0.273865 0.172546 0.247040
0.296661 0.172546 0.238525
0.314728 0.172546 0.222870
0.332764 0.172546 0.205566
0.352875 0.172546 0.204987
0.374451 0.172546 0.204987
0.399475 0.172546 0.204987
0.425415 0.172546 0.204987
0.452301 0.172546 0.204987
0.483612 0.172546 0.204987
0.515503 0.172546 0.204987
0.546417 0.172546 0.204987
0.585022 0.172546 0.204987
0.621613 0.172546 0.204987
0.656097 0.172546 0.204987
0.692719 0.172546 0.204987
0.728760 0.172546 0.204987
0.763367 0.172546 0.204987
0.796967 0.172546 0.204987
0.832397 0.172546 0.204987
0.866211 0.173096 0.204987
0.899536 0.189209 0.204987
0.931183 0.204468 0.204987
0.956726 0.228851 0.204987
0.979065 0.256012 0.204987
1.000000 0.281494 0.204987
0.172546 0.184082 0.253876
0.176178 0.182281 0.243317
0.187775 0.180328 0.240540
0.202332 0.178284 0.236969
0.223022 0.177094 0.235046
0.244812 0.177094 0.237274
0.269318 0.176178 0.235596
0.292114 0.176178 0.227112
0.310120 0.176178 0.222870
0.328186 0.176178 0.205566
0.348328 0.176178 0.204987
0.369293 0.176178 0.204987
0.393127 0.176178 0.204987
0.419891 0.176178 0.204987
0.446808 0.176178 0.204987
0.479004 0.176178 0.204987
0.513641 0.177063 0.204987
0.544586 0.177155 0.204987
0.582306 0.181641 0.204987
0.618866 0.182373 0.204987
0.653290 0.182556 0.204987
0.690887 0.194427 0.204987
0.727112 0.194305 0.204987
0.764282 0.192596 0.204987
0.796936 0.194397 0.204987
0.827850 0.202637 0.204987
0.861786 0.202667 0.204987
0.896820 0.207428 0.204987
0.928436 0.222717 0.204987
0.956146 0.241394 0.204987
0.979065 0.266937 0.204987
1.000000 0.292450 0.204987
0.172546 0.190857 0.250122
0.176178 0.189026 0.239594
0.180054 0.187103 0.228363
0.194580 0.185028 0.224792
0.215302 0.182892 0.219574
0.237061 0.181915 0.218567
0.262360 0.180756 0.218658
0.287292 0.180054 0.214966
0.305267 0.180054 0.213898
0.323242 0.180054 0.205566
0.343445 0.180054 0.204987
0.364471 0.180054 0.204987
0.386353 0.180054 0.204987
0.413116 0.180054 0.204987
0.440948 0.180054 0.204987
0.473907 0.180054 0.204987
0.508759 0.180939 0.204987
0.542633 0.182007 0.204987
0.579590 0.190399 0.204987
0.615936 0.192017 0.204987
0.650330 0.193176 0.204987
0.688232 0.208771 0.204987
0.725159 0.217621 0.204987
0.763885 0.214844 0.204987
0.797882 0.215729 0.204987
0.825745 0.229675 0.204987
0.856934 0.234772 0.204987
0.892487 0.235901 0.204987
0.925537 0.242126 0.204987
0.953247 0.260834 0.204987
0.978455 0.280212 0.204987
1.000000 0.304138 0.204987
0.172546 0.200592 0.246796
0.176178 0.199066 0.235352
0.180054 0.197144 0.224121
0.186035 0.195404 0.215912
0.206757 0.193237 0.210663
0.228577 0.190918 0.205200
0.253815 0.189362 0.204987
0.280396 0.188141 0.204987
0.299194 0.189209 0.204987
0.317139 0.189209 0.204987
0.337311 0.190186 0.204987
0.358948 0.190186 0.204987
0.380890 0.190186 0.204987
0.406586 0.191101 0.204987
0.435059 0.191101 0.204987
0.467438 0.192047 0.204987
0.502930 0.193909 0.204987
0.539062 0.195648 0.204987
0.576569 0.202789 0.204987
0.613495 0.209259 0.204987
0.647858 0.210846 0.204987
0.685120 0.223206 0.204987
0.722748 0.241577 0.204987
0.761536 0.240479 0.204987
0.798462 0.238800 0.204987
0.827118 0.251678 0.204987
0.853912 0.264557 0.204987
0.888977 0.265411 0.204987
0.922791 0.266510 0.204987
0.951111 0.277893 0.204987
0.976318 0.297302 0.204987
1.000000 0.315521 0.204987
0.172546 0.216949 0.244720
0.176178 0.216034 0.231537
0.180054 0.214600 0.218903
0.186035 0.212860 0.210663
0.196899 0.211792 0.210663
0.218689 0.209473 0.205200
0.243927 0.207062 0.204987
0.270569 0.205597 0.204987
0.290253 0.210083 0.204987
0.308441 0.211029 0.204987
0.328613 0.215240 0.204987
0.350281 0.215240 0.204987
0.374298 0.215240 0.204987
0.400604 0.217926 0.204987
0.429626 0.219452 0.204987
0.459808 0.223663 0.204987
0.495331 0.227295 0.204987
0.531433 0.230591 0.204987
0.571167 0.233429 0.204987
0.609711 0.241486 0.204987
0.646790 0.245758 0.204987
0.682190 0.248444 0.204987
0.719421 0.264496 0.204987
0.758270 0.269867 0.204987
0.795227 0.268219 0.204987
0.829254 0.273499 0.204987
0.856110 0.286346 0.204987
0.889404 0.286346 0.204987
0.922791 0.287231 0.204987
0.951111 0.294647 0.204987
0.976318 0.307068 0.204987
1.000000 0.325317 0.204987
0.172546 0.234131 0.242493
0.176178 0.233246 0.229370
0.180054 0.232300 0.215332
0.186035 0.231201 0.205200
0.196899 0.230133 0.205200
0.208344 0.228973 0.205200
0.233582 0.226562 0.204987
0.260162 0.224030 0.204987
0.279907 0.228424 0.204987
0.299286 0.233917 0.204987
0.319489 0.238129 0.204987
0.341125 0.241577 0.204987
0.366058 0.241577 0.204987
0.393677 0.244263 0.204987
0.423920 0.249207 0.204987
0.453461 0.254364 0.204987
0.487335 0.260498 0.204987
0.523438 0.267273 0.204987
0.563721 0.268982 0.204987
0.604004 0.273621 0.204987
0.644562 0.281372 0.204987
0.681091 0.285156 0.204987
0.715942 0.288574 0.204987
0.754761 0.294067 0.204987
0.791779 0.299133 0.204987
0.825928 0.304260 0.204987
0.858398 0.309265 0.204987
0.891693 0.309265 0.204987
0.923309 0.309265 0.204987
0.951111 0.316437 0.204987
0.976318 0.326111 0.204987
1.000000 0.335602 0.204987
0.172546 0.255737 0.230103
0.176178 0.255737 0.226593
0.180054 0.255035 0.215240
0.185089 0.253418 0.204987
0.193420 0.250610 0.204987
0.204834 0.249451 0.204987
0.235535 0.249420 0.204987
0.262146 0.246918 0.204987
0.283020 0.245422 0.204987
0.302399 0.250916 0.204987
0.323792 0.254120 0.204987
0.344849 0.258331 0.204987
0.368073 0.260040 0.204987
0.393982 0.264526 0.204987
0.423676 0.270081 0.204987
0.453278 0.276428 0.204987
0.488831 0.283569 0.204987
0.525421 0.290771 0.204987
0.563446 0.294708 0.204987
0.602356 0.300690 0.204987
0.642059 0.309357 0.204987
0.678711 0.315613 0.204987
0.713440 0.318512 0.204987
0.751160 0.322998 0.204987
0.788330 0.328918 0.204987
0.823486 0.337982 0.204987
0.856232 0.342590 0.204987
0.891785 0.339233 0.204987
0.923401 0.339233 0.204987
0.951111 0.343506 0.204987
0.976318 0.351349 0.204987
1.000000 0.360443 0.204987
0.172546 0.278564 0.216644
0.176178 0.278564 0.213165
0.180054 0.278564 0.209412
0.185089 0.277466 0.204987
0.192688 0.274200 0.204987
0.201050 0.270996 0.204987
0.231781 0.270966 0.204987
0.264679 0.270966 0.204987
0.285553 0.269470 0.204987
0.306213 0.268677 0.204987
0.327820 0.271667 0.204987
0.349884 0.274811 0.204987
0.371704 0.277924 0.204987
0.396515 0.283508 0.204987
0.423676 0.291626 0.204987
0.453278 0.298523 0.204987
0.488831 0.306396 0.204987
0.527985 0.314850 0.204987
0.564941 0.319855 0.204987
0.602356 0.327301 0.204987
0.639801 0.338165 0.204987
0.676178 0.344788 0.204987
0.710907 0.350159 0.204987
0.748383 0.354401 0.204987
0.784515 0.359375 0.204987
0.819946 0.369476 0.204987
0.853699 0.378021 0.204987
0.889282 0.374603 0.204987
0.923096 0.371368 0.204987
0.951111 0.375122 0.204987
0.976318 0.380951 0.204987
1.000000 0.387024 0.204987
0.172546 0.298889 0.210480
0.176178 0.298889 0.210480
0.180054 0.298889 0.207733
0.184143 0.298584 0.204987
0.189209 0.296997 0.204987
0.197235 0.293579 0.204987
0.231293 0.293457 0.204987
0.264191 0.293457 0.204987
0.289337 0.294617 0.204987
0.310120 0.293243 0.204987
0.336456 0.293671 0.204987
0.359619 0.296967 0.204987
0.384033 0.300995 0.204987
0.406708 0.305145 0.204987
0.433105 0.312988 0.204987
0.461395 0.321075 0.204987
0.494263 0.329956 0.204987
0.532959 0.338867 0.204987
0.571045 0.347382 0.204987
0.605255 0.354431 0.204987
0.640961 0.364838 0.204987
0.679413 0.375336 0.204987
0.714111 0.380951 0.204987
0.750366 0.382874 0.204987
0.785889 0.387573 0.204987
0.818329 0.396667 0.204987
0.852081 0.406128 0.204987
0.884247 0.410553 0.204987
0.918030 0.407257 0.204987
0.947144 0.406342 0.204987
0.972839 0.409424 0.204987
0.996521 0.414886 0.204987
0.172546 0.319580 0.205170
0.176178 0.319580 0.205170
0.180054 0.319580 0.205170
0.184143 0.319275 0.204987
0.188477 0.318176 0.204987
0.193085 0.317047 0.204987
0.227142 0.316895 0.204987
0.263824 0.316895 0.204987
0.289337 0.318085 0.204987
0.314270 0.319458 0.204987
0.341522 0.319366 0.204987
0.369263 0.320435 0.204987
0.395844 0.325226 0.204987
0.420624 0.330078 0.204987
0.444214 0.335144 0.204987
0.471954 0.343811 0.204987
0.503937 0.353485 0.204987
0.538483 0.363678 0.204987
0.577087 0.373840 0.204987
0.612183 0.383484 0.204987
0.643402 0.392822 0.204987
0.680878 0.403137 0.204987
0.718353 0.412872 0.204987
0.754303 0.414246 0.204987
0.788666 0.416656 0.204987
0.820282 0.425446 0.204987
0.850708 0.433838 0.204987
0.882812 0.438354 0.204987
0.913300 0.442719 0.204987
0.941528 0.443695 0.204987
0.967743 0.443695 0.204987
0.992371 0.443939 0.204987
0.172546 0.349609 0.215729
0.176178 0.349609 0.208740
0.180054 0.349609 0.204987
0.184143 0.349609 0.204987
0.188477 0.349579 0.204987
0.193054 0.348450 0.204987
0.227020 0.348419 0.204987
0.263702 0.348419 0.204987
0.294067 0.348419 0.204987
0.319946 0.349579 0.204987
0.350128 0.348206 0.204987
0.378662 0.349152 0.204987
0.407349 0.353912 0.204987
0.436676 0.359711 0.204987
0.462708 0.365234 0.204987
0.489136 0.369690 0.204987
0.521973 0.379456 0.204987
0.556732 0.389618 0.204987
0.585754 0.396942 0.204987
0.622284 0.408203 0.204987
0.654877 0.418915 0.204987
0.689667 0.429108 0.204987
0.726685 0.439087 0.204987
0.757233 0.443237 0.204987
0.791687 0.445374 0.204987
0.824585 0.452972 0.204987
0.854858 0.461304 0.204987
0.887024 0.467041 0.204987
0.917511 0.471588 0.204987
0.945618 0.475677 0.204987
0.971771 0.478424 0.204987
0.996429 0.478424 0.204987
0.172546 0.381470 0.225769
0.176178 0.381470 0.217865
0.180054 0.381470 0.210449
0.184143 0.381775 0.204987
0.188477 0.381775 0.204987
0.193054 0.381775 0.204987
0.225800 0.381470 0.204987
0.262482 0.381470 0.204987
0.295288 0.381470 0.204987
0.325836 0.381470 0.204987
0.355560 0.380371 0.204987
0.388031 0.380432 0.204987
0.417664 0.385223 0.204987
0.449585 0.390076 0.204987
0.481506 0.396759 0.204987
0.508331 0.399658 0.204987
0.539429 0.406464 0.204987
0.575470 0.416718 0.204987
0.603516 0.424011 0.204987
0.633484 0.433105 0.204987
0.667847 0.445648 0.204987
0.703308 0.455841 0.204987
0.737793 0.465942 0.204987
0.767975 0.471497 0.204987
0.797607 0.475525 0.204987
0.830383 0.482697 0.204987
0.861664 0.489868 0.204987
0.892731 0.495880 0.204987
0.923309 0.501312 0.204987
0.949249 0.505432 0.204987
0.975403 0.509308 0.204987
1.000000 0.512909 0.204987
0.172546 0.415863 0.230377
0.176178 0.415863 0.220703
0.180054 0.415863 0.210449
0.184143 0.416168 0.204987
0.188477 0.417328 0.204987
0.193054 0.417816 0.204987
0.222351 0.416595 0.204987
0.256256 0.415863 0.204987
0.295898 0.415863 0.204987
0.332062 0.415863 0.204987
0.359650 0.415863 0.204987
0.391144 0.416351 0.204987
0.428650 0.422729 0.204987
0.462952 0.425781 0.204987
0.498749 0.429596 0.204987
0.528381 0.429657 0.204987
0.558014 0.435577 0.204987
0.591187 0.444855 0.204987
0.624634 0.454926 0.204987
0.654907 0.463928 0.204987
0.688110 0.475342 0.204987
0.723602 0.483765 0.204987
0.758118 0.492523 0.204987
0.787201 0.503693 0.204987
0.816437 0.509918 0.204987
0.848022 0.513733 0.204987
0.878906 0.519623 0.204987
0.906403 0.526459 0.204987
0.934204 0.532593 0.204987
0.957336 0.536285 0.204987
0.976715 0.539185 0.204987
1.000000 0.542633 0.204987
0.172546 0.454224 0.230743
0.176178 0.455078 0.225403
0.180054 0.455078 0.215118
0.184143 0.455078 0.206665
0.188477 0.455658 0.204987
0.193054 0.456879 0.204987
0.203522 0.456604 0.204987
0.235168 0.455292 0.204987
0.297485 0.454224 0.204987
0.339081 0.454224 0.204987
0.372345 0.455994 0.204987
0.402405 0.456299 0.204987
0.439911 0.460846 0.204987
0.476105 0.464691 0.204987
0.514709 0.466370 0.204987
0.548004 0.468170 0.204987
0.584473 0.470856 0.204987
0.615448 0.479340 0.204987
0.648132 0.486755 0.204987
0.678284 0.494324 0.204987
0.710358 0.504669 0.204987
0.744629 0.514587 0.204987
0.779114 0.521729 0.204987
0.807343 0.529419 0.204987
0.835693 0.539917 0.204987
0.866638 0.546692 0.204987
0.896637 0.550262 0.204987
0.920654 0.554596 0.204987
0.946777 0.561096 0.204987
0.963654 0.565826 0.204987
0.981781 0.568939 0.204987
1.000000 0.571655 0.204987
0.172546 0.496307 0.227570
0.176178 0.497223 0.222229
0.180054 0.498169 0.216614
0.184143 0.498871 0.211487
0.188477 0.498871 0.208374
0.193054 0.498871 0.205048
0.197845 0.498871 0.204987
0.202911 0.498871 0.204987
0.269196 0.497711 0.204987
0.346771 0.496338 0.204987
0.383728 0.499084 0.204987
0.420868 0.501740 0.204987
0.458344 0.503296 0.204987
0.494507 0.504974 0.204987
0.529785 0.506622 0.204987
0.566345 0.510071 0.204987
0.606262 0.514465 0.204987
0.647369 0.519653 0.204987
0.679291 0.524658 0.204987
0.708649 0.529633 0.204987
0.735107 0.534424 0.204987
0.767853 0.543732 0.204987
0.800934 0.553619 0.204987
0.828613 0.559143 0.204987
0.855804 0.565002 0.204987
0.886230 0.573914 0.204987
0.915131 0.582184 0.204987
0.938019 0.585632 0.204987
0.959717 0.588867 0.204987
0.975372 0.592712 0.204987
0.988007 0.596619 0.204987
1.000000 0.600220 0.204987
0.172546 0.541473 0.270508
0.176178 0.541473 0.252106
0.180054 0.541626 0.234833
0.184143 0.542999 0.226410
0.188477 0.545135 0.211731
0.193054 0.545776 0.205139
0.221191 0.545776 0.204987
0.237335 0.545776 0.204987
0.283417 0.544617 0.204987
0.351532 0.543213 0.204987
0.400177 0.541779 0.204987
0.440002 0.543518 0.204987
0.477509 0.545105 0.204987
0.514587 0.547607 0.204987
0.550690 0.550049 0.204987
0.585541 0.550079 0.204987
0.625427 0.552734 0.204987
0.666656 0.556213 0.204987
0.705261 0.559570 0.204987
0.739105 0.565155 0.204987
0.771667 0.570892 0.204987
0.797150 0.575439 0.204987
0.826965 0.583313 0.204987
0.853271 0.590210 0.204987
0.879303 0.595795 0.204987
0.903381 0.600861 0.204987
0.930756 0.608368 0.204987
0.953705 0.614166 0.204987
0.975464 0.618530 0.204987
0.984619 0.621582 0.204987
0.988495 0.624512 0.204987
1.000000 0.628082 0.204987
0.172546 0.586639 0.299255
0.176178 0.589325 0.287720
0.180054 0.589325 0.268127
0.184143 0.589325 0.250427
0.188477 0.590363 0.237396
0.193054 0.592651 0.221954
0.228424 0.592712 0.204987
0.258820 0.592712 0.204987
0.309875 0.591553 0.204987
0.363922 0.590179 0.204987
0.411835 0.592407 0.204987
0.460510 0.590881 0.204987
0.501526 0.591187 0.204987
0.535950 0.591034 0.204987
0.572876 0.594391 0.204987
0.610382 0.595306 0.204987
0.647644 0.595306 0.204987
0.688812 0.597015 0.204987
0.727448 0.599518 0.204987
0.761810 0.602051 0.204987
0.797119 0.607849 0.204987
0.830780 0.612671 0.204987
0.855103 0.616943 0.204987
0.877167 0.621277 0.204987
0.902863 0.627563 0.204987
0.929169 0.631866 0.204987
0.951477 0.636719 0.204987
0.961548 0.642487 0.204987
0.983337 0.647980 0.204987
0.992493 0.651001 0.204987
0.996368 0.653687 0.204987
1.000000 0.656433 0.204987
0.173004 0.629669 0.312439
0.176697 0.632324 0.301208
0.180603 0.635254 0.289032
0.184814 0.637360 0.276703
0.189178 0.637360 0.265167
0.193695 0.637360 0.253021
0.231079 0.637329 0.231049
0.271667 0.637329 0.207916
0.324310 0.636200 0.204987
0.381042 0.634827 0.204987
0.428925 0.639038 0.204987
0.477722 0.642303 0.204987
0.524536 0.640686 0.204987
0.563354 0.639038 0.204987
0.595276 0.637329 0.204987
0.635101 0.639008 0.204987
0.675049 0.639923 0.204987
0.712769 0.639893 0.204987
0.751373 0.641693 0.204987
0.785828 0.643311 0.204987
0.815521 0.644897 0.204987
0.849976 0.648743 0.204987
0.884186 0.652954 0.204987
0.903595 0.655731 0.204987
0.923279 0.658539 0.204987
0.951111 0.662323 0.204987
0.976929 0.665985 0.204987
0.982697 0.671661 0.204987
0.988068 0.677124 0.204987
0.992493 0.680115 0.204987
0.996368 0.682068 0.204987
1.000000 0.683868 0.204987
0.216766 0.681763 0.325317
0.224945 0.682709 0.321838
0.232727 0.684021 0.316498
0.239044 0.686157 0.303040
0.250977 0.686157 0.287292
0.257568 0.686157 0.274048
0.284546 0.684967 0.237701
0.320343 0.684448 0.207916
0.354675 0.684448 0.204987
0.402954 0.683624 0.204987
0.441071 0.684937 0.204987
0.489227 0.687042 0.204987
0.543091 0.682709 0.204987
0.586273 0.682861 0.204987
0.622192 0.682800 0.204987
0.653656 0.679413 0.204987
0.696228 0.682953 0.204987
0.736328 0.685333 0.204987
0.766541 0.681946 0.204987
0.803802 0.682922 0.204987
0.837402 0.683533 0.204987
0.869537 0.686188 0.204987
0.902802 0.689819 0.204987
0.926361 0.688477 0.204987
0.944916 0.690460 0.204987
0.956329 0.694244 0.204987
0.978607 0.697876 0.204987
0.983185 0.701294 0.204987
0.988068 0.705688 0.204987
0.992493 0.708679 0.204987
0.996368 0.710632 0.204987
1.000000 0.712433 0.204987
0.263306 0.727722 0.337067
0.268585 0.727173 0.332855
0.277313 0.728149 0.329163
0.284332 0.729156 0.323669
0.292603 0.729553 0.310364
0.305145 0.729553 0.293823
0.320862 0.731293 0.265625
0.349976 0.730042 0.226654
0.386444 0.729156 0.209839
0.421112 0.729156 0.209839
0.457092 0.727631 0.206390
0.498596 0.729156 0.209930
0.552917 0.726135 0.214752
0.601227 0.720520 0.204987
0.641541 0.722198 0.204987
0.678040 0.721680 0.204987
0.710449 0.719757 0.204987
0.753235 0.724792 0.204987
0.784912 0.722900 0.204987
0.817017 0.720367 0.204987
0.852905 0.720367 0.204987
0.886230 0.722748 0.204987
0.917694 0.725403 0.204987
0.939880 0.722687 0.204987
0.960327 0.721680 0.204987
0.968872 0.724335 0.204987
0.979492 0.727722 0.204987
0.984070 0.727020 0.204987
0.988403 0.730286 0.204987
0.992493 0.734802 0.204987
0.996368 0.736755 0.204987
1.000000 0.738556 0.204987
0.313232 0.766724 0.347565
0.317780 0.765808 0.343170
0.322601 0.764862 0.338501
0.328003 0.765076 0.332672
0.330170 0.766144 0.323273
0.334839 0.767029 0.311859
0.343506 0.770538 0.288757
0.354736 0.773712 0.262665
0.393372 0.772400 0.238678
0.433563 0.771271 0.220337
0.468231 0.767120 0.213623
0.507965 0.765045 0.212921
0.561127 0.766632 0.230988
0.609375 0.761658 0.223724
0.652405 0.755005 0.204987
0.695953 0.758453 0.204987
0.730957 0.758057 0.204987
0.762573 0.757599 0.204987
0.796204 0.757599 0.204987
0.829437 0.756287 0.204987
0.863800 0.754700 0.204987
0.897156 0.757111 0.204987
0.928589 0.759766 0.204987
0.949371 0.755615 0.204987
0.968109 0.752899 0.204987
0.973175 0.754181 0.204987
0.979492 0.755829 0.204987
0.984070 0.752380 0.204987
0.988403 0.749146 0.204987
0.992493 0.753571 0.204987
0.996368 0.758423 0.204987
1.000000 0.762024 0.204987
0.340973 0.801910 0.348450
0.345520 0.801910 0.346710
0.350372 0.801178 0.342834
0.356781 0.800476 0.339478
0.365143 0.800690 0.337616
0.367401 0.801849 0.327759
0.363922 0.804230 0.292633
0.372559 0.807953 0.267853
0.412170 0.808472 0.260345
0.453766 0.807098 0.238068
0.475433 0.805237 0.237518
0.513916 0.801697 0.225616
0.565338 0.802338 0.215485
0.615112 0.798584 0.223846
0.659363 0.790222 0.205231
0.704071 0.791199 0.204987
0.743958 0.791138 0.204987
0.774048 0.789185 0.204987
0.807617 0.789185 0.204987
0.838623 0.787720 0.204987
0.871094 0.785706 0.204987
0.905334 0.785370 0.204987
0.936523 0.788055 0.204987
0.951508 0.785095 0.204987
0.969635 0.781464 0.204987
0.974701 0.780640 0.204987
0.979492 0.781738 0.204987
0.984070 0.780518 0.204987
0.988403 0.777313 0.204987
0.992493 0.775635 0.204987
0.996368 0.777588 0.204987
1.000000 0.782135 0.204987
0.362457 0.835022 0.347382
0.367126 0.834991 0.345825
0.371979 0.834991 0.343964
0.378143 0.835083 0.342285
0.387970 0.835083 0.342285
0.398346 0.835083 0.342285
0.395691 0.837372 0.308167
0.391785 0.839905 0.270386
0.428864 0.840179 0.260712
0.474548 0.840179 0.255402
0.494720 0.838806 0.256195
0.519836 0.837555 0.251709
0.569885 0.837555 0.220184
0.617859 0.833221 0.204987
0.664978 0.824860 0.204987
0.710175 0.824585 0.204987
0.751282 0.822784 0.204987
0.785583 0.819397 0.204987
0.819092 0.819336 0.204987
0.850159 0.818024 0.204987
0.878296 0.814880 0.204987
0.911133 0.814178 0.204987
0.943604 0.814087 0.204987
0.957397 0.811340 0.204987
0.969635 0.808838 0.204987
0.974701 0.807587 0.204987
0.979492 0.806305 0.204987
0.984070 0.805084 0.204987
0.988403 0.803925 0.204987
0.992493 0.802795 0.204987
0.996368 0.801819 0.204987
1.000000 0.800934 0.204987
0.377747 0.865448 0.355408
0.384125 0.864563 0.358032
0.389984 0.864044 0.358673
0.394806 0.864960 0.355133
0.399139 0.868225 0.347748
0.409393 0.868317 0.347595
0.420197 0.869476 0.329742
0.419495 0.871765 0.295776
0.433014 0.870880 0.275269
0.473206 0.870636 0.267426
0.510986 0.869202 0.256470
0.535156 0.867737 0.255280
0.579681 0.866608 0.238831
0.620697 0.864807 0.212128
0.663513 0.858032 0.204987
0.708801 0.852234 0.204987
0.757538 0.850464 0.204987
0.796631 0.847076 0.204987
0.826019 0.845703 0.204987
0.858459 0.845703 0.204987
0.887970 0.843964 0.204987
0.916229 0.840973 0.204987
0.947754 0.840393 0.204987
0.957397 0.837555 0.204987
0.969635 0.835083 0.204987
0.974701 0.833801 0.204987
0.979492 0.832520 0.204987
0.984070 0.829102 0.204987
0.988403 0.827484 0.204987
0.992493 0.825012 0.204987
0.996368 0.822601 0.204987
1.000000 0.821686 0.204987
0.393494 0.894318 0.364166
0.399536 0.893524 0.366302
0.406342 0.892609 0.369141
0.411896 0.892487 0.367798
0.416229 0.895752 0.360413
0.420807 0.899200 0.352661
0.431274 0.900330 0.337097
0.442627 0.901581 0.317719
0.456940 0.900726 0.296448
0.473602 0.899353 0.277832
0.509338 0.898102 0.267365
0.548859 0.896576 0.256042
0.591125 0.895020 0.245544
0.629425 0.892487 0.228790
0.662903 0.889160 0.206146
0.707916 0.882568 0.204987
0.756256 0.877136 0.204987
0.805847 0.873718 0.204987
0.835114 0.871613 0.204987
0.865021 0.870392 0.204987
0.896301 0.870392 0.204987
0.924805 0.868164 0.204987
0.951569 0.865234 0.204987
0.960876 0.862274 0.204987
0.969635 0.859894 0.204987
0.974701 0.858612 0.204987
0.979492 0.857208 0.204987
0.984070 0.853424 0.204987
0.988403 0.850159 0.204987
0.992493 0.847260 0.204987
0.996368 0.844330 0.204987
1.000000 0.841583 0.204987
0.416290 0.919647 0.379944
0.420868 0.919647 0.379944
0.426605 0.919159 0.381256
0.431549 0.918793 0.378723
0.431549 0.919891 0.363098
0.436066 0.923279 0.355164
0.445526 0.923401 0.356049
0.456604 0.924408 0.340851
0.463867 0.924561 0.300293
0.478668 0.923401 0.276581
0.505768 0.923401 0.273346
0.545227 0.921936 0.262146
0.588531 0.920349 0.251648
0.630554 0.917847 0.235565
0.666748 0.914490 0.213470
0.710419 0.910461 0.204987
0.756561 0.904266 0.204987
0.804565 0.900330 0.204987
0.840179 0.894409 0.204987
0.870636 0.892029 0.204987
0.902588 0.890564 0.204987
0.929077 0.889374 0.204987
0.955353 0.886688 0.204987
0.960876 0.882538 0.204987
0.969635 0.880157 0.204987
0.974701 0.880157 0.204987
0.979492 0.878754 0.204987
0.984070 0.871887 0.204987
0.988403 0.867920 0.204987
0.992493 0.865540 0.204987
0.996368 0.863373 0.204987
1.000000 0.860626 0.204987
0.437561 0.943695 0.394501
0.442078 0.943665 0.394501
0.446899 0.943665 0.394501
0.450653 0.943970 0.389832
0.450653 0.945038 0.374146
0.450653 0.946228 0.357697
0.459686 0.946228 0.358063
0.469788 0.946228 0.359314
0.476929 0.946228 0.322235
0.483826 0.946228 0.276947
0.510773 0.946228 0.272095
0.541626 0.945892 0.267212
0.585388 0.944336 0.256653
0.627960 0.941895 0.240906
0.670044 0.938507 0.219910
0.713501 0.935059 0.209991
0.758759 0.930542 0.204987
0.803375 0.925415 0.204987
0.840454 0.918762 0.204987
0.875336 0.913635 0.204987
0.908142 0.910431 0.204987
0.934875 0.908630 0.204987
0.958862 0.907074 0.204987
0.964355 0.902954 0.204987
0.969635 0.899353 0.204987
0.974701 0.899353 0.204987
0.979492 0.899261 0.204987
0.984070 0.892395 0.204987
0.988403 0.885864 0.204987
0.992493 0.882477 0.204987
0.996368 0.880524 0.204987
1.000000 0.878723 0.204987
0.444427 0.964355 0.395691
0.448059 0.963440 0.395691
0.452606 0.963165 0.395691
0.457733 0.963501 0.390198
0.462097 0.964569 0.371887
0.462067 0.965729 0.355438
0.464417 0.965729 0.351471
0.474396 0.965729 0.352661
0.482605 0.965729 0.339417
0.489532 0.965729 0.294617
0.521149 0.965729 0.268707
0.549042 0.965118 0.260529
0.583099 0.962708 0.238983
0.623047 0.961090 0.231506
0.664215 0.958038 0.213318
0.707764 0.954559 0.209991
