Game/Assets/LUTs/purple11-free-luts-pack/You can do it.CUBE
#Created by: Adobe Photoshop Export Color Lookup Plugin
#Copyright: (C) Copyright 2019 Purple11
TITLE "You can do it"
#LUT size
LUT_3D_SIZE 5
#data domain
#LUT data points
DOMAIN_MIN 0.000000 0.000000 0.000000
DOMAIN_MAX 0.903226 0.903226 0.903226
0.172546 0.177704 0.257355
0.296661 0.172546 0.238525
0.452301 0.172546 0.204987
0.692719 0.172546 0.204987
0.931183 0.204468 0.204987
0.172546 0.278564 0.216644
0.264679 0.270966 0.204987
0.423676 0.291626 0.204987
0.676178 0.344788 0.204987
0.923096 0.371368 0.204987
0.172546 0.496307 0.227570
0.202911 0.498871 0.204987
0.529785 0.506622 0.204987
0.767853 0.543732 0.204987
0.959717 0.588867 0.204987
0.340973 0.801910 0.348450
0.372559 0.807953 0.267853
0.659363 0.790222 0.205231
0.905334 0.785370 0.204987
0.988403 0.777313 0.204987
0.450958 0.983948 0.396790
0.478729 0.984314 0.346344
0.658752 0.976532 0.207031
0.935974 0.943359 0.204987
0.988403 0.921692 0.204987
0.172546 0.185333 0.334839
0.202911 0.179810 0.349884
0.394684 0.191925 0.396088
0.697449 0.172546 0.338379
0.949921 0.172546 0.238617
0.172546 0.273712 0.308258
0.227325 0.273560 0.307800
0.442230 0.284485 0.311584
0.723755 0.268829 0.244904
0.970764 0.231781 0.234161
0.172546 0.501099 0.410645
0.202911 0.501465 0.371948
0.522156 0.514343 0.323181
0.753143 0.553894 0.250793
0.956360 0.598297 0.234161
0.350067 0.797028 0.484955
0.430817 0.802032 0.458160
0.631805 0.798096 0.357758
0.894135 0.787842 0.334717
0.988403 0.785126 0.257446
0.460785 0.979126 0.518860
0.511230 0.978943 0.490448
0.645660 0.979004 0.346436
0.928040 0.946442 0.261566
0.988403 0.923798 0.238678
0.172546 0.221741 0.486267
0.202911 0.244263 0.476837
0.244812 0.265839 0.516113
0.559814 0.313202 0.669342
0.821106 0.359528 0.733124
0.172546 0.305023 0.412903
0.202911 0.317841 0.446350
0.308624 0.333862 0.503571
0.595276 0.384155 0.663513
0.870575 0.423920 0.704254
0.172546 0.501465 0.513580
0.202911 0.508850 0.515869
0.477936 0.522156 0.523560
0.769989 0.554352 0.563599
0.982666 0.563416 0.564209
0.338593 0.799316 0.676025
0.422333 0.800476 0.669830
0.606995 0.803101 0.623962
0.866608 0.798309 0.554871
0.988403 0.802185 0.518799
0.459229 0.978485 0.727264
0.516754 0.976227 0.713837
0.652435 0.973969 0.652985
0.892212 0.955200 0.528809
0.988403 0.931671 0.506866
0.172546 0.283752 0.640839
0.202911 0.297455 0.647888
0.244812 0.338043 0.649231
0.453033 0.390594 0.759766
0.734222 0.445374 0.894623
0.172546 0.355530 0.605438
0.202911 0.366730 0.622070
0.244812 0.412140 0.668457
0.498199 0.451080 0.760773
0.766754 0.500580 0.894867
0.172546 0.542450 0.618774
0.202911 0.548981 0.614471
0.244812 0.589111 0.680389
0.655243 0.611237 0.770874
0.869415 0.633881 0.896515
0.435486 0.799500 0.772400
0.495087 0.799500 0.773773
0.638031 0.804840 0.771454
0.840637 0.812653 0.780060
0.986511 0.808868 0.801453
0.457275 0.975311 0.888214
0.511230 0.972137 0.883392
0.654144 0.971771 0.863708
0.850830 0.961761 0.807617
0.988403 0.937225 0.731934
0.172546 0.341034 0.779755
0.202911 0.356415 0.790436
0.244812 0.398956 0.802856
0.291138 0.469025 0.855530
0.681915 0.509827 0.973755
0.172546 0.409546 0.760498
0.202911 0.422302 0.775391
0.244812 0.471222 0.827881
0.291138 0.524658 0.855103
0.712128 0.554077 0.967529
0.172546 0.590179 0.732452
0.202911 0.595825 0.745270
0.244812 0.630066 0.808624
0.365356 0.682465 0.890808
0.799866 0.680481 0.967285
0.408112 0.817535 0.875061
0.442963 0.817719 0.874664
0.566833 0.832153 0.867676
0.703857 0.857605 0.887146
0.924805 0.849854 0.945160
0.534668 0.969391 0.926331
0.592041 0.967133 0.926331
0.709686 0.966797 0.920349
0.868652 0.958038 0.907349
0.987457 0.944641 0.902222
